<?xml version="1.0" encoding="UTF-8"?>
<map version="1.10" tiledversion="1.10.2" orientation="orthogonal" renderorder="right-down" width="45" height="30" tilewidth="16" tileheight="16" infinite="0" nextlayerid="42" nextobjectid="7">
 <tileset firstgid="1" name="Forest Combo" tilewidth="16" tileheight="16" tilecount="9200" columns="100">
  <image source="../Assets/FantasyForest_Combo.png" width="1600" height="1472"/>
 </tileset>
 <layer id="34" name="Ground 3 - under P" width="45" height="30">
  <data encoding="csv">
0,0,0,0,0,0,0,0,0,0,0,0,0,0,0,0,0,0,0,0,0,0,0,0,0,0,0,0,0,0,0,0,0,0,0,0,0,0,0,0,0,0,0,0,0,0,0,0,0,0,0,0,0,0,0,0,0,0,0,0,0,0,0,0,0,0,0,0,0,0,0,0,0,0,0,0,0,0,0,0,0,0,0,0,0,0,0,0,0,0,0,0,0,0,0,0,0,0,0,0,0,0,0,0,0,0,0,0,0,0,0,0,0,0,0,0,0,0,0,0,0,0,0,0,0,0,0,0,0,0,0,0,0,0,0,0,0,0,0,0,0,0,0,0,0,0,0,0,0,0,0,0,0,0,0,0,0,0,0,0,0,0,0,0,0,0,0,0,0,0,0,0,0,0,0,0,0,0,0,0,0,0,0,0,0,0,0,0,0,0,0,0,0,0,0,0,0,0,0,0,0,0,0,0,0,0,0,0,0,0,0,0,0,0,0,0,0,0,0,0,0,0,0,0,0,0,0,0,0,0,0,0,0,0,0,0,0,0,0,0,0,0,0,0,0,0,0,0,0,0,0,0,0,0,0,0,0,0,0,0,0,0,0,0,0,0,0,0,0,0,0,0,0,0,0,0,0,0,0,0,0,0,0,0,0,0,0,0,0,0,0,0,0,0,0,0,0,0,0,0,0,0,0,0,0,0,0,0,0,0,0,0,0,0,0,0,0,0,0,0,0,0,0,0,0,0,0,0,0,0,0,0,0,0,0,0,0,0,0,0,0,0,0,0,0,0,0,0,0,0,0,0,0,0,0,0,0,0,0,0,0,0,0,0,0,0,0,3702,3703,3703,3704,0,0,0,0,0,0,0,0,0,0,0,0,0,0,0,0,0,0,0,0,0,0,0,0,0,0,0,0,0,0,0,0,0,0,0,0,0,0,3802,4910,4910,3804,0,0,0,0,0,0,0,0,0,0,0,0,0,0,0,0,0,0,0,0,0,0,0,0,0,0,0,0,0,0,0,0,0,0,0,0,0,0,3902,3805,4910,3706,3704,0,0,0,0,3702,3703,3704,0,0,0,0,3702,3704,3702,3704,0,0,0,0,0,0,0,0,0,0,0,0,0,0,0,0,0,0,0,0,0,0,0,3902,3805,4910,3706,3704,0,0,0,3802,4908,3804,0,0,0,3702,3705,3706,3705,3706,3704,0,0,0,0,0,0,0,0,0,0,0,0,0,0,0,0,0,0,0,0,0,0,3902,3805,4908,3706,3703,3703,3703,3705,4908,3706,3703,3703,3703,3705,4908,4910,4910,4910,3804,0,0,0,0,0,3702,3704,0,0,0,0,0,0,0,0,0,0,0,0,0,0,0,0,0,0,0,3802,4908,4908,4910,4910,4908,4910,4910,4910,4910,4910,4910,4908,4908,4910,4910,4910,3706,3703,3703,3703,3703,3703,3705,3706,3704,0,0,0,0,0,0,0,0,0,0,0,0,0,0,0,0,0,0,0,0,3802,4910,3806,3903,3903,3903,3903,3903,3903,3903,3805,4908,4908,4908,4910,4908,4910,4908,4908,4908,4910,4910,4908,4908,4910,3804,0,0,0,0,0,0,0,0,0,0,0,0,0,0,0,0,0,0,0,0,3802,4908,3804,0,0,0,0,0,0,0,3802,4910,4908,4910,4910,4910,4910,3806,3903,3903,3903,3903,3805,4908,4908,3706,3704,0,0,0,0,0,0,0,0,0,0,0,0,0,0,0,0,0,0,0,0,3802,4908,3804,0,0,0,0,0,0,0,3902,3805,4910,4910,4910,4910,4908,3804,3708,3709,3709,3710,3902,3805,4910,4908,3706,3704,0,0,0,0,0,0,0,0,0,0,0,0,0,0,0,0,0,0,0,0,3802,4908,3804,0,0,0,0,0,0,0,0,3802,4910,4908,4910,4910,4908,3804,3808,4916,4916,3712,3710,3902,3805,4910,4910,3804,0,0,0,0,0,0,0,0,0,0,0,0,0,0,0,0,0,0,3702,3705,4910,3804,0,0,0,0,0,0,0,0,3802,4908,4908,4908,4910,4910,3804,3808,4916,4916,4916,3810,0,3902,3903,3903,3904,0,0,0,0,0,0,0,0,0,0,0,0,0,0,0,0,0,3702,3705,4908,3806,3904,0,0,0,0,0,0,0,0,3902,3805,4910,4908,4908,4908,3804,3808,4916,4916,4916,3810,0,0,0,0,0,0,0,0,0,0,0,0,0,0,0,0,0,0,0,0,3702,3705,4910,3806,3904,0,0,0,0,0,3702,3703,3704,0,0,3802,4910,4908,4910,4910,3804,3908,3909,3909,3909,3910,0,0,0,0,0,0,0,0,0,0,0,0,0,0,0,0,3702,3703,3703,3703,3703,3705,4910,4910,3804,0,0,0,0,0,0,3802,4908,3804,0,0,3802,4910,4910,4908,4908,3804,0,0,0,0,0,0,0,0,0,0,0,0,0,0,0,0,0,3902,3805,4908,4908,4910,4908,4908,4908,3706,3704,0,0,0,0,0,3802,4908,3804,0,0,3802,4908,4910,4910,4910,3804,0,0,0,0,0,0,0,0,0,0,0,0,0,0,0,0,0,0,3902,3903,3903,3903,3903,3903,3805,4910,3706,3703,3703,3703,3703,3703,3705,4910,3706,3703,3703,3705,4908,4908,4908,4908,3804,0,0,0,0,0,0,0,0,0,0,0,0,0,0,0,0,0,0,0,0,0,0,0,0,3902,3805,4908,4908,4910,4910,4910,4910,4910,4910,4910,4910,4908,4908,4908,4908,4910,4910,3706,3704,0,0,0,0,0,0,0,0,0,0,0,0,0,0,0,0,0,0,0,0,0,0,0,0,0,3902,3903,3903,3903,3903,3903,3903,3903,3903,3903,3903,3903,3903,3903,3903,3903,3805,4908,3804,0,0,0,0,0,0,0,0,0,0,0,0,0,0,0,0,0,0,0,0,0,0,0,0,0,0,0,0,0,0,0,0,0,0,0,0,0,0,0,0,0,0,3802,4910,3804,0,0,0,0,0,0,0,0,0,0,0,0,0,0,0,0,0,0,0,0,0,0,0,0,0,0,0,0,0,0,0,0,0,0,0,0,0,0,0,0,3802,4910,3804,0,0,0,0,0,0,0,0,0,0,0,0,0,0,0,0,0,0,0,0,0,0,0,0,0,0,0,0,0,0,0,0,0,0,0,0,0,0,0,0,3802,4908,3804,0,0,0,0,0,0,0,0,0,0,0,0,0,0,0,0,0,0,0,0,0,0,0,0,0,0,0,0,0,0,0,0,0,0,0,0,0,0,0,0,3802,4910,3804,0,0,0,0,0,0,0,0,0,0,0,0,0,0,0
</data>
 </layer>
 <layer id="36" name="Ground 2 - under P" width="45" height="30">
  <data encoding="csv">
1037,1038,1039,0,0,5707,5511,5512,5513,5511,5512,5513,5511,5512,5513,5511,5512,5511,5512,5513,5511,5512,5513,5511,5512,5513,5511,5512,5513,5511,5512,5513,5511,5512,5513,5511,5512,5513,5511,5512,5513,5511,5512,5513,5511,1137,1138,1139,0,5607,5608,5611,5612,5613,5611,5612,5613,5611,5612,5613,5611,5612,5611,5612,5613,5611,5612,5613,5611,5612,5613,5611,5612,5613,5611,5612,5613,5611,5612,5613,5611,5612,5613,5611,5612,5613,5611,5612,5613,5611,0,0,0,0,5707,5708,5711,5712,5713,5711,5712,5713,5711,5712,5713,5711,5712,5711,5712,5713,5711,5712,5713,5711,5712,5713,5711,5712,5713,5711,5712,5713,5711,5712,5713,5711,5712,5713,5711,5712,5713,5711,5712,5713,5711,5513,5511,5512,5513,5807,5808,5811,5812,5813,5811,5812,5813,5811,5812,5813,5811,5812,5811,5812,5813,5811,5812,5813,5811,5812,5813,5811,5812,5813,5811,5812,5813,5811,5812,5813,5811,5812,5813,5811,5812,5813,5811,5812,5813,5811,5613,5611,5612,5613,5907,5908,5909,0,0,0,0,0,0,0,0,0,0,0,0,0,0,0,0,0,0,0,0,0,0,0,0,0,0,0,0,0,0,0,0,0,0,0,0,5713,5711,5712,5713,6007,6008,6009,0,0,0,0,0,0,0,0,0,0,0,0,0,0,0,0,0,0,0,0,0,0,0,0,0,0,0,0,0,0,0,0,0,5405,5406,5406,5813,5811,5812,5813,6107,6108,6109,0,0,0,0,0,0,0,0,0,0,0,0,0,0,0,0,0,0,0,0,0,0,0,0,0,0,0,0,0,0,5603,5604,0,0,0,0,0,0,0,0,0,0,0,0,0,0,0,0,0,0,0,0,0,0,0,0,0,0,0,0,0,0,0,0,0,0,0,0,0,0,0,5603,5604,0,0,0,0,0,0,0,0,0,0,0,0,0,0,0,0,0,0,0,0,0,0,0,0,0,0,0,0,0,0,0,0,0,0,0,0,0,0,0,5603,5604,0,0,0,0,0,0,0,0,0,0,0,0,0,0,0,0,0,0,0,0,0,0,0,0,0,0,0,0,0,0,0,0,0,0,0,0,0,0,0,5603,5604,0,0,0,0,0,0,0,0,0,0,0,0,0,0,0,0,0,0,0,0,0,0,0,0,0,0,0,0,0,0,0,0,0,0,0,0,0,0,0,5603,5604,0,0,0,0,0,0,0,0,0,0,0,0,0,0,0,0,0,0,0,0,0,0,0,0,0,0,0,0,0,0,0,0,0,0,0,0,0,0,0,5603,5604,0,0,0,0,0,0,0,0,0,0,0,0,0,0,0,0,0,0,0,0,0,0,0,0,0,0,0,0,0,0,0,0,0,0,0,0,0,0,0,5603,5604,0,0,0,0,0,0,0,0,0,0,0,0,0,0,0,0,0,0,0,0,0,0,0,0,0,0,0,0,0,0,0,0,0,0,0,0,0,0,0,5603,5604,0,0,0,0,0,0,0,0,0,0,0,0,0,0,0,0,0,0,0,0,0,0,0,0,0,0,0,0,0,0,0,0,0,0,0,7007,7008,7009,7010,7011,5505,0,0,0,0,0,0,0,0,0,0,0,0,0,0,0,0,0,0,0,0,0,0,0,0,0,0,0,0,0,0,0,0,0,0,0,7107,7108,7109,7110,7111,0,0,0,0,0,0,0,0,0,0,0,0,0,0,0,0,0,0,0,0,0,0,0,0,0,0,0,0,0,0,0,0,0,0,0,7207,7208,7209,7210,7211,5705,0,0,0,0,0,0,0,0,0,0,0,0,0,0,0,0,0,0,0,0,0,0,0,0,0,0,0,0,0,0,0,0,0,0,0,7307,7308,7309,7310,7311,5805,5806,5806,0,0,0,0,0,0,0,0,0,0,0,0,0,0,0,0,0,0,0,0,0,0,0,0,0,0,0,0,0,0,0,0,0,0,0,7407,7408,7409,7410,7411,5905,5906,5906,0,0,0,0,0,0,0,0,0,0,0,0,0,0,0,0,0,0,0,0,0,0,0,0,0,0,0,0,0,0,0,0,0,0,0,0,0,0,0,6005,6006,6006,0,0,0,0,0,0,0,0,0,0,0,0,0,0,0,0,0,0,0,0,0,0,0,0,0,0,0,0,0,0,0,0,0,0,0,0,0,0,0,6105,6106,6106,0,0,0,0,0,0,0,0,0,0,0,0,0,0,0,0,0,0,0,0,0,0,0,0,0,0,0,0,0,0,0,0,0,0,0,0,0,0,0,0,0,0,0,0,0,0,0,0,0,0,0,0,0,0,0,0,0,0,0,0,0,0,0,0,0,0,0,0,0,0,0,0,0,0,0,0,0,0,0,0,0,0,0,0,0,0,0,0,0,0,0,0,0,0,0,0,0,0,0,0,0,0,0,0,0,0,0,0,0,0,0,0,0,0,0,0,0,0,0,0,0,0,0,0,0,0,0,0,0,0,0,0,0,0,0,0,0,0,0,0,0,0,0,0,0,0,0,0,0,0,0,0,0,0,0,0,0,0,0,0,0,0,0,0,0,0,0,0,0,0,0,0,0,0,0,0,0,0,0,0,0,0,0,0,0,0,0,0,0,0,0,0,0,0,0,0,0,0,0,0,0,0,0,0,0,0,0,0,0,0,0,0,0,0,0,0,0,0,0,0,0,0,0,0,0,0,0,0,0,0,0,0,0,0,0,0,0,0,0,0,0,0,0,0,0,0
</data>
 </layer>
 <layer id="31" name="Ground 1 - under P" width="45" height="30">
  <data encoding="csv">
0,0,0,0,0,0,0,0,0,0,0,0,0,0,0,0,0,0,0,0,0,0,0,0,0,0,0,0,0,0,0,0,0,0,0,0,0,0,0,0,0,0,0,0,0,0,0,0,0,0,0,0,0,0,0,0,0,0,0,0,0,0,0,0,0,0,0,0,0,0,0,0,0,0,0,0,0,0,0,0,0,0,0,0,0,0,0,0,0,0,0,0,0,0,0,0,0,0,0,0,0,0,0,0,0,0,0,0,0,0,0,0,0,0,0,0,0,0,0,0,0,0,0,0,0,0,0,0,0,0,0,0,0,0,0,0,0,0,0,0,0,0,0,0,0,0,0,0,0,0,0,0,0,0,0,0,0,0,0,0,0,0,0,0,0,0,0,0,0,0,0,0,0,0,0,0,0,0,0,0,0,0,0,0,0,0,0,0,0,0,0,0,0,0,0,0,0,0,0,0,0,0,0,0,0,0,0,0,0,0,0,0,0,0,0,0,0,0,0,0,0,0,0,0,0,0,0,0,0,0,0,0,0,0,0,0,0,0,0,0,0,0,0,0,0,0,0,0,0,0,0,0,0,0,0,0,0,0,0,0,0,0,0,0,0,0,0,0,0,0,0,0,0,0,0,0,0,0,0,0,0,0,0,0,0,0,0,0,0,0,0,0,0,0,0,0,0,0,0,0,0,0,0,0,0,0,0,0,0,0,0,0,0,0,0,1040,0,0,0,0,0,0,0,0,0,0,0,0,0,0,0,0,0,0,0,0,0,0,0,0,0,0,0,0,0,0,0,0,0,0,0,0,0,0,0,0,0,0,0,0,0,0,0,0,0,0,0,0,0,0,0,0,0,0,0,0,0,0,0,0,0,0,0,0,0,0,0,0,0,0,0,0,0,0,0,0,0,0,0,0,0,0,0,0,1443,1444,0,1729,0,0,0,0,0,0,0,0,0,0,0,0,0,0,0,0,0,0,0,0,0,0,0,0,0,0,0,0,0,0,0,1141,0,0,0,0,0,942,943,0,0,0,0,0,0,1543,1544,0,0,0,0,0,0,0,0,0,0,0,0,0,0,0,0,0,0,0,0,0,0,0,0,0,0,0,0,1141,0,0,0,0,0,0,0,0,0,0,0,0,0,0,942,943,0,0,0,0,0,0,0,0,0,0,0,0,0,0,0,0,0,0,0,0,0,0,0,0,0,0,0,0,0,0,940,0,0,0,0,0,0,0,0,0,0,0,0,0,0,0,0,0,0,0,0,0,0,0,0,0,0,0,0,0,0,0,0,0,0,0,0,0,0,0,0,0,0,0,0,0,0,0,0,0,0,0,0,0,0,0,0,0,0,0,0,0,0,0,0,0,0,0,0,0,0,0,0,1042,1043,0,0,1316,1317,0,0,0,0,0,0,0,0,0,0,0,0,0,0,0,0,0,0,0,0,0,0,0,0,0,0,0,0,0,0,0,0,0,0,0,0,0,0,0,0,1416,1417,0,0,0,0,0,0,0,0,0,1118,0,0,0,0,0,0,0,1243,1244,0,0,0,0,0,0,0,0,0,0,0,0,0,0,0,0,0,1242,0,0,0,0,0,0,0,0,0,0,0,0,0,0,0,0,0,0,0,1343,1344,0,0,0,0,0,0,3219,3220,3221,3222,3223,3224,3225,0,0,0,0,0,0,0,0,0,0,0,0,0,0,0,0,0,0,0,0,1534,0,0,0,0,0,0,1042,1043,0,0,0,0,0,0,3319,3320,3321,3322,3323,3324,3325,0,0,0,0,0,0,0,0,0,0,0,0,0,0,0,0,0,0,0,0,0,0,0,0,0,0,0,0,0,0,0,0,0,0,0,0,3419,3420,3421,3422,3423,0,0,0,0,0,0,0,0,0,0,0,0,0,0,0,0,0,0,0,0,0,1042,1043,0,0,0,0,0,0,0,0,0,0,0,0,0,0,0,0,0,0,0,0,0,0,0,0,0,0,0,0,0,0,0,0,0,1040,0,0,0,0,0,0,0,0,0,0,0,0,0,0,0,0,0,0,0,0,0,0,0,0,0,0,0,0,0,0,0,0,0,0,0,0,0,0,0,0,0,0,0,0,0,0,0,0,0,0,0,0,0,0,0,0,0,0,0,0,0,0,0,0,0,0,0,0,0,0,0,0,1242,0,0,0,0,0,0,0,0,0,0,0,0,0,0,0,0,0,0,0,0,0,0,0,0,0,0,0,0,1042,1043,0,0,0,0,0,2626,2627,0,0,0,2631,2632,2633,0,0,0,0,0,0,0,0,0,0,0,0,0,0,0,0,0,0,0,0,0,0,0,0,0,0,0,0,0,0,0,0,0,0,0,2726,2727,0,0,0,2731,2732,2733,0,0,0,0,0,0,0,0,0,0,0,0,0,0,0,0,0,0,0,0,0,0,0,0,0,940,2326,2327,2328,2329,2430,2431,2432,0,0,0,0,0,0,0,0,0,0,0,0,0,0,0,0,0,0,0,0,0,0,0,0,0,942,943,0,2426,2427,2428,2429,2430,2431,2432,0,1443,1444,0,0,0,0,0,0,0,0,0,0,0,0,0,0,0,0,0,0,0,0,0,0,0,0,0,0,0,0,0,0,0,0,0,1543,1544,0,0,0,0,0,0,0,0,0,0,0,0,0,0,0,0,0,0,0,0,0,0,940,0,0,0,0,0,0,0,0,0,0,0,0,0,0,0,0,0,0,0,0,0,0,0,0,0,0,0,0,0,0,0,0,1433,1434,0,0,0,0,0,0,0,0,0,0,0,0,1142,1143,0,0,0,0,0,0,0,0,0,1534,0,0,0,0,0,0,0,0,0,0,0,0,0,0,0,0,0,1929,0,0,0,0,0,0,0,0,0,0,1929,0,0,0,0,0,0,0,0,0,0,0,0,0,0
</data>
 </layer>
 <layer id="32" name="Objects" width="45" height="30">
  <data encoding="csv">
0,0,0,0,0,0,0,0,0,0,0,0,0,0,0,0,0,0,0,0,0,0,0,0,0,0,0,0,0,0,0,0,0,0,0,0,0,0,0,0,0,0,0,0,0,0,0,0,0,0,0,0,0,0,0,0,0,0,0,0,0,0,0,0,0,0,0,0,0,0,0,0,0,0,0,0,0,0,0,0,0,0,0,0,0,0,0,0,0,0,0,0,0,0,0,0,0,0,0,0,0,0,0,0,0,0,0,0,0,0,0,0,0,0,0,0,0,0,0,0,0,0,0,0,0,0,0,0,0,0,0,0,0,0,0,0,0,0,0,0,0,0,0,0,0,0,0,0,0,0,0,0,0,0,0,0,0,0,0,0,0,0,0,0,0,0,0,0,0,0,0,0,0,0,0,0,0,0,0,0,0,0,0,0,0,0,0,0,0,0,0,0,0,0,0,0,0,0,0,0,1115,1116,1117,0,0,0,0,0,0,0,0,0,0,1439,1440,0,0,0,0,0,0,0,0,0,0,0,0,0,0,0,1130,1131,1132,0,0,0,0,0,0,1215,1216,0,0,0,0,0,0,0,0,0,0,0,0,0,1439,1440,1539,1540,0,0,0,0,0,0,0,0,0,0,0,0,1230,1231,1232,0,0,0,704,705,706,0,1009,0,0,0,0,0,0,0,0,0,0,0,0,0,0,1539,1540,1441,1442,0,0,0,0,0,0,0,0,0,0,0,0,0,0,0,0,0,0,804,805,806,0,1014,0,0,0,0,0,0,0,0,0,391,392,0,0,0,0,0,0,0,1541,1542,0,0,0,0,0,0,0,0,0,0,0,0,0,0,0,0,0,0,0,0,1114,0,0,0,0,0,0,0,0,0,491,492,0,0,0,0,0,0,0,0,0,0,0,0,0,0,0,0,0,0,0,0,0,0,0,0,0,0,0,1010,1011,0,0,0,703,704,705,706,0,0,0,0,0,0,0,0,0,0,0,0,0,0,0,0,0,0,0,0,0,0,0,0,0,0,0,0,0,0,1110,1111,0,0,0,803,804,805,806,0,0,0,0,0,0,0,0,0,0,0,0,0,0,0,0,0,0,0,0,0,0,0,0,0,0,0,0,720,0,0,0,0,0,0,0,0,0,0,1010,1011,1036,1037,1038,1039,0,0,0,0,0,0,0,0,0,0,0,0,0,0,0,0,0,0,0,0,820,0,1313,1314,0,0,0,0,0,0,0,1110,1111,1136,1137,1138,1139,0,0,0,0,0,0,0,0,0,0,0,0,0,0,0,0,0,0,0,0,0,1315,0,0,0,0,0,711,712,0,0,0,0,0,0,0,0,0,0,0,0,0,0,0,0,0,0,0,0,0,0,0,0,0,0,0,0,0,0,0,1415,0,0,0,0,0,811,812,0,0,0,0,1233,1234,1235,0,0,0,0,0,0,0,0,0,0,0,3121,3122,3123,3124,0,0,0,0,0,0,0,0,0,0,0,0,0,0,0,0,0,0,0,0,0,0,1333,1334,1335,0,0,0,0,0,0,0,0,0,0,0,0,1941,1942,1830,1831,1936,0,0,0,0,0,0,0,0,0,0,0,0,0,0,715,716,717,0,0,0,0,0,0,0,0,0,0,0,0,0,0,0,0,0,0,0,0,0,1836,1930,1931,0,0,0,0,0,0,0,0,0,0,0,0,0,0,815,816,817,0,0,0,0,0,0,0,0,930,931,932,0,0,0,0,0,0,0,0,0,0,0,0,0,0,0,0,0,0,0,0,0,0,0,0,0,0,0,0,0,0,0,0,0,0,0,0,0,1030,1031,1032,0,0,0,0,0,0,0,0,0,0,0,0,0,0,0,0,0,0,0,0,0,1307,1308,1309,0,0,0,591,592,0,0,0,591,592,0,0,0,0,3415,3416,0,0,0,0,0,0,0,0,0,0,0,0,0,0,0,0,0,1125,1126,1127,1128,1129,0,0,1407,1408,1409,0,0,0,691,692,0,0,0,691,692,0,0,0,0,3515,3516,0,0,0,0,0,0,0,0,0,0,0,0,0,0,0,0,0,1225,1226,1227,1228,1229,0,0,0,0,0,0,0,0,0,0,0,0,0,0,0,0,0,0,0,0,0,0,0,0,0,0,0,0,0,0,0,1315,1316,1317,0,0,0,0,0,0,0,0,710,711,712,0,0,0,0,0,0,0,0,0,0,0,0,0,0,0,0,0,0,0,0,0,0,0,0,933,934,935,1415,1416,1417,0,0,0,0,0,0,0,0,810,811,812,0,0,0,0,1441,1442,0,0,1441,1442,0,0,0,0,0,0,0,0,0,0,0,0,0,0,0,0,0,1033,1034,1035,0,0,0,0,0,0,0,0,0,0,0,0,0,0,0,0,1441,1442,1542,1441,1442,1541,1542,0,0,0,0,0,0,0,0,0,0,0,0,0,0,0,0,0,0,0,0,0,0,0,0,0,0,0,0,0,0,0,0,1541,1542,0,1541,1542,0,0,0,0,0,0,0,0,0,0,0,0,0,0,0,0,0,0,0,0,0,0,0,0,0,0,0,0,0,0,0,0,0,711,712,1439,1440,0,1441,1442,1441,1442,0,719,720,721,0,0,0,0,0,0,0,0,0,0,0,0,0,0,0,0,0,0,0,0,0,0,0,0,0,0,0,811,812,1539,1540,0,1541,1542,1541,1542,0,819,820,821,715,716,717,719,720,721,0,0,703,704,705,706,0,0,0,0,719,720,721,0,0,0,0,3127,3128,3129,3130,3131,0,0,0,0,0,0,0,0,0,0,0,0,0,0,0,0,0,0,815,816,817,819,820,821,0,0,803,804,805,806,0,0,0,0,819,820,821,0,0,0,0,3227,3228,3229,3230,3231,0,0,0,0
</data>
 </layer>
</map>
