<?xml version="1.0" encoding="UTF-8"?>
<map version="1.10" tiledversion="1.11.1.1" orientation="orthogonal" renderorder="right-down" width="10" height="10" tilewidth="16" tileheight="16" infinite="0" nextlayerid="7" nextobjectid="118">
 <tileset firstgid="1" name="Mana_Interiors" tilewidth="16" tileheight="16" tilecount="6784" columns="128">
  <image source="../spritesheets/Mana_Seed_Interiors.png" width="2048" height="848"/>
 </tileset>
 <layer id="1" name="Ground 3 - under P" width="10" height="10" locked="1">
  <data encoding="csv">
356,357,357,357,357,357,357,357,357,359,
452,847,973,974,972,847,974,973,972,487,
580,1103,727,728,1101,1103,1100,1100,1101,615,
708,1231,855,856,1229,1231,1228,1228,1228,743,
452,2010,983,984,449,450,446,447,448,871,
580,446,447,447,449,450,448,449,319,999,
708,574,575,576,577,578,576,577,447,871,
836,702,703,704,705,706,704,705,319,999,
1092,830,831,832,833,834,832,833,834,1127,
1220,1254,1254,1254,0,0,1254,1254,1254,1255
</data>
 </layer>
 <layer id="4" name="Ground 2 - under P" width="10" height="10" locked="1">
  <data encoding="csv">
0,0,0,0,0,0,0,0,0,0,
0,0,0,0,0,0,0,0,0,0,
0,0,0,0,0,0,0,0,0,0,
0,0,0,0,0,0,0,0,0,0,
0,0,0,0,0,0,0,0,0,0,
0,0,25,26,27,28,0,0,0,0,
0,0,281,282,283,284,0,0,0,0,
0,0,409,410,411,412,0,0,0,0,
0,0,0,0,0,0,0,0,0,0,
0,0,0,0,0,0,0,0,0,0
</data>
 </layer>
 <layer id="2" name="Decor 1 - P level" width="10" height="10" locked="1">
  <data encoding="csv">
0,2349,2349,2349,0,0,0,0,0,0,
0,2477,0,0,2482,2481,1839,0,0,0,
0,2147484420,0,0,2349,2349,1835,2829,2830,0,
0,2147484548,0,0,0,0,2476,2957,2958,0,
0,2147484676,0,0,0,0,2604,3343,3344,0,
0,2147485954,2147485953,546,548,0,0,3471,3472,0,
0,2147486082,2147486081,674,676,0,0,0,0,0,
0,0,0,0,0,0,0,2309,2310,0,
0,0,0,0,0,0,0,2437,2438,0,
0,0,0,0,3287,3288,0,0,0,0
</data>
 </layer>
 <layer id="3" name="Objects - P level" width="10" height="10" locked="1">
  <data encoding="csv">
0,0,0,0,0,0,0,0,0,0,
0,0,0,0,0,0,0,0,0,0,
0,0,0,0,0,0,0,0,0,0,
0,0,0,0,0,0,1719,0,0,0,
0,0,0,0,0,0,0,0,0,0,
0,0,0,1703,0,0,0,0,0,0,
0,0,0,0,0,0,0,0,0,0,
0,0,0,0,0,0,0,0,0,0,
0,0,0,0,0,0,0,0,0,0,
0,0,0,0,0,0,0,0,0,0
</data>
 </layer>
 <objectgroup id="5" name="Triggers" visible="0" locked="1">
  <object id="1" name="SpawnFromDoor_3" type="spawn" x="72" y="123.099" width="16" height="16">
   <properties>
    <property name="door_id" type="int" value="3"/>
   </properties>
  </object>
  <object id="2" name="ExitToVillage_3" type="door" x="64" y="144" width="32" height="16">
   <properties>
    <property name="door_id" type="int" value="3"/>
    <property name="target_scene" type="file" value="../../../scenes/worlds/World_00.tscn"/>
   </properties>
  </object>
  <object id="117" name="Item_Birthday_Cake" type="item" x="62.288" y="80.8021" width="16" height="16">
   <properties>
    <property name="item_id" type="int" value="124"/>
    <property name="unique" type="bool" value="false"/>
   </properties>
  </object>
 </objectgroup>
 <objectgroup id="6" name="Walls">
  <object id="59" type="wall" x="16" y="64" width="16" height="16">
   <polygon points="0,0 16,0 16.3806,10.5771 8.31366,12.1748 6.04055,15.5461 3.38308,15.3915 1.53797,13.0274 0.190279,14.0972"/>
  </object>
  <object id="60" type="wall" x="128" y="112.19" width="16" height="15.8097">
   <polygon points="0,0 10.0062,1.12809 14.887,4.57234 15.334,15.7157 0,15.8097"/>
  </object>
  <object id="61" type="wall" x="0" y="0" width="16" height="16"/>
  <object id="62" type="wall" x="16" y="0" width="16" height="16"/>
  <object id="63" type="wall" x="32" y="0" width="16" height="16"/>
  <object id="64" type="wall" x="48" y="0" width="16" height="16"/>
  <object id="65" type="wall" x="64" y="0" width="16" height="16"/>
  <object id="66" type="wall" x="80" y="0" width="16" height="16"/>
  <object id="67" type="wall" x="96" y="0" width="16" height="16"/>
  <object id="68" type="wall" x="112" y="0" width="16" height="16"/>
  <object id="69" type="wall" x="128" y="0" width="16" height="16"/>
  <object id="70" type="wall" x="144" y="0" width="16" height="16"/>
  <object id="71" type="wall" x="0" y="16" width="16" height="16"/>
  <object id="72" type="wall" x="0" y="32" width="16" height="16"/>
  <object id="73" type="wall" x="16" y="32" width="16" height="16"/>
  <object id="74" type="wall" x="48" y="32" width="16" height="16"/>
  <object id="75" type="wall" x="64" y="32" width="16" height="16"/>
  <object id="76" type="wall" x="80" y="32" width="16" height="16"/>
  <object id="77" type="wall" x="96" y="32" width="16" height="16"/>
  <object id="78" type="wall" x="0" y="48" width="16" height="16"/>
  <object id="79" type="wall" x="16" y="48" width="16" height="16"/>
  <object id="80" type="wall" x="32" y="48" width="16" height="16"/>
  <object id="81" type="wall" x="48" y="48" width="16" height="16"/>
  <object id="82" type="wall" x="64" y="48" width="16" height="16"/>
  <object id="83" type="wall" x="80" y="48" width="16" height="16"/>
  <object id="84" type="wall" x="96" y="48" width="16" height="16"/>
  <object id="85" type="wall" x="112" y="48" width="16" height="16"/>
  <object id="86" type="wall" x="128" y="48" width="16" height="16">
   <polygon points="0,8 16,8 16,16 0,16"/>
  </object>
  <object id="87" type="wall" x="144" y="48" width="16" height="16"/>
  <object id="88" type="wall" x="0" y="64" width="16" height="16"/>
  <object id="89" type="wall" x="96" y="64" width="16" height="16">
   <polygon points="0,0 16,0 16,3 15.0997,15.8168 9,16 0,16"/>
  </object>
  <object id="90" type="wall" x="112" y="64" width="16" height="16"/>
  <object id="91" type="wall" x="0" y="80" width="16" height="16"/>
  <object id="92" type="wall" x="48.9514" y="85.9263" width="15.0486" height="18.8676">
   <polygon points="0,0 15.0486,0 15.2389,18.3919 3.82222,18.5518 -0.0951393,14.396"/>
  </object>
  <object id="93" type="wall" x="64" y="86.3086" width="16" height="17.5294">
   <polygon points="0,0 16,0 15.9782,14.3786 10.8625,17.6245 0,17.5294"/>
  </object>
  <object id="94" type="wall" x="112" y="80" width="16" height="16"/>
  <object id="95" type="wall" x="128" y="80" width="16" height="16"/>
  <object id="96" type="wall" x="144" y="80" width="16" height="16"/>
  <object id="97" type="wall" x="0" y="96" width="16" height="16"/>
  <object id="98" type="wall" x="48" y="96" width="16" height="16">
   <polygon points="4.66183,8.57084 16,8 16.2685,10.8964 11.649,12.1927 10.4819,15.4292 4.66183,15.334 3.27083,12.5557"/>
  </object>
  <object id="99" type="wall" x="64" y="96" width="16" height="16">
   <polygon points="0,8 11.909,8.19028 14.0021,12.8394 12.8604,15.334 6.33288,14.9515 4.08012,11.6937 0.380557,11.1479"/>
  </object>
  <object id="100" type="wall" x="144" y="96" width="16" height="16"/>
  <object id="101" type="wall" x="0" y="112" width="16" height="16"/>
  <object id="102" type="wall" x="112" y="112" width="16" height="16">
   <polygon points="0,9.89449 6.71251,2.85418 16.3257,0.431238 16.1396,7.28542 16,11 16,16 0,16"/>
  </object>
  <object id="103" type="wall" x="144" y="112" width="16" height="16"/>
  <object id="104" type="wall" x="0" y="128" width="16" height="16"/>
  <object id="105" type="wall" x="112" y="128" width="16" height="16">
   <polygon points="0,0 16,0 31.1272,0.0527548 29.3155,8.49529 23.4719,14.2147 13.0951,15.0889 7.76319,14.7125 3.66805,12.6701 0.665975,9.05483"/>
  </object>
  <object id="106" type="wall" x="144" y="128" width="16" height="16"/>
  <object id="107" type="wall" x="0" y="144" width="16" height="16"/>
  <object id="108" type="wall" x="16" y="144" width="16" height="16"/>
  <object id="109" type="wall" x="32" y="144" width="16" height="16"/>
  <object id="110" type="wall" x="48" y="144" width="16" height="16"/>
  <object id="111" type="wall" x="96" y="144" width="16" height="16"/>
  <object id="112" type="wall" x="112" y="144" width="16" height="16"/>
  <object id="113" type="wall" x="128" y="144" width="16" height="16"/>
  <object id="114" type="wall" x="144" y="144" width="16" height="16"/>
  <object id="115" type="wall" x="64" y="158" width="16" height="16"/>
  <object id="116" type="wall" x="80" y="158" width="16" height="16"/>
  <object id="117" type="wall" x="17.6709" y="85.4339">
   <polygon points="0,0 5.40351,-4.96539 11.2451,-3.2129 11.8293,4.96539 19.8616,9.34661 19.7155,15.3343 18.2551,17.3789 18.4011,18.4011 20.8838,18.5472 19.7155,22.0522 12.2674,22.3442 13.8739,24.5349 13.1437,26.2873 7.74016,26.2873 1.02229,22.1982 1.46041,17.5249 3.35894,17.963 3.06686,15.0422 -0.438122,5.11143"/>
  </object>
 </objectgroup>
</map>
