<?xml version="1.0" encoding="UTF-8"?>
<map version="1.10" tiledversion="1.11.0" orientation="orthogonal" renderorder="right-down" width="45" height="30" tilewidth="16" tileheight="16" infinite="0" nextlayerid="2" nextobjectid="1">
 <tileset firstgid="1" name="PaperMap" tilewidth="16" tileheight="16" tilecount="1178" columns="38">
  <image source="../Assets/PaperMapSheet16x16.png" width="608" height="496"/>
  <wangsets>
   <wangset name="MapTerrain" type="corner" tile="-1">
    <wangcolor name="edge" color="#ff0000" tile="-1" probability="1"/>
    <wangcolor name="sand" color="#00ff00" tile="-1" probability="1"/>
    <wangcolor name="Forest" color="#0000ff" tile="-1" probability="1"/>
    <wangcolor name="Ice" color="#ff7700" tile="-1" probability="1"/>
    <wangcolor name="Castle" color="#00e9ff" tile="-1" probability="1"/>
    <wangcolor name="Water" color="#ff00d8" tile="-1" probability="1"/>
    <wangcolor name="Clouds" color="#ffff00" tile="-1" probability="1"/>
    <wangcolor name="Desert" color="#a000ff" tile="-1" probability="1"/>
    <wangcolor name="Grass" color="#00ffa1" tile="-1" probability="1"/>
    <wangtile tileid="532" wangid="0,1,0,2,0,1,0,1"/>
    <wangtile tileid="533" wangid="0,1,0,2,0,2,0,1"/>
    <wangtile tileid="534" wangid="0,1,0,1,0,2,0,1"/>
    <wangtile tileid="535" wangid="0,2,0,1,0,2,0,2"/>
    <wangtile tileid="536" wangid="0,2,0,2,0,1,0,2"/>
    <wangtile tileid="537" wangid="0,0,0,2,0,0,0,0"/>
    <wangtile tileid="538" wangid="0,0,0,2,0,2,0,0"/>
    <wangtile tileid="539" wangid="0,0,0,0,0,2,0,0"/>
    <wangtile tileid="540" wangid="0,2,0,0,0,2,0,2"/>
    <wangtile tileid="541" wangid="0,2,0,2,0,0,0,2"/>
    <wangtile tileid="570" wangid="0,2,0,2,0,1,0,1"/>
    <wangtile tileid="571" wangid="0,2,0,2,0,2,0,2"/>
    <wangtile tileid="572" wangid="0,1,0,1,0,2,0,2"/>
    <wangtile tileid="573" wangid="0,1,0,2,0,2,0,2"/>
    <wangtile tileid="574" wangid="0,2,0,2,0,2,0,1"/>
    <wangtile tileid="575" wangid="0,2,0,2,0,0,0,0"/>
    <wangtile tileid="576" wangid="0,2,0,2,0,2,0,2"/>
    <wangtile tileid="577" wangid="0,0,0,0,0,2,0,2"/>
    <wangtile tileid="578" wangid="0,0,0,2,0,2,0,2"/>
    <wangtile tileid="579" wangid="0,2,0,2,0,2,0,0"/>
    <wangtile tileid="608" wangid="0,2,0,1,0,1,0,1"/>
    <wangtile tileid="609" wangid="0,2,0,1,0,1,0,2"/>
    <wangtile tileid="610" wangid="0,1,0,1,0,1,0,2"/>
    <wangtile tileid="611" wangid="0,2,0,1,0,2,0,1"/>
    <wangtile tileid="612" wangid="0,1,0,2,0,1,0,2"/>
    <wangtile tileid="613" wangid="0,2,0,0,0,0,0,0"/>
    <wangtile tileid="614" wangid="0,2,0,0,0,0,0,2"/>
    <wangtile tileid="615" wangid="0,0,0,0,0,0,0,2"/>
    <wangtile tileid="616" wangid="0,2,0,0,0,2,0,0"/>
    <wangtile tileid="617" wangid="0,0,0,2,0,0,0,2"/>
    <wangtile tileid="689" wangid="0,0,0,3,0,0,0,0"/>
    <wangtile tileid="690" wangid="0,0,0,3,0,3,0,0"/>
    <wangtile tileid="691" wangid="0,0,0,0,0,3,0,0"/>
    <wangtile tileid="692" wangid="0,3,0,0,0,3,0,3"/>
    <wangtile tileid="693" wangid="0,3,0,3,0,0,0,3"/>
    <wangtile tileid="727" wangid="0,3,0,3,0,0,0,0"/>
    <wangtile tileid="728" wangid="0,3,0,3,0,3,0,3"/>
    <wangtile tileid="729" wangid="0,0,0,0,0,3,0,3"/>
    <wangtile tileid="730" wangid="0,0,0,3,0,3,0,3"/>
    <wangtile tileid="731" wangid="0,3,0,3,0,3,0,0"/>
    <wangtile tileid="765" wangid="0,3,0,0,0,0,0,0"/>
    <wangtile tileid="766" wangid="0,3,0,0,0,0,0,3"/>
    <wangtile tileid="767" wangid="0,0,0,0,0,0,0,3"/>
    <wangtile tileid="768" wangid="0,3,0,0,0,3,0,0"/>
    <wangtile tileid="769" wangid="0,0,0,3,0,0,0,3"/>
    <wangtile tileid="874" wangid="0,0,0,6,0,0,0,0"/>
    <wangtile tileid="875" wangid="0,0,0,6,0,6,0,0"/>
    <wangtile tileid="876" wangid="0,0,0,0,0,6,0,0"/>
    <wangtile tileid="877" wangid="0,6,0,0,0,6,0,6"/>
    <wangtile tileid="878" wangid="0,6,0,6,0,0,0,6"/>
    <wangtile tileid="879" wangid="0,0,0,7,0,0,0,0"/>
    <wangtile tileid="880" wangid="0,0,0,7,0,7,0,0"/>
    <wangtile tileid="881" wangid="0,0,0,0,0,7,0,0"/>
    <wangtile tileid="882" wangid="0,7,0,0,0,7,0,7"/>
    <wangtile tileid="883" wangid="0,7,0,7,0,0,0,7"/>
    <wangtile tileid="884" wangid="0,0,0,9,0,0,0,0"/>
    <wangtile tileid="885" wangid="0,0,0,9,0,9,0,0"/>
    <wangtile tileid="886" wangid="0,0,0,0,0,9,0,0"/>
    <wangtile tileid="887" wangid="0,9,0,0,0,9,0,9"/>
    <wangtile tileid="888" wangid="0,9,0,9,0,0,0,9"/>
    <wangtile tileid="912" wangid="0,6,0,6,0,0,0,0"/>
    <wangtile tileid="913" wangid="0,6,0,6,0,6,0,6"/>
    <wangtile tileid="914" wangid="0,0,0,0,0,6,0,6"/>
    <wangtile tileid="915" wangid="0,0,0,6,0,6,0,6"/>
    <wangtile tileid="916" wangid="0,6,0,6,0,6,0,0"/>
    <wangtile tileid="917" wangid="0,7,0,7,0,0,0,0"/>
    <wangtile tileid="918" wangid="0,7,0,7,0,7,0,7"/>
    <wangtile tileid="919" wangid="0,0,0,0,0,7,0,7"/>
    <wangtile tileid="920" wangid="0,0,0,7,0,7,0,7"/>
    <wangtile tileid="921" wangid="0,7,0,7,0,7,0,0"/>
    <wangtile tileid="922" wangid="0,9,0,9,0,0,0,0"/>
    <wangtile tileid="923" wangid="0,9,0,9,0,9,0,9"/>
    <wangtile tileid="924" wangid="0,0,0,0,0,9,0,9"/>
    <wangtile tileid="925" wangid="0,0,0,9,0,9,0,9"/>
    <wangtile tileid="926" wangid="0,9,0,9,0,9,0,0"/>
    <wangtile tileid="950" wangid="0,6,0,0,0,0,0,0"/>
    <wangtile tileid="951" wangid="0,6,0,0,0,0,0,6"/>
    <wangtile tileid="952" wangid="0,0,0,0,0,0,0,6"/>
    <wangtile tileid="953" wangid="0,6,0,0,0,6,0,0"/>
    <wangtile tileid="954" wangid="0,0,0,6,0,0,0,6"/>
    <wangtile tileid="955" wangid="0,7,0,0,0,0,0,0"/>
    <wangtile tileid="956" wangid="0,7,0,0,0,0,0,7"/>
    <wangtile tileid="957" wangid="0,0,0,0,0,0,0,7"/>
    <wangtile tileid="958" wangid="0,0,0,7,0,0,0,7"/>
    <wangtile tileid="959" wangid="0,7,0,0,0,7,0,0"/>
    <wangtile tileid="960" wangid="0,9,0,0,0,0,0,0"/>
    <wangtile tileid="961" wangid="0,9,0,0,0,0,0,9"/>
    <wangtile tileid="962" wangid="0,0,0,0,0,0,0,9"/>
    <wangtile tileid="963" wangid="0,9,0,0,0,9,0,0"/>
    <wangtile tileid="964" wangid="0,0,0,9,0,0,0,9"/>
    <wangtile tileid="998" wangid="0,5,0,5,0,5,0,0"/>
    <wangtile tileid="999" wangid="0,5,0,0,0,0,0,5"/>
    <wangtile tileid="1000" wangid="0,0,0,5,0,5,0,5"/>
    <wangtile tileid="1001" wangid="0,0,0,5,0,0,0,0"/>
    <wangtile tileid="1002" wangid="0,0,0,0,0,5,0,0"/>
    <wangtile tileid="1026" wangid="0,0,0,8,0,0,0,0"/>
    <wangtile tileid="1027" wangid="0,0,0,8,0,8,0,0"/>
    <wangtile tileid="1028" wangid="0,0,0,0,0,8,0,0"/>
    <wangtile tileid="1029" wangid="0,8,0,0,0,8,0,8"/>
    <wangtile tileid="1030" wangid="0,8,0,8,0,0,0,8"/>
    <wangtile tileid="1031" wangid="0,0,0,4,0,0,0,0"/>
    <wangtile tileid="1032" wangid="0,0,0,4,0,4,0,0"/>
    <wangtile tileid="1033" wangid="0,0,0,0,0,4,0,0"/>
    <wangtile tileid="1034" wangid="0,4,0,0,0,4,0,4"/>
    <wangtile tileid="1035" wangid="0,4,0,4,0,0,0,4"/>
    <wangtile tileid="1036" wangid="0,0,0,0,0,5,0,5"/>
    <wangtile tileid="1038" wangid="0,5,0,5,0,0,0,0"/>
    <wangtile tileid="1039" wangid="0,5,0,0,0,0,0,0"/>
    <wangtile tileid="1040" wangid="0,0,0,0,0,0,0,5"/>
    <wangtile tileid="1064" wangid="0,8,0,8,0,0,0,0"/>
    <wangtile tileid="1065" wangid="0,8,0,8,0,8,0,8"/>
    <wangtile tileid="1066" wangid="0,0,0,0,0,8,0,8"/>
    <wangtile tileid="1067" wangid="0,0,0,8,0,8,0,8"/>
    <wangtile tileid="1068" wangid="0,8,0,8,0,8,0,0"/>
    <wangtile tileid="1069" wangid="0,4,0,4,0,0,0,0"/>
    <wangtile tileid="1070" wangid="0,4,0,4,0,4,0,4"/>
    <wangtile tileid="1071" wangid="0,0,0,0,0,4,0,4"/>
    <wangtile tileid="1072" wangid="0,0,0,4,0,4,0,4"/>
    <wangtile tileid="1073" wangid="0,4,0,4,0,4,0,0"/>
    <wangtile tileid="1074" wangid="0,5,0,5,0,0,0,5"/>
    <wangtile tileid="1075" wangid="0,0,0,5,0,5,0,0"/>
    <wangtile tileid="1076" wangid="0,5,0,0,0,5,0,5"/>
    <wangtile tileid="1077" wangid="0,5,0,0,0,5,0,0"/>
    <wangtile tileid="1078" wangid="0,0,0,5,0,0,0,5"/>
    <wangtile tileid="1102" wangid="0,8,0,0,0,0,0,0"/>
    <wangtile tileid="1103" wangid="0,8,0,0,0,0,0,8"/>
    <wangtile tileid="1104" wangid="0,0,0,0,0,0,0,8"/>
    <wangtile tileid="1105" wangid="0,8,0,0,0,8,0,0"/>
    <wangtile tileid="1106" wangid="0,0,0,8,0,0,0,8"/>
    <wangtile tileid="1107" wangid="0,4,0,0,0,0,0,0"/>
    <wangtile tileid="1108" wangid="0,4,0,0,0,0,0,4"/>
    <wangtile tileid="1109" wangid="0,0,0,0,0,0,0,4"/>
    <wangtile tileid="1110" wangid="0,4,0,0,0,4,0,0"/>
    <wangtile tileid="1111" wangid="0,0,0,4,0,0,0,4"/>
   </wangset>
  </wangsets>
 </tileset>
 <layer id="1" name="Tile Layer 1" width="45" height="30">
  <data encoding="csv">
0,0,0,0,0,913,916,876,876,876,876,917,916,877,0,0,0,0,0,0,0,0,0,0,0,0,0,0,0,0,1002,1003,1039,1037,1002,1076,1077,1041,1002,1076,1076,1076,1003,0,0,
0,0,0,0,0,913,914,914,839,840,914,914,914,915,0,0,0,0,0,0,0,0,0,0,0,0,0,0,0,0,1039,1001,999,1001,1078,1075,1001,1076,1078,1000,1000,1000,1041,0,0,
0,0,0,0,0,913,914,914,914,838,914,914,914,915,0,0,0,0,0,0,0,0,0,0,1002,1076,1076,1003,1002,1076,999,1077,1000,1000,1079,999,1077,1075,1001,1076,1076,1076,1076,1003,0,
0,0,0,0,0,951,879,914,914,914,914,914,914,915,0,0,538,539,539,539,539,539,540,0,1040,1000,1075,1037,1039,1077,1000,1079,1003,0,1040,1000,1041,1040,1000,1000,1000,1075,1077,1079,1003,
0,0,0,0,0,0,913,914,914,914,839,840,914,915,0,0,576,536,610,610,610,537,578,1002,1003,0,1039,1001,1078,1041,0,1040,1041,0,1002,1003,0,1002,1003,1002,1003,1040,1079,1078,1041,
0,0,0,0,0,0,951,952,952,879,914,914,914,915,0,0,576,574,534,534,535,609,578,1039,1037,0,1040,1075,1001,1076,1076,1003,1002,1003,1040,1041,1002,1077,1041,1039,1001,1076,1078,1041,0,
0,0,0,0,0,0,0,0,0,951,952,952,952,953,0,0,614,615,615,542,574,535,579,611,540,0,0,1040,1075,1077,1000,1079,999,1001,1076,1076,999,1001,1076,999,1077,1000,1079,1076,1076,
0,0,0,0,0,0,0,0,0,0,0,0,0,0,0,0,0,0,0,614,542,574,534,575,579,540,0,0,1040,1041,1002,1078,1000,1000,1000,1000,1000,1000,1000,1000,1041,0,1040,1000,1000,
0,538,539,539,539,539,539,539,539,540,0,0,0,538,539,539,539,539,539,539,617,615,615,615,615,616,538,539,539,0,1040,1041,0,0,0,0,0,0,0,0,0,0,0,0,0,
0,580,536,537,536,537,577,536,537,579,539,539,539,580,577,577,541,615,615,615,616,880,881,881,881,882,576,577,577,579,539,539,539,540,1040,1041,0,538,539,539,539,539,540,0,0,
539,536,611,609,611,571,536,611,609,537,536,537,577,577,541,615,616,880,881,881,881,922,919,919,883,958,614,542,577,572,572,536,537,579,539,539,539,580,577,536,610,537,578,0,0,
536,613,534,535,533,612,611,533,535,609,611,609,537,541,616,880,881,922,919,883,957,957,957,957,958,0,0,576,577,536,610,611,571,536,537,536,537,536,537,574,535,571,579,540,0,
573,571,577,574,575,573,533,612,611,533,534,534,575,578,880,922,919,883,957,958,1027,1028,1028,1028,1028,1029,0,614,542,574,534,534,575,573,609,613,612,611,609,537,573,609,537,578,0,
573,571,572,536,610,611,571,574,535,609,537,572,541,616,918,883,957,958,1027,1028,1069,1066,1066,1030,1031,1068,1028,1029,614,615,615,542,536,611,533,612,611,533,535,571,574,535,571,578,0,
574,575,572,574,534,534,575,577,574,534,575,577,578,880,960,958,0,0,1103,1104,1104,1104,1104,1107,1069,1066,1066,1068,1028,1028,1029,576,574,535,571,574,535,609,611,609,537,573,571,579,540,
615,615,615,542,577,577,572,541,615,615,615,615,616,956,958,0,885,886,886,886,886,886,887,1103,1104,1031,1066,1066,1066,1066,1067,614,542,574,612,537,574,535,533,535,571,573,609,537,578,
0,1027,1029,614,615,615,615,616,1027,1028,1028,1028,1029,0,885,886,927,888,962,962,962,889,926,887,1027,1069,1066,1030,1104,1104,1105,0,614,542,573,571,536,611,571,573,571,574,535,571,578,
1027,1069,1068,1028,1028,1028,1028,1028,1069,1066,1066,1030,1105,885,927,888,962,963,1027,1028,1029,961,889,925,1103,1104,1104,1105,0,0,1002,1003,0,576,573,609,613,535,571,573,571,577,573,571,578,
1103,1031,1030,1104,1031,1030,1104,1104,1104,1104,1031,1067,885,927,888,963,0,0,1103,1104,1105,885,927,925,0,0,0,0,0,1002,999,1001,1003,576,574,535,609,613,575,573,571,536,611,571,578,
539,1106,1105,538,1069,1105,538,540,0,0,1103,1105,961,962,963,0,0,875,877,0,885,927,888,963,0,1032,1033,1034,0,1039,1077,1075,1037,614,542,574,535,609,610,611,571,573,533,575,578,
615,616,0,614,616,0,576,578,0,0,0,0,0,0,0,0,0,951,953,885,927,888,963,1002,1003,1070,1035,1110,0,1039,1037,1039,1037,0,576,577,573,533,535,533,575,573,571,541,616,
0,0,538,540,1027,1029,576,579,539,539,539,540,0,1002,1003,0,0,0,885,927,888,963,0,1040,1041,1108,1110,0,1002,999,1001,999,1001,1003,614,542,574,575,573,609,610,611,571,578,0,
0,0,576,536,611,571,577,536,610,610,537,578,0,1039,1001,1003,885,886,927,888,963,0,0,0,0,0,538,540,1040,1000,1000,1000,1000,1041,0,576,577,572,574,534,534,534,575,578,0,
0,0,576,573,533,575,536,611,533,535,571,578,0,1040,1075,1037,923,888,962,963,0,0,0,0,0,0,576,579,539,539,540,0,0,0,0,576,577,541,615,615,615,615,615,616,0,
0,0,576,573,571,577,573,533,575,574,575,578,0,0,1040,1041,961,963,0,0,0,538,539,539,539,539,580,536,610,537,579,540,0,0,0,614,542,578,0,0,0,0,0,0,0,
0,0,576,573,609,610,611,571,541,542,572,579,539,539,539,539,539,539,539,539,539,580,536,537,536,537,577,574,535,609,537,578,0,0,0,0,576,579,539,540,0,0,0,0,0,
0,0,576,574,534,534,534,575,578,614,615,542,577,577,536,610,610,610,610,610,610,537,573,609,611,571,577,577,573,533,575,578,0,0,0,0,614,615,542,579,539,540,0,0,0,
0,0,614,615,615,615,615,615,616,0,0,614,615,542,574,534,534,534,534,534,534,575,574,534,535,609,610,610,611,571,577,578,0,0,0,0,0,0,614,615,615,616,0,0,0,
0,0,0,0,0,0,0,0,0,0,0,0,0,614,615,615,615,615,615,615,615,615,542,572,574,534,534,534,534,575,541,616,0,0,0,0,0,0,0,0,0,0,0,0,0,
0,0,0,0,0,0,0,0,0,0,0,0,0,0,0,0,0,0,0,0,0,0,614,615,615,615,615,615,615,615,616,0,0,0,0,0,0,0,0,0,0,0,0,0,0
</data>
 </layer>
</map>
