<?xml version="1.0" encoding="UTF-8"?>
<map version="1.10" tiledversion="1.11.1.1" orientation="orthogonal" renderorder="right-down" width="15" height="12" tilewidth="16" tileheight="16" infinite="0" nextlayerid="6" nextobjectid="265">
 <tileset firstgid="1" name="Mana_Interiors" tilewidth="16" tileheight="16" tilecount="6784" columns="128">
  <image source="../spritesheets/Mana_Seed_Interiors.png" width="2048" height="848"/>
 </tileset>
 <layer id="1" name="Ground &amp; Walls" width="15" height="12">
  <data encoding="csv">
356,357,357,357,357,357,357,357,357,357,357,357,357,358,359,
452,847,973,974,972,847,974,973,972,847,972,973,974,842,487,
580,1103,1100,1102,1101,1103,1100,1100,1101,1103,1102,727,728,1098,615,
708,1231,1229,1230,1229,1231,1228,1228,1228,1231,1230,855,856,1226,743,
452,2010,319,320,449,450,446,447,448,449,450,983,984,322,871,
580,446,447,577,449,450,448,449,319,320,447,448,449,450,999,
708,574,575,576,577,578,576,577,447,448,575,576,577,578,871,
836,702,703,704,705,706,704,705,319,320,448,449,450,450,999,
1092,830,831,832,833,834,832,833,447,448,576,577,578,578,871,
1220,1254,1254,0,0,1254,1254,586,702,703,704,705,706,706,999,
0,0,0,0,0,0,0,1124,830,831,832,833,834,834,1127,
0,0,0,0,0,0,0,1252,1254,1254,0,0,1254,1254,1255
</data>
 </layer>
 <layer id="2" name="Furniture &amp; Decor" width="15" height="12">
  <data encoding="csv">
0,2349,2349,2349,0,0,0,0,0,0,0,0,0,0,0,
0,2477,2215,2609,2482,2481,1839,1838,0,0,0,0,0,0,0,
0,0,2343,2737,2349,2349,0,0,0,0,0,0,0,1433,0,
0,0,0,0,0,0,0,0,0,0,0,0,0,1561,0,
0,0,2147485072,0,0,0,0,0,0,0,0,0,0,1689,0,
0,1553,2147485200,2570,2570,912,913,914,0,0,912,913,914,0,0,
0,1681,2147485328,2570,2570,1040,1041,1042,0,0,1040,1041,1042,5269,0,
0,1968,0,2570,2570,1168,1169,1170,0,0,1168,1169,1170,5397,0,
0,2096,0,0,0,0,0,0,0,0,0,0,5524,5525,0,
0,0,0,3287,3288,0,0,0,1962,0,0,0,5652,3995,0,
0,0,0,0,0,0,0,0,2090,0,0,0,5780,3997,0,
0,0,0,0,0,0,0,0,0,0,3287,3288,0,0,0
</data>
 </layer>
 <layer id="3" name="Items" width="15" height="12">
  <data encoding="csv">
0,0,0,0,0,0,0,0,0,0,0,0,0,0,0,
0,0,0,0,0,0,0,0,0,0,0,0,0,0,0,
0,0,0,0,0,0,0,0,0,0,0,0,0,0,0,
0,0,2147484944,0,0,0,0,0,0,0,0,0,0,0,0,
0,0,1722,0,0,0,0,0,0,0,0,0,0,0,0,
0,1724,2147485200,0,0,0,0,0,0,0,0,0,0,0,0,
0,1681,2147485328,0,0,0,0,0,0,0,0,0,0,0,0,
0,0,0,0,2570,0,0,0,0,0,0,0,0,0,0,
0,0,0,0,0,0,0,0,0,0,0,0,0,0,0,
0,0,0,0,0,0,0,0,0,0,0,0,0,0,0,
0,0,0,0,0,0,0,0,0,0,0,0,0,3494,0,
0,0,0,0,0,0,0,0,0,0,0,0,0,0,0
</data>
 </layer>
 <objectgroup id="4" name="Triggers">
  <object id="1" name="SpawnFromDoor_5" type="spawn" x="168.226" y="156.737" width="16" height="16">
   <properties>
    <property name="door_id" type="int" value="5"/>
   </properties>
  </object>
  <object id="2" name="ExitToVillage_5" type="door" x="160" y="176" width="32" height="16">
   <properties>
    <property name="door_id" type="int" value="5"/>
    <property name="target_scene" type="file" value="../../../scenes/worlds/World_00.tscn"/>
   </properties>
  </object>
  <object id="3" name="SpawnFromDoor_9" type="spawn" x="56" y="125.413" width="16" height="16">
   <properties>
    <property name="door_id" type="int" value="9"/>
   </properties>
  </object>
  <object id="4" name="ExitToVillage_9" type="door" x="48" y="144" width="32" height="16">
   <properties>
    <property name="door_id" type="int" value="9"/>
    <property name="target_scene" type="file" value="../../../scenes/worlds/World_00.tscn"/>
   </properties>
  </object>
 </objectgroup>
 <objectgroup id="5" name="Walls">
  <object id="169" class="wall" x="32" y="96" width="16" height="16"/>
  <object id="170" class="wall" x="16" y="112" width="16" height="16"/>
  <object id="171" class="wall" x="0" y="0" width="16" height="16">
   <polygon points="7,0 9,0 9.119,7.002 16,7 16,9 8.926,9.027 9,16 7,16 6.845,9.003 0,9 0,7 6.942,6.864"/>
  </object>
  <object id="172" class="wall" x="16" y="0" width="16" height="16">
   <polygon points="7,0 9,0 9.119,7.002 16,7 16,9 8.926,9.027 9,16 7,16 6.845,9.003 0,9 0,7 6.942,6.864"/>
  </object>
  <object id="173" class="wall" x="32" y="0" width="16" height="16">
   <polygon points="7,0 9,0 9.119,7.002 16,7 16,9 8.926,9.027 9,16 7,16 6.845,9.003 0,9 0,7 6.942,6.864"/>
  </object>
  <object id="174" class="wall" x="48" y="0" width="16" height="16">
   <polygon points="7,0 9,0 9.119,7.002 16,7 16,9 8.926,9.027 9,16 7,16 6.845,9.003 0,9 0,7 6.942,6.864"/>
  </object>
  <object id="175" class="wall" x="64" y="0" width="16" height="16">
   <polygon points="7,0 9,0 9.119,7.002 16,7 16,9 8.926,9.027 9,16 7,16 6.845,9.003 0,9 0,7 6.942,6.864"/>
  </object>
  <object id="176" class="wall" x="80" y="0" width="16" height="16">
   <polygon points="7,0 9,0 9.119,7.002 16,7 16,9 8.926,9.027 9,16 7,16 6.845,9.003 0,9 0,7 6.942,6.864"/>
  </object>
  <object id="177" class="wall" x="96" y="0" width="16" height="16">
   <polygon points="7,0 9,0 9.119,7.002 16,7 16,9 8.926,9.027 9,16 7,16 6.845,9.003 0,9 0,7 6.942,6.864"/>
  </object>
  <object id="178" class="wall" x="112" y="0" width="16" height="16">
   <polygon points="7,0 9,0 9.119,7.002 16,7 16,9 8.926,9.027 9,16 7,16 6.845,9.003 0,9 0,7 6.942,6.864"/>
  </object>
  <object id="179" class="wall" x="128" y="0" width="16" height="16">
   <polygon points="7,0 9,0 9.119,7.002 16,7 16,9 8.926,9.027 9,16 7,16 6.845,9.003 0,9 0,7 6.942,6.864"/>
  </object>
  <object id="180" class="wall" x="144" y="0" width="16" height="16">
   <polygon points="7,0 9,0 9.119,7.002 16,7 16,9 8.926,9.027 9,16 7,16 6.845,9.003 0,9 0,7 6.942,6.864"/>
  </object>
  <object id="181" class="wall" x="160" y="0" width="16" height="16">
   <polygon points="7,0 9,0 9.119,7.002 16,7 16,9 8.926,9.027 9,16 7,16 6.845,9.003 0,9 0,7 6.942,6.864"/>
  </object>
  <object id="182" class="wall" x="176" y="0" width="16" height="16">
   <polygon points="7,0 9,0 9.119,7.002 16,7 16,9 8.926,9.027 9,16 7,16 6.845,9.003 0,9 0,7 6.942,6.864"/>
  </object>
  <object id="183" class="wall" x="192" y="0" width="16" height="16">
   <polygon points="7,0 9,0 9.119,7.002 16,7 16,9 8.926,9.027 9,16 7,16 6.845,9.003 0,9 0,7 6.942,6.864"/>
  </object>
  <object id="184" class="wall" x="208" y="0" width="16" height="16">
   <polygon points="7,0 9,0 9.119,7.002 16,7 16,9 8.926,9.027 9,16 7,16 6.845,9.003 0,9 0,7 6.942,6.864"/>
  </object>
  <object id="185" class="wall" x="224" y="0" width="16" height="16">
   <polygon points="7,0 9,0 9.119,7.002 16,7 16,9 8.926,9.027 9,16 7,16 6.845,9.003 0,9 0,7 6.942,6.864"/>
  </object>
  <object id="186" class="wall" x="0" y="16" width="16" height="16">
   <polygon points="7,0 9,0 9.119,7.002 16,7 16,9 8.926,9.027 9,16 7,16 6.845,9.003 0,9 0,7 6.942,6.864"/>
  </object>
  <object id="187" class="wall" x="224" y="16" width="16" height="16">
   <polygon points="7,0 9,0 9.119,7.002 16,7 16,9 8.926,9.027 9,16 7,16 6.845,9.003 0,9 0,7 6.942,6.864"/>
  </object>
  <object id="188" class="wall" x="0" y="32" width="16" height="16">
   <polygon points="7,0 9,0 9.119,7.002 16,7 16,9 8.926,9.027 9,16 7,16 6.845,9.003 0,9 0,7 6.942,6.864"/>
  </object>
  <object id="189" class="wall" x="224" y="32" width="16" height="16">
   <polygon points="7,0 9,0 9.119,7.002 16,7 16,9 8.926,9.027 9,16 7,16 6.845,9.003 0,9 0,7 6.942,6.864"/>
  </object>
  <object id="190" class="wall" x="0" y="48" width="16" height="16">
   <polygon points="7,0 9,0 9.119,7.002 16,7 16,9 8.926,9.027 9,16 7,16 6.845,9.003 0,9 0,7 6.942,6.864"/>
  </object>
  <object id="191" class="wall" x="16" y="48" width="16" height="16">
   <polygon points="7,0 9,0 9.119,7.002 16,7 16,9 8.926,9.027 9,16 7,16 6.845,9.003 0,9 0,7 6.942,6.864"/>
  </object>
  <object id="192" class="wall" x="32" y="48" width="16" height="16">
   <polygon points="7,0 9,0 9.119,7.002 16,7 16,9 8.926,9.027 9,16 7,16 6.845,9.003 0,9 0,7 6.942,6.864"/>
  </object>
  <object id="193" class="wall" x="48" y="48" width="16" height="16">
   <polygon points="7,0 9,0 9.119,7.002 16,7 16,9 8.926,9.027 9,16 7,16 6.845,9.003 0,9 0,7 6.942,6.864"/>
  </object>
  <object id="194" class="wall" x="64" y="48" width="16" height="16">
   <polygon points="7,0 9,0 9.119,7.002 16,7 16,9 8.926,9.027 9,16 7,16 6.845,9.003 0,9 0,7 6.942,6.864"/>
  </object>
  <object id="195" class="wall" x="80" y="48" width="16" height="16">
   <polygon points="7,0 9,0 9.119,7.002 16,7 16,9 8.926,9.027 9,16 7,16 6.845,9.003 0,9 0,7 6.942,6.864"/>
  </object>
  <object id="196" class="wall" x="96" y="48" width="16" height="16">
   <polygon points="7,0 9,0 9.119,7.002 16,7 16,9 8.926,9.027 9,16 7,16 6.845,9.003 0,9 0,7 6.942,6.864"/>
  </object>
  <object id="197" class="wall" x="112" y="48" width="16" height="16">
   <polygon points="7,0 9,0 9.119,7.002 16,7 16,9 8.926,9.027 9,16 7,16 6.845,9.003 0,9 0,7 6.942,6.864"/>
  </object>
  <object id="198" class="wall" x="128" y="48" width="16" height="16">
   <polygon points="7,0 9,0 9.119,7.002 16,7 16,9 8.926,9.027 9,16 7,16 6.845,9.003 0,9 0,7 6.942,6.864"/>
  </object>
  <object id="199" class="wall" x="144" y="48" width="16" height="16">
   <polygon points="7,0 9,0 9.119,7.002 16,7 16,9 8.926,9.027 9,16 7,16 6.845,9.003 0,9 0,7 6.942,6.864"/>
  </object>
  <object id="200" class="wall" x="160" y="48" width="16" height="16">
   <polygon points="7,0 9,0 9.119,7.002 16,7 16,9 8.926,9.027 9,16 7,16 6.845,9.003 0,9 0,7 6.942,6.864"/>
  </object>
  <object id="201" class="wall" x="176" y="48" width="16" height="16">
   <polygon points="7,0 9,0 9.119,7.002 16,7 16,9 8.926,9.027 9,16 7,16 6.845,9.003 0,9 0,7 6.942,6.864"/>
  </object>
  <object id="202" class="wall" x="192" y="48" width="16" height="16">
   <polygon points="7,0 9,0 9.119,7.002 16,7 16,9 8.926,9.027 9,16 7,16 6.845,9.003 0,9 0,7 6.942,6.864"/>
  </object>
  <object id="203" class="wall" x="208" y="48" width="16" height="16">
   <polygon points="7,0 9,0 9.119,7.002 16,7 16,9 8.926,9.027 9,16 7,16 6.845,9.003 0,9 0,7 6.942,6.864"/>
  </object>
  <object id="204" class="wall" x="224" y="48" width="16" height="16">
   <polygon points="7,0 9,0 9.119,7.002 16,7 16,9 8.926,9.027 9,16 7,16 6.845,9.003 0,9 0,7 6.942,6.864"/>
  </object>
  <object id="205" class="wall" x="0" y="64" width="16" height="16">
   <polygon points="7,0 9,0 9.119,7.002 16,7 16,9 8.926,9.027 9,16 7,16 6.845,9.003 0,9 0,7 6.942,6.864"/>
  </object>
  <object id="206" class="wall" x="16" y="64" width="16" height="16">
   <polygon points="7,0 9,0 9.119,7.002 16,7 16,9 8.926,9.027 9,16 7,16 6.845,9.003 0,9 0,7 6.942,6.864"/>
  </object>
  <object id="207" class="wall" x="32" y="64" width="16" height="16">
   <polygon points="7,0 9,0 9.119,7.002 16,7 16,9 8.926,9.027 9,16 7,16 6.845,9.003 0,9 0,7 6.942,6.864"/>
  </object>
  <object id="208" class="wall" x="208" y="64" width="16" height="16">
   <polygon points="0,0 16,0 16,5 13,9 9,13 5,16 0,16"/>
  </object>
  <object id="209" class="wall" x="224" y="64" width="16" height="16">
   <polygon points="7,0 9,0 9.119,7.002 16,7 16,9 8.926,9.027 9,16 7,16 6.845,9.003 0,9 0,7 6.942,6.864"/>
  </object>
  <object id="210" class="wall" x="0" y="80" width="16" height="16">
   <polygon points="7,0 9,0 9.119,7.002 16,7 16,9 8.926,9.027 9,16 7,16 6.845,9.003 0,9 0,7 6.942,6.864"/>
  </object>
  <object id="211" class="wall" x="16" y="80" width="16" height="16">
   <polygon points="7,0 9,0 9.119,7.002 16,7 16,9 8.926,9.027 9,16 7,16 6.845,9.003 0,9 0,7 6.942,6.864"/>
  </object>
  <object id="212" class="wall" x="32" y="80" width="16" height="16">
   <polygon points="7,0 9,0 9.119,7.002 16,7 16,9 8.926,9.027 9,16 7,16 6.845,9.003 0,9 0,7 6.942,6.864"/>
  </object>
  <object id="213" class="wall" x="80" y="80" width="16" height="16">
   <polygon points="7,0 9,0 9.119,7.002 16,7 16,9 8.926,9.027 9,16 7,16 6.845,9.003 0,9 0,7 6.942,6.864"/>
  </object>
  <object id="214" class="wall" x="96" y="80" width="16" height="16">
   <polygon points="7,0 9,0 9.119,7.002 16,7 16,9 8.926,9.027 9,16 7,16 6.845,9.003 0,9 0,7 6.942,6.864"/>
  </object>
  <object id="215" class="wall" x="112" y="80" width="16" height="16">
   <polygon points="7,0 9,0 9.119,7.002 16,7 16,9 8.926,9.027 9,16 7,16 6.845,9.003 0,9 0,7 6.942,6.864"/>
  </object>
  <object id="216" class="wall" x="160" y="80" width="16" height="16">
   <polygon points="7,0 9,0 9.119,7.002 16,7 16,9 8.926,9.027 9,16 7,16 6.845,9.003 0,9 0,7 6.942,6.864"/>
  </object>
  <object id="217" class="wall" x="176" y="80" width="16" height="16">
   <polygon points="7,0 9,0 9.119,7.002 16,7 16,9 8.926,9.027 9,16 7,16 6.845,9.003 0,9 0,7 6.942,6.864"/>
  </object>
  <object id="218" class="wall" x="192" y="80" width="16" height="16">
   <polygon points="7,0 9,0 9.119,7.002 16,7 16,9 8.926,9.027 9,16 7,16 6.845,9.003 0,9 0,7 6.942,6.864"/>
  </object>
  <object id="219" class="wall" x="224" y="80" width="16" height="16">
   <polygon points="7,0 9,0 9.119,7.002 16,7 16,9 8.926,9.027 9,16 7,16 6.845,9.003 0,9 0,7 6.942,6.864"/>
  </object>
  <object id="220" class="wall" x="0" y="96" width="16" height="16">
   <polygon points="7,0 9,0 9.119,7.002 16,7 16,9 8.926,9.027 9,16 7,16 6.845,9.003 0,9 0,7 6.942,6.864"/>
  </object>
  <object id="221" class="wall" x="16" y="96" width="16" height="16">
   <polygon points="7,0 9,0 9.119,7.002 16,7 16,9 8.926,9.027 9,16 7,16 6.845,9.003 0,9 0,7 6.942,6.864"/>
  </object>
  <object id="222" class="wall" x="80" y="96" width="16" height="16">
   <polygon points="7,0 9,0 9.119,7.002 16,7 16,9 8.926,9.027 9,16 7,16 6.845,9.003 0,9 0,7 6.942,6.864"/>
  </object>
  <object id="223" class="wall" x="96" y="96" width="16" height="16">
   <polygon points="7,0 9,0 9.119,7.002 16,7 16,9 8.926,9.027 9,16 7,16 6.845,9.003 0,9 0,7 6.942,6.864"/>
  </object>
  <object id="224" class="wall" x="112" y="96" width="16" height="16">
   <polygon points="7,0 9,0 9.119,7.002 16,7 16,9 8.926,9.027 9,16 7,16 6.845,9.003 0,9 0,7 6.942,6.864"/>
  </object>
  <object id="225" class="wall" x="160" y="96" width="16" height="16">
   <polygon points="7,0 9,0 9.119,7.002 16,7 16,9 8.926,9.027 9,16 7,16 6.845,9.003 0,9 0,7 6.942,6.864"/>
  </object>
  <object id="226" class="wall" x="176" y="96" width="16" height="16">
   <polygon points="7,0 9,0 9.119,7.002 16,7 16,9 8.926,9.027 9,16 7,16 6.845,9.003 0,9 0,7 6.942,6.864"/>
  </object>
  <object id="227" class="wall" x="192" y="96" width="16" height="16">
   <polygon points="7,0 9,0 9.119,7.002 16,7 16,9 8.926,9.027 9,16 7,16 6.845,9.003 0,9 0,7 6.942,6.864"/>
  </object>
  <object id="228" class="wall" x="224" y="96" width="16" height="16">
   <polygon points="7,0 9,0 9.119,7.002 16,7 16,9 8.926,9.027 9,16 7,16 6.845,9.003 0,9 0,7 6.942,6.864"/>
  </object>
  <object id="229" class="wall" x="0" y="112" width="16" height="16">
   <polygon points="7,0 9,0 9.119,7.002 16,7 16,9 8.926,9.027 9,16 7,16 6.845,9.003 0,9 0,7 6.942,6.864"/>
  </object>
  <object id="230" class="wall" x="80" y="112" width="16" height="16">
   <polygon points="0,8 16,8 16,16 0,16"/>
  </object>
  <object id="231" class="wall" x="96" y="112" width="16" height="16">
   <polygon points="0,8 16,8 16,16 0,16"/>
  </object>
  <object id="232" class="wall" x="112" y="112" width="16" height="16">
   <polygon points="0,8 16,8 16,16 0,16"/>
  </object>
  <object id="233" class="wall" x="160" y="112" width="16" height="16">
   <polygon points="0,8 16,8 16,16 0,16"/>
  </object>
  <object id="234" class="wall" x="176" y="112" width="16" height="16">
   <polygon points="0,8 16,8 16,16 0,16"/>
  </object>
  <object id="235" class="wall" x="192" y="112" width="16" height="16">
   <polygon points="0,8 16,8 16,16 0,16"/>
  </object>
  <object id="236" class="wall" x="224" y="112" width="16" height="16">
   <polygon points="7,0 9,0 9.119,7.002 16,7 16,9 8.926,9.027 9,16 7,16 6.845,9.003 0,9 0,7 6.942,6.864"/>
  </object>
  <object id="237" class="wall" x="0" y="128" width="16" height="16">
   <polygon points="7,0 9,0 9.119,7.002 16,7 16,9 8.926,9.027 9,16 7,16 6.845,9.003 0,9 0,7 6.942,6.864"/>
  </object>
  <object id="238" class="wall" x="16" y="128" width="16" height="16">
   <polygon points="7,0 9,0 9.119,7.002 16,7 16,9 8.926,9.027 9,16 7,16 6.845,9.003 0,9 0,7 6.942,6.864"/>
  </object>
  <object id="239" class="wall" x="224" y="128" width="16" height="16">
   <polygon points="7,0 9,0 9.119,7.002 16,7 16,9 8.926,9.027 9,16 7,16 6.845,9.003 0,9 0,7 6.942,6.864"/>
  </object>
  <object id="240" class="wall" x="0" y="144" width="16" height="16">
   <polygon points="7,0 9,0 9.119,7.002 16,7 16,9 8.926,9.027 9,16 7,16 6.845,9.003 0,9 0,7 6.942,6.864"/>
  </object>
  <object id="241" class="wall" x="16" y="144" width="16" height="16">
   <polygon points="7,0 9,0 9.119,7.002 16,7 16,9 8.926,9.027 9,16 7,16 6.845,9.003 0,9 0,7 6.942,6.864"/>
  </object>
  <object id="242" class="wall" x="32" y="144" width="16" height="16">
   <polygon points="7,0 9,0 9.119,7.002 16,7 16,9 8.926,9.027 9,16 7,16 6.845,9.003 0,9 0,7 6.942,6.864"/>
  </object>
  <object id="243" class="wall" x="80" y="144" width="16" height="16">
   <polygon points="7,0 9,0 9.119,7.002 16,7 16,9 8.926,9.027 9,16 7,16 6.845,9.003 0,9 0,7 6.942,6.864"/>
  </object>
  <object id="244" class="wall" x="96" y="144" width="16" height="16">
   <polygon points="7,0 9,0 9.119,7.002 16,7 16,9 8.926,9.027 9,16 7,16 6.845,9.003 0,9 0,7 6.942,6.864"/>
  </object>
  <object id="245" class="wall" x="112" y="144" width="16" height="16">
   <polygon points="7,0 9,0 9.119,7.002 16,7 16,9 8.926,9.027 9,16 7,16 6.845,9.003 0,9 0,7 6.942,6.864"/>
  </object>
  <object id="246" class="wall" x="128" y="144" width="16" height="16">
   <polygon points="3.404,7.99 15.918,12.996 16,16 0,16 0,8"/>
  </object>
  <object id="247" class="wall" x="208" y="144" width="16" height="16">
   <polygon points="0,0 5,0 9,3 13,7 16,11 16,16 0,16"/>
  </object>
  <object id="248" class="wall" x="224" y="144" width="16" height="16">
   <polygon points="7,0 9,0 9.119,7.002 16,7 16,9 8.926,9.027 9,16 7,16 6.845,9.003 0,9 0,7 6.942,6.864"/>
  </object>
  <object id="249" class="wall" x="32" y="160" width="16" height="16">
   <polygon points="7,0 9,0 9.119,7.002 16,7 16,9 8.926,9.027 9,16 7,16 6.845,9.003 0,9 0,7 6.942,6.864"/>
  </object>
  <object id="250" class="wall" x="48" y="160" width="16" height="16">
   <polygon points="7,0 9,0 9.119,7.002 16,7 16,9 8.926,9.027 9,16 7,16 6.845,9.003 0,9 0,7 6.942,6.864"/>
  </object>
  <object id="251" class="wall" x="64" y="160" width="16" height="16">
   <polygon points="7,0 9,0 9.119,7.002 16,7 16,9 8.926,9.027 9,16 7,16 6.845,9.003 0,9 0,7 6.942,6.864"/>
  </object>
  <object id="252" class="wall" x="80" y="160" width="16" height="16">
   <polygon points="7,0 9,0 9.119,7.002 16,7 16,9 8.926,9.027 9,16 7,16 6.845,9.003 0,9 0,7 6.942,6.864"/>
  </object>
  <object id="253" class="wall" x="112" y="160" width="16" height="16">
   <polygon points="7,0 9,0 9.119,7.002 16,7 16,9 8.926,9.027 9,16 7,16 6.845,9.003 0,9 0,7 6.942,6.864"/>
  </object>
  <object id="254" class="wall" x="128" y="160" width="16" height="16">
   <polygon points="7,0 9,0 9.119,7.002 16,7 16,9 8.926,9.027 9,16 7,16 6.845,9.003 0,9 0,7 6.942,6.864"/>
  </object>
  <object id="255" class="wall" x="208" y="160" width="16" height="16">
   <polygon points="7,0 9,0 9.119,7.002 16,7 16,9 8.926,9.027 9,16 7,16 6.845,9.003 0,9 0,7 6.942,6.864"/>
  </object>
  <object id="256" class="wall" x="224" y="160" width="16" height="16">
   <polygon points="7,0 9,0 9.119,7.002 16,7 16,9 8.926,9.027 9,16 7,16 6.845,9.003 0,9 0,7 6.942,6.864"/>
  </object>
  <object id="257" class="wall" x="112" y="176" width="16" height="16">
   <polygon points="7,0 9,0 9.119,7.002 16,7 16,9 8.926,9.027 9,16 7,16 6.845,9.003 0,9 0,7 6.942,6.864"/>
  </object>
  <object id="258" class="wall" x="128" y="176" width="16" height="16">
   <polygon points="7,0 9,0 9.119,7.002 16,7 16,9 8.926,9.027 9,16 7,16 6.845,9.003 0,9 0,7 6.942,6.864"/>
  </object>
  <object id="259" class="wall" x="144" y="176" width="16" height="16">
   <polygon points="7,0 9,0 9.119,7.002 16,7 16,9 8.926,9.027 9,16 7,16 6.845,9.003 0,9 0,7 6.942,6.864"/>
  </object>
  <object id="260" class="wall" x="160" y="176" width="16" height="16">
   <polygon points="13,0 16,0 16,16 0,16 0,13"/>
  </object>
  <object id="261" class="wall" x="176" y="176" width="16" height="16">
   <polygon points="13,0 16,0 16,16 0,16 0,13"/>
  </object>
  <object id="262" class="wall" x="192" y="176" width="16" height="16">
   <polygon points="7,0 9,0 9.119,7.002 16,7 16,9 8.926,9.027 9,16 7,16 6.845,9.003 0,9 0,7 6.942,6.864"/>
  </object>
  <object id="263" class="wall" x="208" y="176" width="16" height="16">
   <polygon points="7,0 9,0 9.119,7.002 16,7 16,9 8.926,9.027 9,16 7,16 6.845,9.003 0,9 0,7 6.942,6.864"/>
  </object>
  <object id="264" class="wall" x="224" y="176" width="16" height="16">
   <polygon points="7,0 9,0 9.119,7.002 16,7 16,9 8.926,9.027 9,16 7,16 6.845,9.003 0,9 0,7 6.942,6.864"/>
  </object>
 </objectgroup>
</map>
