<?xml version="1.0" encoding="UTF-8"?>
<map version="1.10" tiledversion="1.11.1.1" orientation="orthogonal" renderorder="right-down" width="10" height="10" tilewidth="16" tileheight="16" infinite="0" nextlayerid="6" nextobjectid="3">
 <tileset firstgid="1" name="Mana_Interiors" tilewidth="16" tileheight="16" tilecount="6784" columns="128">
  <image source="../spritesheets/Mana_Seed_Interiors.png" width="2048" height="848"/>
 </tileset>
 <layer id="1" name="Ground &amp; Walls" width="10" height="10" locked="1">
  <data encoding="csv">
356,357,357,357,357,357,357,357,357,359,
452,847,973,974,972,847,974,973,972,487,
580,1103,727,728,1101,1103,1100,1100,1101,615,
708,1231,855,856,1229,1231,1228,1228,1228,743,
452,2010,983,984,449,450,446,447,448,871,
580,446,447,447,449,450,448,449,319,999,
708,574,575,576,577,578,576,577,447,871,
836,702,703,704,705,706,704,705,319,999,
1092,830,831,832,833,834,832,833,834,1127,
1220,1254,1254,1254,0,0,1254,1254,1254,1255
</data>
 </layer>
 <layer id="4" name="Floor Coverings" width="10" height="10">
  <data encoding="csv">
0,0,0,0,0,0,0,0,0,0,
0,0,0,0,0,0,0,0,0,0,
0,0,0,0,0,0,0,0,0,0,
0,0,0,0,0,0,0,0,0,0,
0,0,0,0,0,0,0,0,0,0,
0,0,25,26,27,28,0,0,0,0,
0,0,281,282,283,284,0,0,0,0,
0,0,409,410,411,412,0,0,0,0,
0,0,0,0,0,0,0,0,0,0,
0,0,0,0,0,0,0,0,0,0
</data>
 </layer>
 <layer id="2" name="Furniture &amp; Decor" width="10" height="10">
  <data encoding="csv">
0,2349,2349,2349,0,0,0,0,0,0,
0,2477,0,0,2482,2481,1839,0,0,0,
0,2147484420,0,0,2349,2349,1835,2829,2830,0,
0,2147484548,0,0,0,0,2476,2957,2958,0,
0,2147484676,0,0,0,0,2604,3343,3344,0,
0,2147485954,2147485953,546,548,0,0,3471,3472,0,
0,2147486082,2147486081,674,676,0,0,0,0,0,
0,0,0,0,0,0,0,2309,2310,0,
0,0,0,0,0,0,0,2437,2438,0,
0,0,0,0,3287,3288,0,0,0,0
</data>
 </layer>
 <layer id="3" name="Items" width="10" height="10" locked="1">
  <data encoding="csv">
0,0,0,0,0,0,0,0,0,0,
0,0,0,0,0,0,0,0,0,0,
0,0,0,0,0,0,0,0,0,0,
0,0,0,0,0,0,1719,0,0,0,
0,0,0,0,0,0,0,0,0,0,
0,0,0,1703,0,0,0,0,0,0,
0,0,0,0,0,0,0,0,0,0,
0,0,0,0,0,0,0,0,0,0,
0,0,0,0,0,0,0,0,0,0,
0,0,0,0,0,0,0,0,0,0
</data>
 </layer>
 <objectgroup id="5" name="Triggers">
  <object id="1" name="SpawnFromDoor_3" type="spawn" x="72" y="123.099" width="16" height="16">
   <properties>
    <property name="door_id" type="int" value="3"/>
   </properties>
  </object>
  <object id="2" name="ExitToVillage_3" type="door" x="64" y="144" width="32" height="16">
   <properties>
    <property name="door_id" type="int" value="3"/>
    <property name="target_scene" type="file" value="../../../scenes/worlds/World_00.tscn"/>
   </properties>
  </object>
 </objectgroup>
</map>
