<?xml version='1.0' encoding='utf-8'?>
<map version="1.10" tiledversion="1.11.1.1" orientation="orthogonal" renderorder="right-down" width="15" height="12" tilewidth="16" tileheight="16" infinite="0" nextlayerid="6" nextobjectid="254">
 <tileset firstgid="1" name="Mana_Interiors" tilewidth="16" tileheight="16" tilecount="6784" columns="128">
  <image source="../spritesheets/Mana_Seed_Interiors.png" width="2048" height="848" />
  </tileset>
 <layer id="1" name="Ground &amp; Walls" width="15" height="12">
  <data encoding="csv">
356,357,357,357,357,357,357,357,357,357,357,357,357,358,359,
452,847,973,974,972,847,974,973,972,847,972,973,974,842,487,
580,1103,1100,1102,1101,1103,1100,727,728,1103,1102,1100,1100,1098,615,
708,1231,1229,1230,1229,1231,1228,855,856,1231,1230,1229,1229,1226,743,
452,2010,319,320,449,450,446,983,984,449,450,319,319,322,871,
580,446,447,577,449,450,448,449,319,320,447,448,449,450,999,
708,574,575,576,577,578,576,577,447,448,575,576,577,578,871,
836,702,703,704,705,706,704,705,319,320,448,449,450,450,999,
1092,830,831,832,833,834,832,833,447,448,576,577,578,578,871,
1220,1254,1254,0,0,1254,1254,586,702,703,704,705,706,706,999,
0,0,0,0,0,0,0,1124,830,831,832,833,834,834,1127,
0,0,0,0,0,0,0,1252,1254,1254,0,0,1254,1254,1255
</data>
  </layer>
 <layer id="2" name="Furniture &amp; Decor" width="15" height="12">
  <data encoding="csv">
0,2349,2349,2349,0,0,0,0,0,0,0,0,0,0,0,
0,3357,0,0,0,0,0,0,0,0,0,0,0,0,0,
0,3485,2051,2052,2214,0,1843,0,0,0,1840,2055,2056,0,0,
0,0,2179,2180,2342,0,0,0,0,0,0,2183,2184,0,0,
0,0,3262,3262,3262,3263,3264,3265,3262,3263,3264,3265,0,0,0,
0,1575,2478,2479,2480,3391,2478,2479,2480,3391,2478,2479,2480,0,0,
0,1575,2606,2607,2608,3519,2606,2607,2608,3519,2606,2607,2608,0,0,
0,1575,2734,2735,2736,3647,2734,2735,2736,3647,2734,2735,2736,0,0,
0,0,3774,3774,3774,3775,3776,3777,3774,3775,3776,3777,0,1434,0,
0,0,0,3287,3288,0,0,0,2846,2847,0,0,0,1562,0,
0,0,0,0,0,0,0,0,2974,2975,0,0,0,1690,0,
0,0,0,0,0,0,0,0,0,0,3287,3288,0,0,0
</data>
  </layer>
 <layer id="3" name="Items" width="15" height="12">
  <data encoding="csv">
0,0,0,0,0,0,0,0,0,0,0,0,0,0,0,
0,0,0,0,0,0,0,0,0,0,0,0,0,0,0,
0,0,0,0,0,0,0,0,0,0,0,0,0,0,0,
0,0,0,0,0,0,0,0,0,0,0,0,0,0,0,
0,0,0,0,0,0,0,0,0,0,0,0,3985,3986,0,
0,0,0,0,0,0,0,0,0,0,0,0,0,0,0,
0,1433,0,0,0,0,0,0,0,0,0,0,0,0,0,
0,1561,0,0,0,0,0,0,0,0,0,0,0,0,0,
0,1689,0,0,0,0,0,0,0,0,0,0,0,0,0,
0,0,0,0,0,0,0,0,0,0,0,0,0,0,0,
0,0,0,0,0,0,0,0,0,0,0,0,0,3494,0,
0,0,0,0,0,0,0,0,0,0,0,0,0,0,0
</data>
  </layer>
 <objectgroup id="4" name="Triggers">
  <object id="1" name="SpawnFromDoor_6" type="spawn" x="168" y="152" width="16" height="16">
   <properties>
    <property name="door_id" type="int" value="6" />
    </properties>
   </object>
  <object id="2" name="ExitToVillage_6" type="door" x="160" y="176" width="32" height="16">
   <properties>
    <property name="door_id" type="int" value="6" />
    <property name="target_scene" type="file" value="../../../scenes/worlds/World_00.tscn" />
    </properties>
   </object>
  <object id="3" name="SpawnFromDoor_10" type="spawn" x="56" y="120" width="16" height="16">
   <properties>
    <property name="door_id" type="int" value="10" />
    </properties>
   </object>
  <object id="4" name="ExitToVillage_10" type="door" x="48" y="144" width="32" height="16">
   <properties>
    <property name="door_id" type="int" value="10" />
    <property name="target_scene" type="file" value="../../../scenes/worlds/World_00.tscn" />
    </properties>
   </object>
  <object id="254" name="Item_Green_Waistcoat" class="item" x="47" y="81" width="16" height="16">
   <properties>
    <property name="item_id" type="int" value="71" />
    <property name="unique" type="bool" value="false" />
    </properties>
   </object>
  <object id="255" name="Item_Forest_Green_Boots" class="item" x="47" y="97" width="16" height="16">
   <properties>
    <property name="item_id" type="int" value="107" />
    <property name="unique" type="bool" value="false" />
    </properties>
   </object>
  <object id="256" name="Item_Cloak_of_Billowing" class="item" x="176" y="81" width="16" height="16">
   <properties>
    <property name="item_id" type="int" value="62" />
    <property name="unique" type="bool" value="false" />
    </properties>
   </object>
  <object id="257" name="Item_Gold__Purple_Ring" class="item" x="112" y="81" width="16" height="16">
   <properties>
    <property name="item_id" type="int" value="81" />
    <property name="unique" type="bool" value="false" />
    </properties>
   </object>
  <object id="258" name="Item_Silver__Emerald_Ring" class="item" x="112" y="97" width="16" height="16">
   <properties>
    <property name="item_id" type="int" value="85" />
    <property name="unique" type="bool" value="false" />
    </properties>
   </object>
  <object id="259" name="Item_Pink_Mantle_Cloak" class="item" x="176.056" y="97.0181" width="16" height="16">
   <properties>
    <property name="item_id" type="int" value="63" />
    <property name="unique" type="bool" value="false" />
    </properties>
   </object>
  </objectgroup>
 <objectgroup id="5" name="Walls">
  <object id="163" class="wall" x="64" y="80" width="16" height="32" />
  <object id="164" class="wall" x="128" y="80" width="16" height="32" />
  <object id="165" class="wall" x="192" y="80" width="16" height="32" />
  <object id="166" class="wall" x="16" y="96" width="16" height="16" />
  <object id="167" class="wall" x="144" y="144" width="16" height="32" />
  <object id="168" class="wall" x="0" y="0" width="16" height="16">
   <polygon points="7,0 9,0 9.119,7.002 16,7 16,9 8.926,9.027 9,16 7,16 6.845,9.003 0,9 0,7 6.942,6.864" />
   </object>
  <object id="169" class="wall" x="16" y="0" width="16" height="16">
   <polygon points="7,0 9,0 9.119,7.002 16,7 16,9 8.926,9.027 9,16 7,16 6.845,9.003 0,9 0,7 6.942,6.864" />
   </object>
  <object id="170" class="wall" x="32" y="0" width="16" height="16">
   <polygon points="7,0 9,0 9.119,7.002 16,7 16,9 8.926,9.027 9,16 7,16 6.845,9.003 0,9 0,7 6.942,6.864" />
   </object>
  <object id="171" class="wall" x="48" y="0" width="16" height="16">
   <polygon points="7,0 9,0 9.119,7.002 16,7 16,9 8.926,9.027 9,16 7,16 6.845,9.003 0,9 0,7 6.942,6.864" />
   </object>
  <object id="172" class="wall" x="64" y="0" width="16" height="16">
   <polygon points="7,0 9,0 9.119,7.002 16,7 16,9 8.926,9.027 9,16 7,16 6.845,9.003 0,9 0,7 6.942,6.864" />
   </object>
  <object id="173" class="wall" x="80" y="0" width="16" height="16">
   <polygon points="7,0 9,0 9.119,7.002 16,7 16,9 8.926,9.027 9,16 7,16 6.845,9.003 0,9 0,7 6.942,6.864" />
   </object>
  <object id="174" class="wall" x="96" y="0" width="16" height="16">
   <polygon points="7,0 9,0 9.119,7.002 16,7 16,9 8.926,9.027 9,16 7,16 6.845,9.003 0,9 0,7 6.942,6.864" />
   </object>
  <object id="175" class="wall" x="112" y="0" width="16" height="16">
   <polygon points="7,0 9,0 9.119,7.002 16,7 16,9 8.926,9.027 9,16 7,16 6.845,9.003 0,9 0,7 6.942,6.864" />
   </object>
  <object id="176" class="wall" x="128" y="0" width="16" height="16">
   <polygon points="7,0 9,0 9.119,7.002 16,7 16,9 8.926,9.027 9,16 7,16 6.845,9.003 0,9 0,7 6.942,6.864" />
   </object>
  <object id="177" class="wall" x="144" y="0" width="16" height="16">
   <polygon points="7,0 9,0 9.119,7.002 16,7 16,9 8.926,9.027 9,16 7,16 6.845,9.003 0,9 0,7 6.942,6.864" />
   </object>
  <object id="178" class="wall" x="160" y="0" width="16" height="16">
   <polygon points="7,0 9,0 9.119,7.002 16,7 16,9 8.926,9.027 9,16 7,16 6.845,9.003 0,9 0,7 6.942,6.864" />
   </object>
  <object id="179" class="wall" x="176" y="0" width="16" height="16">
   <polygon points="7,0 9,0 9.119,7.002 16,7 16,9 8.926,9.027 9,16 7,16 6.845,9.003 0,9 0,7 6.942,6.864" />
   </object>
  <object id="180" class="wall" x="192" y="0" width="16" height="16">
   <polygon points="7,0 9,0 9.119,7.002 16,7 16,9 8.926,9.027 9,16 7,16 6.845,9.003 0,9 0,7 6.942,6.864" />
   </object>
  <object id="181" class="wall" x="208" y="0" width="16" height="16">
   <polygon points="7,0 9,0 9.119,7.002 16,7 16,9 8.926,9.027 9,16 7,16 6.845,9.003 0,9 0,7 6.942,6.864" />
   </object>
  <object id="182" class="wall" x="224" y="0" width="16" height="16">
   <polygon points="7,0 9,0 9.119,7.002 16,7 16,9 8.926,9.027 9,16 7,16 6.845,9.003 0,9 0,7 6.942,6.864" />
   </object>
  <object id="183" class="wall" x="0" y="16" width="16" height="16">
   <polygon points="7,0 9,0 9.119,7.002 16,7 16,9 8.926,9.027 9,16 7,16 6.845,9.003 0,9 0,7 6.942,6.864" />
   </object>
  <object id="184" class="wall" x="224" y="16" width="16" height="16">
   <polygon points="7,0 9,0 9.119,7.002 16,7 16,9 8.926,9.027 9,16 7,16 6.845,9.003 0,9 0,7 6.942,6.864" />
   </object>
  <object id="185" class="wall" x="0" y="32" width="16" height="16">
   <polygon points="7,0 9,0 9.119,7.002 16,7 16,9 8.926,9.027 9,16 7,16 6.845,9.003 0,9 0,7 6.942,6.864" />
   </object>
  <object id="186" class="wall" x="224" y="32" width="16" height="16">
   <polygon points="7,0 9,0 9.119,7.002 16,7 16,9 8.926,9.027 9,16 7,16 6.845,9.003 0,9 0,7 6.942,6.864" />
   </object>
  <object id="187" class="wall" x="0" y="48" width="16" height="16">
   <polygon points="7,0 9,0 9.119,7.002 16,7 16,9 8.926,9.027 9,16 7,16 6.845,9.003 0,9 0,7 6.942,6.864" />
   </object>
  <object id="188" class="wall" x="16" y="48" width="16" height="16">
   <polygon points="7,0 9,0 9.119,7.002 16,7 16,9 8.926,9.027 9,16 7,16 6.845,9.003 0,9 0,7 6.942,6.864" />
   </object>
  <object id="189" class="wall" x="32" y="48" width="16" height="16">
   <polygon points="7,0 9,0 9.119,7.002 16,7 16,9 8.926,9.027 9,16 7,16 6.845,9.003 0,9 0,7 6.942,6.864" />
   </object>
  <object id="190" class="wall" x="48" y="48" width="16" height="16">
   <polygon points="7,0 9,0 9.119,7.002 16,7 16,9 8.926,9.027 9,16 7,16 6.845,9.003 0,9 0,7 6.942,6.864" />
   </object>
  <object id="191" class="wall" x="64" y="48" width="16" height="16">
   <polygon points="7,0 9,0 9.119,7.002 16,7 16,9 8.926,9.027 9,16 7,16 6.845,9.003 0,9 0,7 6.942,6.864" />
   </object>
  <object id="192" class="wall" x="80" y="48" width="16" height="16">
   <polygon points="7,0 9,0 9.119,7.002 16,7 16,9 8.926,9.027 9,16 7,16 6.845,9.003 0,9 0,7 6.942,6.864" />
   </object>
  <object id="193" class="wall" x="96" y="48" width="16" height="16">
   <polygon points="7,0 9,0 9.119,7.002 16,7 16,9 8.926,9.027 9,16 7,16 6.845,9.003 0,9 0,7 6.942,6.864" />
   </object>
  <object id="194" class="wall" x="112" y="48" width="16" height="16">
   <polygon points="7,0 9,0 9.119,7.002 16,7 16,9 8.926,9.027 9,16 7,16 6.845,9.003 0,9 0,7 6.942,6.864" />
   </object>
  <object id="195" class="wall" x="128" y="48" width="16" height="16">
   <polygon points="7,0 9,0 9.119,7.002 16,7 16,9 8.926,9.027 9,16 7,16 6.845,9.003 0,9 0,7 6.942,6.864" />
   </object>
  <object id="196" class="wall" x="144" y="48" width="16" height="16">
   <polygon points="7,0 9,0 9.119,7.002 16,7 16,9 8.926,9.027 9,16 7,16 6.845,9.003 0,9 0,7 6.942,6.864" />
   </object>
  <object id="197" class="wall" x="160" y="48" width="16" height="16">
   <polygon points="7,0 9,0 9.119,7.002 16,7 16,9 8.926,9.027 9,16 7,16 6.845,9.003 0,9 0,7 6.942,6.864" />
   </object>
  <object id="198" class="wall" x="176" y="48" width="16" height="16">
   <polygon points="7,0 9,0 9.119,7.002 16,7 16,9 8.926,9.027 9,16 7,16 6.845,9.003 0,9 0,7 6.942,6.864" />
   </object>
  <object id="199" class="wall" x="192" y="48" width="16" height="16">
   <polygon points="7,0 9,0 9.119,7.002 16,7 16,9 8.926,9.027 9,16 7,16 6.845,9.003 0,9 0,7 6.942,6.864" />
   </object>
  <object id="200" class="wall" x="208" y="48" width="16" height="16">
   <polygon points="7,0 9,0 9.119,7.002 16,7 16,9 8.926,9.027 9,16 7,16 6.845,9.003 0,9 0,7 6.942,6.864" />
   </object>
  <object id="201" class="wall" x="224" y="48" width="16" height="16">
   <polygon points="7,0 9,0 9.119,7.002 16,7 16,9 8.926,9.027 9,16 7,16 6.845,9.003 0,9 0,7 6.942,6.864" />
   </object>
  <object id="202" class="wall" x="0" y="64" width="16" height="16">
   <polygon points="7,0 9,0 9.119,7.002 16,7 16,9 8.926,9.027 9,16 7,16 6.845,9.003 0,9 0,7 6.942,6.864" />
   </object>
  <object id="203" class="wall" x="192" y="64" width="16" height="16">
   <polygon points="7,0 9,0 9.119,7.002 16,7 16,9 8.926,9.027 9,16 7,16 6.845,9.003 0,9 0,7 6.942,6.864" />
   </object>
  <object id="204" class="wall" x="208" y="64" width="16" height="16">
   <polygon points="7,0 9,0 9.119,7.002 16,7 16,9 8.926,9.027 9,16 7,16 6.845,9.003 0,9 0,7 6.942,6.864" />
   </object>
  <object id="205" class="wall" x="224" y="64" width="16" height="16">
   <polygon points="7,0 9,0 9.119,7.002 16,7 16,9 8.926,9.027 9,16 7,16 6.845,9.003 0,9 0,7 6.942,6.864" />
   </object>
  <object id="206" class="wall" x="0" y="80" width="16" height="16">
   <polygon points="7,0 9,0 9.119,7.002 16,7 16,9 8.926,9.027 9,16 7,16 6.845,9.003 0,9 0,7 6.942,6.864" />
   </object>
  <object id="207" class="wall" x="32" y="80" width="16" height="16">
   <polygon points="0,0 3,0 8,12 8,16 0,16" />
   </object>
  <object id="208" class="wall" x="48" y="80" width="16" height="16">
   <polygon points="7,0 9,0 9.119,7.002 16,7 16,9 8.926,9.027 9,16 7,16 6.845,9.003 0,9 0,7 6.942,6.864" />
   </object>
  <object id="209" class="wall" x="96" y="80" width="16" height="16">
   <polygon points="0,0 3,0 8,12 8,16 0,16" />
   </object>
  <object id="210" class="wall" x="112" y="80" width="16" height="16">
   <polygon points="7,0 9,0 9.119,7.002 16,7 16,9 8.926,9.027 9,16 7,16 6.845,9.003 0,9 0,7 6.942,6.864" />
   </object>
  <object id="211" class="wall" x="160" y="80" width="16" height="16">
   <polygon points="0,0 3,0 8,12 8,16 0,16" />
   </object>
  <object id="212" class="wall" x="176" y="80" width="16" height="16">
   <polygon points="7,0 9,0 9.119,7.002 16,7 16,9 8.926,9.027 9,16 7,16 6.845,9.003 0,9 0,7 6.942,6.864" />
   </object>
  <object id="213" class="wall" x="224" y="80" width="16" height="16">
   <polygon points="7,0 9,0 9.119,7.002 16,7 16,9 8.926,9.027 9,16 7,16 6.845,9.003 0,9 0,7 6.942,6.864" />
   </object>
  <object id="214" class="wall" x="0" y="96" width="16" height="16">
   <polygon points="7,0 9,0 9.119,7.002 16,7 16,9 8.926,9.027 9,16 7,16 6.845,9.003 0,9 0,7 6.942,6.864" />
   </object>
  <object id="215" class="wall" x="32" y="96" width="16" height="16">
   <polygon points="0,0 8,0 8,4 3,16 0,16" />
   </object>
  <object id="216" class="wall" x="48" y="96" width="16" height="16">
   <polygon points="7,0 9,0 9.119,7.002 16,7 16,9 8.926,9.027 9,16 7,16 6.845,9.003 0,9 0,7 6.942,6.864" />
   </object>
  <object id="217" class="wall" x="96" y="96" width="16" height="16">
   <polygon points="0,0 8,0 8,4 3,16 0,16" />
   </object>
  <object id="218" class="wall" x="112" y="96" width="16" height="16">
   <polygon points="7,0 9,0 9.119,7.002 16,7 16,9 8.926,9.027 9,16 7,16 6.845,9.003 0,9 0,7 6.942,6.864" />
   </object>
  <object id="219" class="wall" x="160" y="96" width="16" height="16">
   <polygon points="0,0 8,0 8,4 3,16 0,16" />
   </object>
  <object id="220" class="wall" x="176" y="96" width="16" height="16">
   <polygon points="7,0 9,0 9.119,7.002 16,7 16,9 8.926,9.027 9,16 7,16 6.845,9.003 0,9 0,7 6.942,6.864" />
   </object>
  <object id="221" class="wall" x="224" y="96" width="16" height="16">
   <polygon points="7,0 9,0 9.119,7.002 16,7 16,9 8.926,9.027 9,16 7,16 6.845,9.003 0,9 0,7 6.942,6.864" />
   </object>
  <object id="222" class="wall" x="0" y="112" width="16" height="16">
   <polygon points="7,0 9,0 9.119,7.002 16,7 16,9 8.926,9.027 9,16 7,16 6.845,9.003 0,9 0,7 6.942,6.864" />
   </object>
  <object id="223" class="wall" x="16" y="112" width="16" height="16">
   <polygon points="7,0 9,0 9.119,7.002 16,7 16,9 8.926,9.027 9,16 7,16 6.845,9.003 0,9 0,7 6.942,6.864" />
   </object>
  <object id="224" class="wall" x="224" y="112" width="16" height="16">
   <polygon points="7,0 9,0 9.119,7.002 16,7 16,9 8.926,9.027 9,16 7,16 6.845,9.003 0,9 0,7 6.942,6.864" />
   </object>
  <object id="225" class="wall" x="0" y="128" width="16" height="16">
   <polygon points="7,0 9,0 9.119,7.002 16,7 16,9 8.926,9.027 9,16 7,16 6.845,9.003 0,9 0,7 6.942,6.864" />
   </object>
  <object id="226" class="wall" x="16" y="128" width="16" height="16">
   <polygon points="7,0 9,0 9.119,7.002 16,7 16,9 8.926,9.027 9,16 7,16 6.845,9.003 0,9 0,7 6.942,6.864" />
   </object>
  <object id="227" class="wall" x="208" y="128" width="16" height="16">
   <polygon points="13,0 16,0 16,16 0,16 0,13" />
   </object>
  <object id="228" class="wall" x="224" y="128" width="16" height="16">
   <polygon points="7,0 9,0 9.119,7.002 16,7 16,9 8.926,9.027 9,16 7,16 6.845,9.003 0,9 0,7 6.942,6.864" />
   </object>
  <object id="229" class="wall" x="0" y="144" width="16" height="16">
   <polygon points="7,0 9,0 9.119,7.002 16,7 16,9 8.926,9.027 9,16 7,16 6.845,9.003 0,9 0,7 6.942,6.864" />
   </object>
  <object id="230" class="wall" x="16" y="144" width="16" height="16">
   <polygon points="7,0 9,0 9.119,7.002 16,7 16,9 8.926,9.027 9,16 7,16 6.845,9.003 0,9 0,7 6.942,6.864" />
   </object>
  <object id="231" class="wall" x="32" y="144" width="16" height="16">
   <polygon points="7,0 9,0 9.119,7.002 16,7 16,9 8.926,9.027 9,16 7,16 6.845,9.003 0,9 0,7 6.942,6.864" />
   </object>
  <object id="232" class="wall" x="80" y="144" width="16" height="16">
   <polygon points="7,0 9,0 9.119,7.002 16,7 16,9 8.926,9.027 9,16 7,16 6.845,9.003 0,9 0,7 6.942,6.864" />
   </object>
  <object id="233" class="wall" x="96" y="144" width="16" height="16">
   <polygon points="7,0 9,0 9.119,7.002 16,7 16,9 8.926,9.027 9,16 7,16 6.845,9.003 0,9 0,7 6.942,6.864" />
   </object>
  <object id="234" class="wall" x="112" y="144" width="16" height="16">
   <polygon points="7,0 9,0 9.119,7.002 16,7 16,9 8.926,9.027 9,16 7,16 6.845,9.003 0,9 0,7 6.942,6.864" />
   </object>
  <object id="235" class="wall" x="128" y="144" width="16" height="16">
   <polygon points="0,0 3,0 8,12 8,16 0,16" />
   </object>
  <object id="236" class="wall" x="208" y="144" width="16" height="16">
   <polygon points="7,0 9,0 9.119,7.002 16,7 16,9 8.926,9.027 9,16 7,16 6.845,9.003 0,9 0,7 6.942,6.864" />
   </object>
  <object id="237" class="wall" x="224" y="144" width="16" height="16">
   <polygon points="7,0 9,0 9.119,7.002 16,7 16,9 8.926,9.027 9,16 7,16 6.845,9.003 0,9 0,7 6.942,6.864" />
   </object>
  <object id="238" class="wall" x="32" y="160" width="16" height="16">
   <polygon points="7,0 9,0 9.119,7.002 16,7 16,9 8.926,9.027 9,16 7,16 6.845,9.003 0,9 0,7 6.942,6.864" />
   </object>
  <object id="239" class="wall" x="48" y="160" width="16" height="16">
   <polygon points="7,0 9,0 9.119,7.002 16,7 16,9 8.926,9.027 9,16 7,16 6.845,9.003 0,9 0,7 6.942,6.864" />
   </object>
  <object id="240" class="wall" x="64" y="160" width="16" height="16">
   <polygon points="7,0 9,0 9.119,7.002 16,7 16,9 8.926,9.027 9,16 7,16 6.845,9.003 0,9 0,7 6.942,6.864" />
   </object>
  <object id="241" class="wall" x="80" y="160" width="16" height="16">
   <polygon points="7,0 9,0 9.119,7.002 16,7 16,9 8.926,9.027 9,16 7,16 6.845,9.003 0,9 0,7 6.942,6.864" />
   </object>
  <object id="242" class="wall" x="112" y="160" width="16" height="16">
   <polygon points="7,0 9,0 9.119,7.002 16,7 16,9 8.926,9.027 9,16 7,16 6.845,9.003 0,9 0,7 6.942,6.864" />
   </object>
  <object id="243" class="wall" x="128" y="160" width="16" height="16">
   <polygon points="7,0 9,0 9.119,7.002 16,7 16,9 8.926,9.027 9,16 7,16 6.845,9.003 0,9 0,7 6.942,6.864" />
   </object>
  <object id="244" class="wall" x="208" y="160" width="16" height="16">
   <polygon points="7,0 9,0 9.119,7.002 16,7 16,9 8.926,9.027 9,16 7,16 6.845,9.003 0,9 0,7 6.942,6.864" />
   </object>
  <object id="245" class="wall" x="224" y="160" width="16" height="16">
   <polygon points="7,0 9,0 9.119,7.002 16,7 16,9 8.926,9.027 9,16 7,16 6.845,9.003 0,9 0,7 6.942,6.864" />
   </object>
  <object id="246" class="wall" x="112" y="176" width="16" height="16">
   <polygon points="7,0 9,0 9.119,7.002 16,7 16,9 8.926,9.027 9,16 7,16 6.845,9.003 0,9 0,7 6.942,6.864" />
   </object>
  <object id="247" class="wall" x="128" y="176" width="16" height="16">
   <polygon points="7,0 9,0 9.119,7.002 16,7 16,9 8.926,9.027 9,16 7,16 6.845,9.003 0,9 0,7 6.942,6.864" />
   </object>
  <object id="248" class="wall" x="144" y="176" width="16" height="16">
   <polygon points="7,0 9,0 9.119,7.002 16,7 16,9 8.926,9.027 9,16 7,16 6.845,9.003 0,9 0,7 6.942,6.864" />
   </object>
  <object id="249" class="wall" x="160" y="176" width="16" height="16">
   <polygon points="13,0 16,0 16,16 0,16 0,13" />
   </object>
  <object id="250" class="wall" x="176" y="176" width="16" height="16">
   <polygon points="13,0 16,0 16,16 0,16 0,13" />
   </object>
  <object id="251" class="wall" x="192" y="176" width="16" height="16">
   <polygon points="7,0 9,0 9.119,7.002 16,7 16,9 8.926,9.027 9,16 7,16 6.845,9.003 0,9 0,7 6.942,6.864" />
   </object>
  <object id="252" class="wall" x="208" y="176" width="16" height="16">
   <polygon points="7,0 9,0 9.119,7.002 16,7 16,9 8.926,9.027 9,16 7,16 6.845,9.003 0,9 0,7 6.942,6.864" />
   </object>
  <object id="253" class="wall" x="224" y="176" width="16" height="16">
   <polygon points="7,0 9,0 9.119,7.002 16,7 16,9 8.926,9.027 9,16 7,16 6.845,9.003 0,9 0,7 6.942,6.864" />
   </object>
  </objectgroup>
 </map>
