<?xml version="1.0" encoding="UTF-8"?>
<map version="1.10" tiledversion="1.11.1.1" orientation="orthogonal" renderorder="right-down" width="45" height="30" tilewidth="16" tileheight="16" infinite="0" backgroundcolor="#c0a920" nextlayerid="42" nextobjectid="7">
 <tileset firstgid="1" name="Forest Combo" tilewidth="16" tileheight="16" tilecount="9200" columns="100" tilerendersize="grid">
  <image source="../spritesheets/FantasyForest_Combo.png" width="1600" height="1472"/>
  <tile id="701">
   <objectgroup draworder="index" id="2">
    <object id="1" x="0.0909091" y="0.204545" width="15.9091" height="15.6364"/>
   </objectgroup>
  </tile>
  <tile id="808">
   <objectgroup draworder="index" id="2">
    <object id="1" x="0.181818" y="0.181818" width="15.4545" height="15.8182"/>
   </objectgroup>
  </tile>
  <tile id="915">
   <objectgroup draworder="index" id="2">
    <object id="1" x="-1.77636e-15" y="-0.0909091" width="15.7273" height="11.5455"/>
   </objectgroup>
  </tile>
  <tile id="921">
   <objectgroup draworder="index" id="2">
    <object id="1" x="9.34211" y="4.60526"/>
    <object id="2" x="-0.0197368" y="0.125" width="16.0329" height="10.0658"/>
    <object id="3" x="9.86842" y="-0.592105">
     <polygon points="0,0 0,0 0,0 0,0"/>
    </object>
   </objectgroup>
  </tile>
  <wangsets>
   <wangset name="Paths and Layers" type="corner" tile="-1">
    <wangcolor name="Light Dirt on Light Grass" color="#ff0000" tile="-1" probability="1"/>
    <wangcolor name="Light Dirt on Dark Grass" color="#00ff00" tile="-1" probability="1"/>
    <wangcolor name="Sand on Light Grass" color="#0000ff" tile="-1" probability="1"/>
    <wangcolor name="Light Dirt on Sand" color="#ff7700" tile="-1" probability="1"/>
    <wangcolor name="Light Grass on Light Dirt" color="#00e9ff" tile="-1" probability="1"/>
    <wangcolor name="Light Grass on Sand" color="#ff00d8" tile="-1" probability="1"/>
    <wangcolor name="Sand on Light Dirt" color="#ffff00" tile="-1" probability="1"/>
    <wangcolor name="Dark Grass on Dark Dirt" color="#a000ff" tile="-1" probability="1"/>
    <wangcolor name="Dark Grass on Light Grass" color="#00ffa1" tile="-1" probability="1"/>
    <wangcolor name="Mud on Dark Grass" color="#ffa8a8" tile="-1" probability="1"/>
    <wangcolor name="Dark Grass on Empty" color="#b4a8ff" tile="-1" probability="1"/>
    <wangcolor name="Mud on Empty" color="#96ffa7" tile="-1" probability="1"/>
    <wangcolor name="Light Grass under Dark Grass" color="#8e7848" tile="-1" probability="1"/>
    <wangcolor name="Red Dirt on Empty" color="#5a5a5a" tile="-1" probability="1"/>
    <wangcolor name="Red Dirt on Dark Dirt" color="#0e7a46" tile="-1" probability="1"/>
    <wangcolor name="Sand over Water" color="#00000000" tile="-1" probability="1"/>
    <wangcolor name="Water over Dark Water" color="#8184b8" tile="-1" probability="1"/>
    <wangcolor name="Light grass on Empty" color="#fd3650" tile="-1" probability="1"/>
    <wangtile tileid="3701" wangid="0,0,0,1,0,0,0,0"/>
    <wangtile tileid="3702" wangid="0,0,0,1,0,1,0,0"/>
    <wangtile tileid="3703" wangid="0,0,0,0,0,1,0,0"/>
    <wangtile tileid="3704" wangid="0,1,0,1,0,1,0,0"/>
    <wangtile tileid="3705" wangid="0,0,0,1,0,1,0,1"/>
    <wangtile tileid="3707" wangid="0,0,0,3,0,0,0,0"/>
    <wangtile tileid="3708" wangid="0,0,0,3,0,3,0,0"/>
    <wangtile tileid="3709" wangid="0,0,0,0,0,3,0,0"/>
    <wangtile tileid="3710" wangid="0,3,0,3,0,3,0,0"/>
    <wangtile tileid="3711" wangid="0,0,0,3,0,3,0,3"/>
    <wangtile tileid="3713" wangid="0,0,0,4,0,0,0,0"/>
    <wangtile tileid="3714" wangid="0,0,0,4,0,4,0,0"/>
    <wangtile tileid="3715" wangid="0,0,0,0,0,4,0,0"/>
    <wangtile tileid="3716" wangid="0,4,0,4,0,4,0,0"/>
    <wangtile tileid="3717" wangid="0,0,0,4,0,4,0,4"/>
    <wangtile tileid="3719" wangid="0,0,0,2,0,0,0,0"/>
    <wangtile tileid="3720" wangid="0,0,0,2,0,2,0,0"/>
    <wangtile tileid="3721" wangid="0,0,0,0,0,2,0,0"/>
    <wangtile tileid="3722" wangid="0,2,0,2,0,2,0,0"/>
    <wangtile tileid="3723" wangid="0,0,0,2,0,2,0,2"/>
    <wangtile tileid="3725" wangid="0,9,0,0,0,9,0,9"/>
    <wangtile tileid="3726" wangid="0,9,0,0,0,0,0,9"/>
    <wangtile tileid="3727" wangid="0,9,0,9,0,0,0,9"/>
    <wangtile tileid="3728" wangid="0,0,0,0,0,0,0,9"/>
    <wangtile tileid="3729" wangid="0,9,0,0,0,0,0,0"/>
    <wangtile tileid="3731" wangid="0,10,0,0,0,10,0,10"/>
    <wangtile tileid="3732" wangid="0,10,0,0,0,0,0,10"/>
    <wangtile tileid="3733" wangid="0,10,0,10,0,0,0,10"/>
    <wangtile tileid="3734" wangid="0,0,0,0,0,0,0,10"/>
    <wangtile tileid="3735" wangid="0,10,0,0,0,0,0,0"/>
    <wangtile tileid="3737" wangid="0,15,0,0,0,15,0,15"/>
    <wangtile tileid="3738" wangid="0,15,0,0,0,0,0,15"/>
    <wangtile tileid="3739" wangid="0,15,0,15,0,0,0,15"/>
    <wangtile tileid="3740" wangid="0,0,0,0,0,0,0,15"/>
    <wangtile tileid="3741" wangid="0,15,0,0,0,0,0,0"/>
    <wangtile tileid="3801" wangid="0,1,0,1,0,0,0,0"/>
    <wangtile tileid="3802" wangid="0,14,0,14,0,14,0,14"/>
    <wangtile tileid="3803" wangid="0,0,0,0,0,1,0,1"/>
    <wangtile tileid="3804" wangid="0,1,0,1,0,0,0,1"/>
    <wangtile tileid="3805" wangid="0,1,0,0,0,1,0,1"/>
    <wangtile tileid="3807" wangid="0,3,0,3,0,0,0,0"/>
    <wangtile tileid="3808" wangid="0,3,0,3,0,3,0,3"/>
    <wangtile tileid="3809" wangid="0,0,0,0,0,3,0,3"/>
    <wangtile tileid="3810" wangid="0,3,0,3,0,0,0,3"/>
    <wangtile tileid="3811" wangid="0,3,0,0,0,3,0,3"/>
    <wangtile tileid="3813" wangid="0,4,0,4,0,0,0,0"/>
    <wangtile tileid="3814" wangid="0,4,0,4,0,4,0,4"/>
    <wangtile tileid="3815" wangid="0,0,0,0,0,4,0,4"/>
    <wangtile tileid="3816" wangid="0,4,0,4,0,0,0,4"/>
    <wangtile tileid="3817" wangid="0,4,0,0,0,4,0,4"/>
    <wangtile tileid="3819" wangid="0,2,0,2,0,0,0,0"/>
    <wangtile tileid="3820" wangid="0,2,0,2,0,2,0,2"/>
    <wangtile tileid="3821" wangid="0,0,0,0,0,2,0,2"/>
    <wangtile tileid="3822" wangid="0,2,0,2,0,0,0,2"/>
    <wangtile tileid="3823" wangid="0,2,0,0,0,2,0,2"/>
    <wangtile tileid="3825" wangid="0,0,0,0,0,9,0,9"/>
    <wangtile tileid="3827" wangid="0,9,0,9,0,0,0,0"/>
    <wangtile tileid="3828" wangid="0,0,0,0,0,9,0,0"/>
    <wangtile tileid="3829" wangid="0,0,0,9,0,0,0,0"/>
    <wangtile tileid="3831" wangid="0,0,0,0,0,10,0,10"/>
    <wangtile tileid="3833" wangid="0,10,0,10,0,0,0,0"/>
    <wangtile tileid="3834" wangid="0,0,0,0,0,10,0,0"/>
    <wangtile tileid="3835" wangid="0,0,0,10,0,0,0,0"/>
    <wangtile tileid="3837" wangid="0,0,0,0,0,15,0,15"/>
    <wangtile tileid="3839" wangid="0,15,0,15,0,0,0,0"/>
    <wangtile tileid="3840" wangid="0,0,0,0,0,15,0,0"/>
    <wangtile tileid="3841" wangid="0,0,0,15,0,0,0,0"/>
    <wangtile tileid="3901" wangid="0,1,0,0,0,0,0,0"/>
    <wangtile tileid="3902" wangid="0,1,0,0,0,0,0,1"/>
    <wangtile tileid="3903" wangid="0,0,0,0,0,0,0,1"/>
    <wangtile tileid="3904" wangid="0,1,0,0,0,1,0,0"/>
    <wangtile tileid="3905" wangid="0,0,0,1,0,0,0,1"/>
    <wangtile tileid="3907" wangid="0,3,0,0,0,0,0,0"/>
    <wangtile tileid="3908" wangid="0,3,0,0,0,0,0,3"/>
    <wangtile tileid="3909" wangid="0,0,0,0,0,0,0,3"/>
    <wangtile tileid="3910" wangid="0,3,0,0,0,3,0,0"/>
    <wangtile tileid="3911" wangid="0,0,0,3,0,0,0,3"/>
    <wangtile tileid="3913" wangid="0,4,0,0,0,0,0,0"/>
    <wangtile tileid="3914" wangid="0,4,0,0,0,0,0,4"/>
    <wangtile tileid="3915" wangid="0,0,0,0,0,0,0,4"/>
    <wangtile tileid="3916" wangid="0,4,0,0,0,4,0,0"/>
    <wangtile tileid="3917" wangid="0,0,0,4,0,0,0,4"/>
    <wangtile tileid="3919" wangid="0,2,0,0,0,0,0,0"/>
    <wangtile tileid="3920" wangid="0,2,0,0,0,0,0,2"/>
    <wangtile tileid="3921" wangid="0,0,0,0,0,0,0,2"/>
    <wangtile tileid="3922" wangid="0,2,0,0,0,2,0,0"/>
    <wangtile tileid="3923" wangid="0,0,0,2,0,0,0,2"/>
    <wangtile tileid="3925" wangid="0,0,0,9,0,9,0,9"/>
    <wangtile tileid="3926" wangid="0,0,0,9,0,9,0,0"/>
    <wangtile tileid="3927" wangid="0,9,0,9,0,9,0,0"/>
    <wangtile tileid="3928" wangid="0,0,0,9,0,0,0,9"/>
    <wangtile tileid="3929" wangid="0,9,0,0,0,9,0,0"/>
    <wangtile tileid="3931" wangid="0,0,0,10,0,10,0,10"/>
    <wangtile tileid="3932" wangid="0,0,0,10,0,10,0,0"/>
    <wangtile tileid="3933" wangid="0,10,0,10,0,10,0,0"/>
    <wangtile tileid="3934" wangid="0,0,0,10,0,0,0,10"/>
    <wangtile tileid="3935" wangid="0,10,0,0,0,10,0,0"/>
    <wangtile tileid="3937" wangid="0,0,0,15,0,15,0,15"/>
    <wangtile tileid="3938" wangid="0,0,0,15,0,15,0,0"/>
    <wangtile tileid="3939" wangid="0,15,0,15,0,15,0,0"/>
    <wangtile tileid="3940" wangid="0,0,0,15,0,0,0,15"/>
    <wangtile tileid="3941" wangid="0,15,0,0,0,15,0,0"/>
    <wangtile tileid="4101" wangid="0,5,0,0,0,5,0,5"/>
    <wangtile tileid="4102" wangid="0,5,0,0,0,0,0,5"/>
    <wangtile tileid="4103" wangid="0,5,0,5,0,0,0,5"/>
    <wangtile tileid="4104" wangid="0,0,0,0,0,0,0,5"/>
    <wangtile tileid="4105" wangid="0,5,0,0,0,0,0,0"/>
    <wangtile tileid="4107" wangid="0,6,0,0,0,6,0,6"/>
    <wangtile tileid="4108" wangid="0,6,0,0,0,0,0,6"/>
    <wangtile tileid="4109" wangid="0,6,0,6,0,0,0,6"/>
    <wangtile tileid="4110" wangid="0,0,0,0,0,0,0,6"/>
    <wangtile tileid="4111" wangid="0,6,0,0,0,0,0,0"/>
    <wangtile tileid="4113" wangid="0,7,0,0,0,7,0,7"/>
    <wangtile tileid="4114" wangid="0,7,0,0,0,0,0,7"/>
    <wangtile tileid="4115" wangid="0,7,0,7,0,0,0,7"/>
    <wangtile tileid="4116" wangid="0,0,0,0,0,0,0,7"/>
    <wangtile tileid="4117" wangid="0,7,0,0,0,0,0,0"/>
    <wangtile tileid="4119" wangid="0,8,0,0,0,8,0,8"/>
    <wangtile tileid="4120" wangid="0,8,0,0,0,0,0,8"/>
    <wangtile tileid="4121" wangid="0,8,0,8,0,0,0,8"/>
    <wangtile tileid="4122" wangid="0,0,0,0,0,0,0,8"/>
    <wangtile tileid="4123" wangid="0,8,0,0,0,0,0,0"/>
    <wangtile tileid="4125" wangid="0,11,0,0,0,11,0,11"/>
    <wangtile tileid="4126" wangid="0,11,0,0,0,0,0,11"/>
    <wangtile tileid="4127" wangid="0,11,0,11,0,0,0,11"/>
    <wangtile tileid="4128" wangid="0,0,0,0,0,0,0,11"/>
    <wangtile tileid="4129" wangid="0,11,0,0,0,0,0,0"/>
    <wangtile tileid="4131" wangid="0,12,0,0,0,12,0,12"/>
    <wangtile tileid="4132" wangid="0,12,0,0,0,0,0,12"/>
    <wangtile tileid="4133" wangid="0,12,0,12,0,0,0,12"/>
    <wangtile tileid="4134" wangid="0,0,0,0,0,0,0,12"/>
    <wangtile tileid="4135" wangid="0,12,0,0,0,0,0,0"/>
    <wangtile tileid="4137" wangid="0,14,0,0,0,14,0,14"/>
    <wangtile tileid="4138" wangid="0,14,0,0,0,0,0,14"/>
    <wangtile tileid="4139" wangid="0,14,0,14,0,0,0,14"/>
    <wangtile tileid="4140" wangid="0,0,0,0,0,0,0,14"/>
    <wangtile tileid="4141" wangid="0,14,0,0,0,0,0,0"/>
    <wangtile tileid="4201" wangid="0,0,0,0,0,5,0,5"/>
    <wangtile tileid="4203" wangid="0,5,0,5,0,0,0,0"/>
    <wangtile tileid="4204" wangid="0,0,0,0,0,5,0,0"/>
    <wangtile tileid="4205" wangid="0,0,0,5,0,0,0,0"/>
    <wangtile tileid="4207" wangid="0,0,0,0,0,6,0,6"/>
    <wangtile tileid="4209" wangid="0,6,0,6,0,0,0,0"/>
    <wangtile tileid="4210" wangid="0,0,0,0,0,6,0,0"/>
    <wangtile tileid="4211" wangid="0,0,0,6,0,0,0,0"/>
    <wangtile tileid="4213" wangid="0,0,0,0,0,7,0,7"/>
    <wangtile tileid="4215" wangid="0,7,0,7,0,0,0,0"/>
    <wangtile tileid="4216" wangid="0,0,0,0,0,7,0,0"/>
    <wangtile tileid="4217" wangid="0,0,0,7,0,0,0,0"/>
    <wangtile tileid="4219" wangid="0,0,0,0,0,8,0,8"/>
    <wangtile tileid="4221" wangid="0,8,0,8,0,0,0,0"/>
    <wangtile tileid="4222" wangid="0,0,0,0,0,8,0,0"/>
    <wangtile tileid="4223" wangid="0,0,0,8,0,0,0,0"/>
    <wangtile tileid="4225" wangid="0,0,0,0,0,11,0,11"/>
    <wangtile tileid="4227" wangid="0,11,0,11,0,0,0,0"/>
    <wangtile tileid="4228" wangid="0,0,0,0,0,11,0,0"/>
    <wangtile tileid="4229" wangid="0,0,0,11,0,0,0,0"/>
    <wangtile tileid="4231" wangid="0,0,0,0,0,12,0,12"/>
    <wangtile tileid="4233" wangid="0,12,0,12,0,0,0,0"/>
    <wangtile tileid="4234" wangid="0,0,0,0,0,12,0,0"/>
    <wangtile tileid="4235" wangid="0,0,0,12,0,0,0,0"/>
    <wangtile tileid="4237" wangid="0,0,0,0,0,14,0,14"/>
    <wangtile tileid="4239" wangid="0,14,0,14,0,0,0,0"/>
    <wangtile tileid="4240" wangid="0,0,0,0,0,14,0,0"/>
    <wangtile tileid="4241" wangid="0,0,0,14,0,0,0,0"/>
    <wangtile tileid="4301" wangid="0,0,0,5,0,5,0,5"/>
    <wangtile tileid="4302" wangid="0,0,0,5,0,5,0,0"/>
    <wangtile tileid="4303" wangid="0,5,0,5,0,5,0,0"/>
    <wangtile tileid="4304" wangid="0,0,0,5,0,0,0,5"/>
    <wangtile tileid="4305" wangid="0,5,0,0,0,5,0,0"/>
    <wangtile tileid="4307" wangid="0,0,0,6,0,6,0,6"/>
    <wangtile tileid="4308" wangid="0,0,0,6,0,6,0,0"/>
    <wangtile tileid="4309" wangid="0,6,0,6,0,6,0,0"/>
    <wangtile tileid="4310" wangid="0,0,0,6,0,0,0,6"/>
    <wangtile tileid="4311" wangid="0,6,0,0,0,6,0,0"/>
    <wangtile tileid="4313" wangid="0,0,0,7,0,7,0,7"/>
    <wangtile tileid="4314" wangid="0,0,0,7,0,7,0,0"/>
    <wangtile tileid="4315" wangid="0,7,0,7,0,7,0,0"/>
    <wangtile tileid="4316" wangid="0,0,0,7,0,0,0,7"/>
    <wangtile tileid="4317" wangid="0,7,0,0,0,7,0,0"/>
    <wangtile tileid="4319" wangid="0,0,0,8,0,8,0,8"/>
    <wangtile tileid="4320" wangid="0,0,0,8,0,8,0,0"/>
    <wangtile tileid="4321" wangid="0,8,0,8,0,8,0,0"/>
    <wangtile tileid="4322" wangid="0,0,0,8,0,0,0,8"/>
    <wangtile tileid="4323" wangid="0,8,0,0,0,8,0,0"/>
    <wangtile tileid="4325" wangid="0,0,0,11,0,11,0,11"/>
    <wangtile tileid="4326" wangid="0,0,0,11,0,11,0,0"/>
    <wangtile tileid="4327" wangid="0,11,0,11,0,11,0,0"/>
    <wangtile tileid="4328" wangid="0,0,0,11,0,0,0,11"/>
    <wangtile tileid="4329" wangid="0,11,0,0,0,11,0,0"/>
    <wangtile tileid="4331" wangid="0,0,0,12,0,12,0,12"/>
    <wangtile tileid="4332" wangid="0,0,0,12,0,12,0,0"/>
    <wangtile tileid="4333" wangid="0,12,0,12,0,12,0,0"/>
    <wangtile tileid="4334" wangid="0,0,0,12,0,0,0,12"/>
    <wangtile tileid="4335" wangid="0,12,0,0,0,12,0,0"/>
    <wangtile tileid="4337" wangid="0,0,0,14,0,14,0,14"/>
    <wangtile tileid="4338" wangid="0,0,0,14,0,14,0,0"/>
    <wangtile tileid="4339" wangid="0,14,0,14,0,14,0,0"/>
    <wangtile tileid="4340" wangid="0,0,0,14,0,0,0,14"/>
    <wangtile tileid="4341" wangid="0,14,0,0,0,14,0,0"/>
    <wangtile tileid="4501" wangid="0,16,0,0,0,16,0,16"/>
    <wangtile tileid="4502" wangid="0,16,0,0,0,0,0,16"/>
    <wangtile tileid="4503" wangid="0,16,0,16,0,0,0,16"/>
    <wangtile tileid="4505" wangid="0,0,0,0,0,0,0,16"/>
    <wangtile tileid="4506" wangid="0,16,0,0,0,0,0,0"/>
    <wangtile tileid="4517" wangid="0,17,0,0,0,17,0,17"/>
    <wangtile tileid="4518" wangid="0,17,0,0,0,0,0,17"/>
    <wangtile tileid="4519" wangid="0,17,0,17,0,0,0,17"/>
    <wangtile tileid="4520" wangid="0,0,0,0,0,0,0,17"/>
    <wangtile tileid="4521" wangid="0,17,0,0,0,0,0,0"/>
    <wangtile tileid="4523" wangid="0,17,0,17,0,17,0,17"/>
    <wangtile tileid="4524" wangid="0,17,0,17,0,17,0,17"/>
    <wangtile tileid="4538" wangid="0,18,0,0,0,18,0,18"/>
    <wangtile tileid="4539" wangid="0,18,0,0,0,0,0,18"/>
    <wangtile tileid="4540" wangid="0,18,0,18,0,0,0,18"/>
    <wangtile tileid="4541" wangid="0,0,0,0,0,0,0,18"/>
    <wangtile tileid="4542" wangid="0,18,0,0,0,0,0,0"/>
    <wangtile tileid="4601" wangid="0,0,0,0,0,16,0,16"/>
    <wangtile tileid="4603" wangid="0,16,0,16,0,0,0,0"/>
    <wangtile tileid="4605" wangid="0,0,0,0,0,16,0,0"/>
    <wangtile tileid="4606" wangid="0,0,0,16,0,0,0,0"/>
    <wangtile tileid="4617" wangid="0,0,0,0,0,17,0,17"/>
    <wangtile tileid="4619" wangid="0,17,0,17,0,0,0,0"/>
    <wangtile tileid="4620" wangid="0,0,0,0,0,17,0,17"/>
    <wangtile tileid="4621" wangid="0,17,0,17,0,0,0,0"/>
    <wangtile tileid="4623" wangid="0,17,0,17,0,17,0,17"/>
    <wangtile tileid="4624" wangid="0,17,0,17,0,17,0,17"/>
    <wangtile tileid="4638" wangid="0,0,0,0,0,18,0,18"/>
    <wangtile tileid="4640" wangid="0,18,0,18,0,0,0,0"/>
    <wangtile tileid="4641" wangid="0,0,0,0,0,18,0,0"/>
    <wangtile tileid="4642" wangid="0,0,0,18,0,0,0,0"/>
    <wangtile tileid="4701" wangid="0,0,0,16,0,16,0,16"/>
    <wangtile tileid="4702" wangid="0,0,0,16,0,16,0,0"/>
    <wangtile tileid="4703" wangid="0,16,0,16,0,16,0,0"/>
    <wangtile tileid="4705" wangid="0,0,0,16,0,0,0,16"/>
    <wangtile tileid="4706" wangid="0,16,0,0,0,16,0,0"/>
    <wangtile tileid="4717" wangid="0,0,0,17,0,17,0,17"/>
    <wangtile tileid="4718" wangid="0,0,0,17,0,17,0,0"/>
    <wangtile tileid="4719" wangid="0,17,0,17,0,17,0,0"/>
    <wangtile tileid="4720" wangid="0,0,0,17,0,0,0,17"/>
    <wangtile tileid="4721" wangid="0,0,0,0,0,17,0,0"/>
    <wangtile tileid="4723" wangid="0,17,0,17,0,17,0,17"/>
    <wangtile tileid="4724" wangid="0,17,0,17,0,17,0,17"/>
    <wangtile tileid="4738" wangid="0,0,0,18,0,18,0,18"/>
    <wangtile tileid="4739" wangid="0,0,0,18,0,18,0,0"/>
    <wangtile tileid="4740" wangid="0,18,0,18,0,18,0,0"/>
    <wangtile tileid="4741" wangid="0,0,0,18,0,0,0,18"/>
    <wangtile tileid="4742" wangid="0,18,0,0,0,18,0,0"/>
    <wangtile tileid="4901" wangid="0,18,0,18,0,18,0,18"/>
    <wangtile tileid="4903" wangid="0,11,0,11,0,11,0,11"/>
    <wangtile tileid="4905" wangid="0,12,0,12,0,12,0,12"/>
    <wangtile tileid="4907" wangid="0,1,0,1,0,1,0,1"/>
    <wangtile tileid="4909" wangid="0,1,0,1,0,1,0,1"/>
    <wangtile tileid="4911" wangid="0,15,0,15,0,15,0,15"/>
    <wangtile tileid="4913" wangid="0,2,0,2,0,2,0,2"/>
    <wangtile tileid="4915" wangid="0,7,0,7,0,7,0,7"/>
   </wangset>
   <wangset name="Mixed attempt" type="mixed" tile="-1">
    <wangcolor name="Sand over water" color="#ff0000" tile="-1" probability="1"/>
    <wangcolor name="" color="#00ff00" tile="-1" probability="1"/>
    <wangtile tileid="4501" wangid="1,1,1,0,1,1,1,1"/>
    <wangtile tileid="4502" wangid="1,1,1,0,0,0,1,1"/>
    <wangtile tileid="4503" wangid="1,1,1,1,1,0,1,1"/>
    <wangtile tileid="4505" wangid="0,0,0,0,0,0,0,1"/>
    <wangtile tileid="4506" wangid="0,1,0,0,0,0,0,0"/>
    <wangtile tileid="4601" wangid="1,0,0,0,1,1,1,1"/>
    <wangtile tileid="4603" wangid="1,1,1,1,1,0,0,0"/>
    <wangtile tileid="4605" wangid="0,0,0,0,0,1,0,0"/>
    <wangtile tileid="4606" wangid="0,0,0,1,0,0,0,0"/>
    <wangtile tileid="4701" wangid="1,0,1,1,1,1,1,1"/>
    <wangtile tileid="4702" wangid="0,0,1,1,1,1,1,0"/>
    <wangtile tileid="4703" wangid="1,1,1,1,1,1,1,0"/>
    <wangtile tileid="4705" wangid="0,0,0,1,0,0,0,1"/>
    <wangtile tileid="4706" wangid="0,1,0,0,0,1,0,0"/>
   </wangset>
  </wangsets>
 </tileset>
 <tileset firstgid="9201" source="../../../../../../../Library/CloudStorage/GoogleDrive-peneloperoseclay@gmail.com/My Drive/Coding/00_Assets/Tilesets &amp; Environments/Mana Seed - top down 16bit tilesets/20.07a - Winter Forest 4.0a/TSX files/winter forest (clean).tsx"/>
 <tileset firstgid="9873" source="../../../../../../../Library/CloudStorage/GoogleDrive-peneloperoseclay@gmail.com/My Drive/Coding/00_Assets/Tilesets &amp; Environments/Mana Seed - top down 16bit tilesets/20.07a - Winter Forest 4.0a/TSX files/winter forest (snowy).tsx"/>
 <tileset firstgid="10545" source="../../../../../../../Library/CloudStorage/GoogleDrive-peneloperoseclay@gmail.com/My Drive/Coding/00_Assets/Tilesets &amp; Environments/Mana Seed - top down 16bit tilesets/20.07a - Winter Forest 4.0a/TSX files/winter (snowy) 32x32.tsx"/>
 <tileset firstgid="10552" source="../../../../../../../Library/CloudStorage/GoogleDrive-peneloperoseclay@gmail.com/My Drive/Coding/00_Assets/Tilesets &amp; Environments/Mana Seed - top down 16bit tilesets/20.07a - Winter Forest 4.0a/TSX files/winter forest wang tiles (snowy).tsx"/>
 <tileset firstgid="12600" source="../../../../../../../Library/CloudStorage/GoogleDrive-peneloperoseclay@gmail.com/My Drive/Coding/00_Assets/Tilesets &amp; Environments/Mana Seed - top down 16bit tilesets/20.07a - Winter Forest 4.0a/TSX files/winter water sparkles B 16x16.tsx"/>
 <tileset firstgid="12612" source="../../../../../../../Library/CloudStorage/GoogleDrive-peneloperoseclay@gmail.com/My Drive/Coding/00_Assets/Tilesets &amp; Environments/Mana Seed - top down 16bit tilesets/20.07a - Winter Forest 4.0a/TSX files/winter waterfall B 16x16.tsx"/>
 <tileset firstgid="12692" source="../../../../../../../Library/CloudStorage/GoogleDrive-peneloperoseclay@gmail.com/My Drive/Coding/00_Assets/Tilesets &amp; Environments/Mana Seed - top down 16bit tilesets/20.07a - Winter Forest 4.0a/TSX files/bonus bridge.tsx"/>
 <imagelayer id="37" name="Ground" repeatx="1" repeaty="1">
  <image source="../Assets/Light_Grass_BG.png"/>
 </imagelayer>
 <layer id="31" name="Ground 3 - under P" width="45" height="30">
  <data encoding="csv">
0,0,0,0,0,3802,3804,0,0,0,0,0,0,0,0,0,0,0,0,0,0,0,0,0,0,0,0,0,0,0,0,0,0,0,0,0,0,0,0,3802,3804,0,0,0,0,
9881,9977,9977,9945,10009,9881,9945,10009,10009,9977,9913,9881,9881,9913,9945,9881,9913,9913,9913,9945,9881,9945,10009,9945,9945,10009,9945,10009,9977,9977,9945,9881,10009,9977,9913,10048,0,0,0,3802,3804,0,0,0,0,
9881,9913,9881,9913,9913,9977,9881,9881,10009,9977,9945,9913,9913,9945,9913,10009,9881,9977,9881,10009,9945,9881,9913,9977,9945,10009,9945,9945,9881,9881,10009,9913,9977,9881,10009,9921,0,0,0,3802,3706,3704,0,0,0,
9913,9945,9881,10009,9945,9977,9881,9977,10009,9977,9977,9977,9881,9913,9881,10009,9945,9977,9945,9881,9945,9913,9945,10009,9977,9881,9913,9945,9913,10009,9945,9945,10009,9977,9945,9889,0,0,0,3902,3805,3804,0,0,0,
10873,10937,10873,10937,10937,10809,10681,10809,10809,10873,10873,10681,10809,10937,10809,10809,10937,10809,10873,10745,10809,10809,10809,10745,10809,10809,10681,10745,10745,10937,10937,10873,10873,10745,10937,10873,0,0,0,0,3802,3804,0,0,0,
10745,10745,10937,10745,11136,10937,10937,10681,10745,10873,10873,10745,10745,10873,10745,10873,10873,10681,9905,9937,10745,10873,10809,10745,10937,10809,10809,10873,10873,10809,10681,10681,10937,10809,10937,10937,0,0,0,0,3802,3804,0,0,0,
10873,10745,10873,10809,10561,10937,10937,10937,10937,10809,10681,10681,10873,10745,10681,10873,10681,10937,10937,10937,10873,10873,10681,10681,10937,10873,10745,10809,10937,10809,10745,10937,10681,10873,10873,10745,0,0,0,0,3802,3706,3704,0,0,
10873,10681,10561,9961,10818,10681,10809,10873,10809,10937,10937,10809,10873,10681,10745,10809,10873,10809,10873,10745,10681,10873,10809,10809,10681,10681,10873,10681,10745,10681,10745,10681,10681,10745,10809,10937,0,0,0,0,3902,3805,3804,0,0,
10809,10745,10625,9993,10680,10937,10873,10809,10809,10745,10809,10681,10873,10937,10937,10745,10745,10873,10809,10745,10937,10873,10809,10873,10937,10873,10873,10809,10937,10873,10809,10681,10681,10745,10809,10937,0,0,0,0,0,3802,3706,3704,0,
10937,10873,10680,10680,10744,10873,10809,10745,10873,10681,10937,10809,10681,10745,10937,10937,10937,10873,10937,10745,10937,10681,10809,10745,10937,10745,10745,10745,10937,10937,10937,10681,10681,10745,9337,10681,9759,9760,9759,9223,0,3902,3805,3804,0,
10809,10809,10872,10632,11000,10873,10937,10745,10873,10937,10809,10809,10873,10873,10873,10873,10745,10681,10873,10937,10809,10873,10745,10809,10809,10873,10681,10937,10745,10681,10745,10745,9337,9337,9273,9241,9241,9304,9336,9631,9633,0,3802,3804,0,
10681,10745,10872,11000,11257,10681,10681,10873,10745,10681,10873,10937,10745,9961,10681,10745,10809,10873,10809,10745,10809,10937,10809,10681,10809,10809,10745,10809,10937,10681,10873,10681,9305,9305,9241,9241,9305,9334,9335,9663,9665,0,3802,3706,3703,
10937,10681,10055,12089,11024,10809,10873,10745,10809,10681,10937,10809,10937,10873,10745,10681,10745,10745,10809,10681,10681,10873,10809,10681,10681,10873,10681,10937,10681,10681,10745,10809,9241,9305,9273,9241,9273,9241,9209,9695,9697,0,3902,3805,4910,
10085,10514,10745,11134,12489,0,9961,10877,10941,11086,11074,10809,10809,10745,10809,10745,10873,10745,10745,10937,10873,10873,10873,10937,0,0,0,0,0,0,9337,9273,9241,9273,9273,9337,9209,9241,9510,9511,0,0,0,3802,4910,
10085,10055,10106,10074,11073,10813,10877,10877,10941,11086,11074,10873,10937,10745,10745,10873,10809,10681,10809,10745,10937,10809,10873,10745,10809,10873,10745,0,0,0,0,0,0,9273,9305,9209,9540,9541,9480,9350,0,0,3702,3705,4908,
10808,10744,10817,10562,11910,11138,11138,11202,11080,11089,10681,10681,10937,10681,10937,10809,10873,10937,10681,10681,10745,10681,10873,10873,10681,10873,10873,10873,0,0,0,0,0,0,9209,9241,9572,9573,9572,9729,3758106206,0,3902,3805,4908,
10936,10808,10680,10680,10817,10563,10809,11666,11144,11144,11145,10937,10681,10745,10745,10809,10809,10745,10681,10681,10809,10937,10937,10809,10745,10745,10809,10745,0,0,0,0,0,0,0,9305,9604,9605,9575,9793,9247,9248,0,3802,4908,
10936,10182,10212,10213,10212,10214,9990,10622,10746,10623,10810,10809,10745,10873,10745,10681,10937,10873,10681,10745,10873,10873,10809,10873,10745,10681,10809,10745,10873,10873,10809,10873,10745,0,9273,9369,9369,9303,9302,9694,9279,9280,0,3802,4910,
0,0,9929,9930,10020,10054,10055,9927,11138,10810,0,10809,10873,10745,10937,10681,10745,10873,10809,10937,10745,10681,10809,10873,10745,10809,10681,10745,10937,10809,10809,10873,10681,10745,0,9271,9206,9304,9287,0,0,0,0,3802,4910,
10872,9960,9961,9962,10052,10401,9989,9959,10001,10682,10750,10873,10937,10809,10937,10745,10745,10809,10681,10873,10873,10873,10873,10937,10873,10809,10937,10873,10681,9233,9233,9274,10809,10745,10873,9336,2684363896,9336,9319,0,0,0,3702,3705,3806,
10872,9992,9993,9994,10529,10400,10021,10513,9969,10751,10814,10809,10681,10681,10937,10809,10937,10937,10745,10873,10745,10681,10809,10681,10809,10809,10937,10745,10937,10745,9329,9233,10809,10745,10745,10809,9233,9367,9334,0,0,0,3802,3806,3904,
10872,10247,10936,10753,10691,10304,10085,10055,10514,10879,0,10681,10937,10681,10873,10937,10681,10809,10683,10873,10937,10937,10937,10873,10937,10745,10873,10937,10745,10809,9297,9265,9297,10873,10937,10937,9209,9270,9305,2684364320,0,0,3802,3804,0,
10936,10626,10872,10627,10873,10336,10306,10937,10103,9927,0,10681,10937,10873,10873,10681,10937,10745,10873,10809,10745,10681,10745,10745,10873,10681,10745,10745,10681,10809,10873,9329,9361,9329,10873,10745,10937,10873,10937,0,0,0,3802,3804,0,
10632,10936,10680,10817,10563,10368,10338,10104,10073,9894,9210,10745,10681,10937,10809,10681,10745,10873,10681,10681,10809,10681,10937,10681,10809,10873,10745,10873,10681,10937,10809,9297,9329,9265,9297,10937,10809,10809,10745,10873,0,0,3802,3804,0,
10808,10808,10632,10632,10817,10465,10370,10105,10103,10104,9926,0,10809,10745,10873,10745,10937,10937,10809,10809,10937,10809,10809,10681,10745,10745,10745,10937,10745,10681,10745,9265,9233,9297,9329,9329,9265,10873,10681,10809,0,3702,3705,3804,0,
10808,10680,0,0,0,10150,10937,10809,10073,10745,9927,10070,10745,10681,10937,10681,10681,10681,10809,10745,10681,10873,10745,10745,10873,10745,10809,10681,10873,10745,10873,10809,9265,9265,9361,9233,9297,9361,9233,9265,9697,3902,3805,3804,0,
10182,10212,0,0,0,10151,10175,10176,10177,9989,9959,10745,10071,10809,10873,10873,10745,10681,10745,10873,10681,10809,10873,10937,10873,10873,10873,10873,10745,10937,10937,10873,9297,9265,9233,9233,9361,9361,9297,9233,9605,0,3802,3706,3704,
10214,10245,10246,10276,10182,10183,10207,10208,10209,10021,10513,10873,10937,10072,10745,10745,10937,10681,10937,10745,10745,10745,10937,10937,10937,10937,10873,10873,10745,10873,10681,10937,10873,9265,9265,9297,9297,9329,9297,9361,1073751648,0,3902,3805,3706,
10246,10277,10278,10182,10183,10151,10271,10272,10273,10529,10055,9874,9876,10745,10745,10681,10937,10873,10745,10937,10745,10873,10937,10809,10745,10937,10681,10809,10745,10937,10681,10745,10873,9297,9297,9265,9265,9361,9329,9361,0,0,0,3902,3903,
10278,10753,10690,10433,10517,10150,10760,10632,10626,10817,11384,9972,9940,10745,10809,10937,10937,10809,10681,10745,10873,10937,10745,10681,10809,10809,10809,10937,10809,10809,10809,10809,10937,9233,9297,9265,9265,9297,9265,9265,0,0,0,0,0
</data>
 </layer>
 <layer id="34" name="Ground 2 - under P" width="45" height="30">
  <data encoding="csv">
0,0,0,0,0,0,0,0,0,0,0,0,0,0,0,0,0,0,0,0,0,0,0,0,0,0,0,0,0,0,0,0,0,0,0,0,0,0,0,0,0,0,0,0,0,
9886,9887,10048,9887,9888,9886,9887,10048,9887,9887,9887,10048,9887,9888,0,0,0,0,0,0,0,0,0,0,0,0,0,0,0,0,0,0,0,0,0,0,0,0,0,0,0,0,0,0,0,
10015,9937,10033,9969,10014,10015,9937,10033,10033,9969,10033,9969,9969,10014,10048,10048,9887,10048,9887,10048,10048,9887,9887,10048,10048,9887,9892,9893,10048,9893,9892,10048,10048,10048,9895,0,0,0,0,0,0,0,0,0,0,
9969,9905,10001,9905,10033,9969,9905,9937,10001,9969,9937,9969,9937,9905,9969,9905,10033,10001,9969,9905,10033,9937,9905,9905,9937,9937,9937,9937,9905,9937,9905,9937,9937,10033,9905,0,0,0,0,0,0,0,0,0,0,
0,9969,9937,9937,10001,0,0,0,0,0,0,0,0,9905,10873,0,0,0,0,0,0,0,0,0,0,0,0,0,0,0,0,0,0,0,0,0,0,0,0,0,0,0,0,0,0,
0,0,0,0,0,0,0,0,11198,11136,11134,0,0,11072,10561,0,0,0,9937,0,0,0,0,0,0,0,0,0,0,0,0,0,0,0,0,0,0,0,0,0,0,0,0,0,0,
0,0,0,0,0,0,0,0,11262,11008,10873,11134,12091,11645,10818,0,0,0,0,0,0,0,0,0,0,0,0,0,0,0,0,0,0,0,0,0,0,0,0,0,0,0,0,0,0,
0,0,0,0,0,0,0,0,0,11136,10681,9898,10818,9898,10946,0,0,0,0,0,0,0,0,0,0,0,0,0,0,0,0,0,0,0,0,0,0,0,0,0,0,0,0,0,0,
0,0,0,0,0,0,0,11136,10873,9898,10945,9898,10680,9898,0,0,0,0,0,0,0,0,0,0,0,0,0,0,0,0,0,0,0,0,0,9728,0,0,0,0,0,0,0,0,0,
0,0,0,0,0,10873,0,10561,10945,9898,10808,9898,10680,9898,0,10689,10691,0,0,0,0,0,0,0,0,0,0,0,0,0,0,0,0,0,0,9793,0,0,0,0,0,0,0,0,0,
0,0,0,0,0,10561,9961,10818,10680,9898,10808,10680,10680,2147493641,0,0,9927,0,0,10937,10681,10809,0,0,0,0,0,10681,10809,10937,10745,10937,0,0,0,0,0,0,0,3221234869,10305,0,0,0,0,
0,0,0,0,0,10625,9993,10680,10872,9898,10632,11000,11001,0,0,10224,10023,10937,0,10873,0,0,0,0,0,0,0,0,10745,10745,10745,10561,0,0,0,0,0,0,0,0,9665,10305,0,0,0,
0,0,10206,0,0,0,10680,10744,10638,2147493641,9958,0,11024,11026,10022,10053,10287,10681,0,0,0,0,0,0,0,0,0,0,0,10873,10561,10818,0,0,0,0,0,0,0,0,9665,9665,0,0,0,
10021,10023,10366,0,0,9959,10744,11000,11001,0,10379,10053,11088,10284,10286,10256,11024,0,10415,10416,0,0,10942,10815,0,0,0,9206,9207,9368,0,0,0,0,9508,0,0,0,0,0,9697,9665,0,0,0,
0,10183,0,0,0,0,11000,11257,11024,3221238076,10379,10256,11281,11080,11068,11280,10283,11152,10350,10542,10415,10415,11013,9743,9743,9743,9744,9270,9303,9337,9302,9271,9303,0,9538,9539,0,0,0,0,9349,9697,0,0,0,
10279,10183,0,10937,10681,10055,12089,11024,11281,3221238076,10813,10813,10877,10749,11080,10140,10748,10315,10510,10479,10479,10511,10081,11198,11135,11199,9870,9744,9367,9241,9334,9207,9335,9209,9570,9571,0,0,0,0,9604,9605,0,0,0,
10279,10247,0,0,10514,10745,11134,12489,10941,10685,10749,10877,11074,11068,11216,11154,10510,10479,10480,0,0,10478,10479,10480,10745,10478,10511,9776,9270,9369,9271,9271,9369,9303,9273,9603,0,0,9449,9514,9662,9694,0,0,0,
10278,0,0,0,0,0,0,11073,10813,11089,10877,10941,11086,11074,12488,11135,11136,10809,0,0,0,0,0,10809,10809,10745,10443,9776,9210,9211,9372,9211,9212,9238,0,9273,9273,9273,9510,9512,0,0,0,0,0,
0,0,0,0,0,0,0,11910,10206,11138,11080,11080,11089,11207,11667,10873,10745,10809,0,0,0,0,10937,10681,10681,10937,10446,9776,9274,9373,9373,9307,9370,9270,9369,9271,9303,9510,0,9514,0,0,0,0,0,
0,0,0,0,0,0,0,0,10302,0,11666,11144,11144,11145,10814,10560,10873,10745,0,0,0,10937,10681,10809,10937,10414,10543,9870,9744,0,0,9274,9340,9372,9212,9273,9273,0,0,0,0,0,0,0,0,
0,0,0,0,0,0,0,9991,10302,0,0,10746,10623,10810,10938,10878,10681,10809,0,10681,10937,10873,10745,10937,10681,10446,10348,9677,9870,9744,0,0,9274,9307,9338,9212,0,0,0,0,0,0,0,0,0,
0,0,0,0,0,0,0,0,9892,9895,0,10746,10810,10682,10750,10688,10873,10873,10683,10745,10809,10937,10105,10073,10745,10478,10511,10684,10812,9776,0,0,0,9274,9307,9338,9212,0,9369,3758106144,0,0,0,0,0,
0,0,0,0,0,0,0,0,0,0,0,10570,10954,10572,10688,10681,10873,10809,10681,10873,10745,10937,10072,10073,10937,10681,10446,10318,10876,9870,9744,0,0,0,9274,9307,9338,9372,9212,2684364320,0,0,0,0,0,
0,0,0,0,0,0,0,0,0,0,9895,11476,10757,10820,10942,10560,10681,10681,10681,10809,10745,10937,10681,10681,10809,10681,10478,10511,10748,9678,9776,0,0,0,0,9274,9275,9307,9370,3221235175,9633,0,0,0,0,
0,0,0,0,0,0,0,0,0,0,0,10694,10879,10570,11543,10814,10560,10937,10809,10937,10681,10873,10745,10937,10134,0,0,10446,10940,10940,9776,0,0,0,0,0,0,9274,9276,3221235143,9665,0,0,0,0,
0,0,0,0,0,0,0,0,0,0,0,0,9927,11543,10694,0,0,10809,10937,10681,10809,10873,10937,10681,0,0,0,10446,10748,10812,9870,9744,0,0,0,0,0,0,0,3221235111,9697,0,0,0,0,
0,0,0,0,10525,0,0,0,0,0,0,10073,0,0,0,0,0,10809,10873,10681,10745,10681,10745,10873,0,0,0,10446,10447,10684,10748,9776,0,0,0,0,0,0,0,9255,9534,0,0,0,0,
0,0,0,0,10525,10334,0,0,0,0,10023,10103,0,0,0,0,0,10809,10745,10134,10937,10873,0,0,0,0,0,10478,10511,10748,10748,9870,9744,0,0,0,0,0,0,9255,9280,0,0,0,0,
0,0,0,0,0,10334,0,0,0,0,0,0,0,0,0,0,0,10745,10809,10745,0,0,0,0,0,0,0,0,10478,10511,10684,10876,9776,0,0,0,0,0,9206,9793,0,0,0,0,0,
0,0,0,0,10215,10366,0,0,0,0,0,0,0,0,0,0,0,10809,10873,0,0,0,0,0,0,0,0,10745,10809,10446,10350,10684,9776,0,0,0,0,9206,9792,9511,0,0,0,0,0
</data>
 </layer>
 <layer id="36" name="Ground 1 - under P" width="45" height="30">
  <data encoding="csv">
0,0,0,0,0,0,0,0,0,0,0,0,0,0,0,0,0,0,0,0,0,0,0,0,0,0,0,0,0,0,0,0,0,0,0,0,0,0,0,0,0,0,0,0,0,
0,0,0,0,0,0,0,0,0,0,0,0,0,0,0,0,0,0,0,0,0,0,0,0,0,0,0,0,0,0,0,0,0,0,0,0,0,0,0,0,0,0,0,0,0,
11135,11199,10748,10940,10876,0,0,0,0,0,0,0,0,0,0,0,0,0,0,0,0,0,0,0,0,0,0,0,0,0,0,0,0,0,0,0,0,0,0,0,0,0,0,0,0,
9894,11134,11199,10876,10876,0,0,0,0,0,0,0,0,0,0,0,0,0,0,0,0,0,0,0,0,0,0,0,0,0,0,0,0,0,9927,0,0,0,0,0,0,0,0,0,0,
10070,10073,9894,11199,11198,0,0,0,0,10414,10415,10415,10416,0,0,0,0,0,0,0,0,0,0,0,0,0,0,0,0,0,0,0,0,0,9959,10022,10186,0,0,0,0,0,0,0,0,
10104,10104,10103,9927,0,10413,10411,10415,10415,10540,11153,11154,11262,11008,9891,9958,10001,9937,9937,0,0,0,0,0,0,0,0,0,0,0,0,0,0,0,0,0,0,0,0,0,0,0,0,0,0,
10105,10073,0,10539,0,10539,10540,11083,11065,11198,11199,11077,11071,9923,10074,9926,9969,0,0,0,0,0,0,0,0,0,0,0,0,0,0,0,0,0,0,0,0,0,0,0,0,0,0,0,0,
10104,10809,0,10334,0,10748,10940,10876,10219,9955,9894,11199,11065,9922,10170,9927,10302,0,0,0,0,0,0,0,0,0,0,0,0,0,0,0,0,0,0,0,0,0,0,0,0,0,0,0,0,
9958,9989,0,10334,0,11199,10876,11198,11135,0,9958,9959,12620,9954,9988,9959,10302,0,0,0,0,0,0,0,0,0,0,0,0,0,0,0,0,0,0,0,9694,0,0,0,0,0,0,0,0,
9990,10021,0,10334,0,9894,11199,2147493611,2147493611,9898,0,0,12628,0,10021,9958,10302,0,0,0,0,0,0,0,0,0,0,0,0,0,0,0,0,0,0,0,0,0,0,0,0,0,0,0,0,
10054,10400,0,0,0,10103,9927,2147493643,2147493643,9923,10051,0,12636,0,10020,10022,0,0,0,0,0,0,0,0,0,0,0,0,0,0,0,0,0,0,0,0,0,0,0,0,9633,0,0,0,0,
10086,9927,0,0,0,0,0,2147493611,2147493611,2147493607,10398,0,12628,0,10052,10054,0,0,0,0,0,0,0,0,0,0,0,0,0,0,0,0,0,0,0,0,0,0,0,0,0,9633,0,0,0,
9989,9959,0,10104,10809,0,10334,2147493643,2147493643,0,10054,10054,12636,0,0,0,0,0,0,0,0,0,0,0,0,0,0,0,0,0,0,0,0,0,0,0,0,0,0,0,0,0,0,0,0,
0,0,0,9958,9989,0,10334,2147493611,2147493611,0,10022,10053,12628,10251,0,0,0,0,0,0,0,0,0,0,0,0,0,0,0,0,0,0,0,0,0,0,0,0,0,0,0,0,0,0,0,
10116,9945,10119,9990,10021,0,0,2147493643,2147493643,10251,10286,10256,0,0,0,0,0,0,0,0,0,0,0,0,0,0,0,0,0,0,0,0,0,0,0,0,0,0,0,0,1610622430,0,0,0,0,
10182,0,10118,9945,10117,10119,0,0,0,0,0,0,0,0,0,0,0,0,0,0,0,0,0,0,0,0,0,0,0,0,0,0,0,0,0,0,0,0,0,0,9662,9534,0,0,0,
0,0,10141,10142,2147493755,10151,0,0,0,0,0,0,0,0,0,0,0,0,0,0,0,0,0,0,0,0,0,0,0,0,0,0,0,0,0,0,0,0,0,0,0,0,0,0,0,
0,0,0,0,0,0,0,9895,0,0,0,0,0,0,0,0,0,0,0,0,0,0,0,9882,9884,0,0,0,0,0,0,0,0,0,0,0,0,0,0,3221234914,0,0,0,0,0,
10182,9897,0,0,0,0,10055,9927,0,11202,0,0,0,0,0,0,0,0,10937,10681,10745,10564,10565,10011,9916,0,0,0,0,0,0,0,0,0,0,0,0,0,3221234914,0,0,0,0,0,0,
10151,0,0,0,0,0,0,0,0,11666,11144,0,0,0,0,0,0,0,10745,10873,10564,10821,10635,10756,9948,0,0,0,0,0,0,0,0,0,0,0,0,0,2684364002,0,0,0,0,0,0,
10150,0,0,0,0,0,0,0,0,10622,10746,0,0,0,0,0,0,0,10564,10565,10821,10762,10955,1610624059,0,0,0,0,0,0,0,0,0,0,0,0,0,0,0,2684364002,0,0,0,0,0,
10151,10206,0,0,0,0,0,0,0,0,0,0,0,0,0,0,0,9882,10821,10756,10949,3221236859,1073752766,10688,0,0,0,0,0,0,0,0,0,0,0,0,0,0,0,0,0,0,0,0,0,
10118,10334,1610623102,0,0,0,0,0,0,0,0,0,0,0,0,9882,10044,10011,9978,9948,0,0,0,0,0,0,0,0,0,0,0,0,0,0,0,0,0,0,0,0,0,0,0,0,0,
10118,10150,10334,1610623038,1610623102,0,0,0,0,0,0,0,0,0,9883,10011,9978,10045,9948,0,0,0,0,0,0,0,0,0,0,0,0,0,0,0,0,0,0,0,0,0,0,0,0,0,0,
10212,10213,10212,10183,10334,10206,0,0,0,0,0,0,9914,9917,9978,10045,9948,0,0,0,0,0,0,0,0,0,0,0,0,0,0,0,0,0,0,0,0,0,0,0,0,0,0,0,0,
10276,10277,10182,10213,10183,10334,10206,0,0,0,0,0,9946,9947,0,0,0,0,0,0,0,0,0,0,0,0,0,0,0,0,0,0,0,0,0,0,0,0,0,0,0,0,0,0,0,
0,0,10214,10244,10517,10366,10302,0,0,0,0,0,0,0,0,0,0,0,0,0,0,0,0,0,0,0,0,0,0,0,0,0,0,0,0,0,0,0,0,0,0,0,0,0,0,
0,0,0,0,0,0,10302,0,0,0,0,0,0,0,0,0,0,0,0,0,0,0,0,0,0,0,0,0,0,0,0,0,0,0,0,0,0,0,0,0,9694,0,0,0,0,
0,0,0,0,0,10186,10302,0,0,0,0,0,0,0,0,0,0,0,0,0,0,0,0,0,0,0,0,0,0,0,0,0,0,0,0,0,0,0,0,0,0,0,0,0,0,
0,0,0,0,0,0,10366,0,0,0,0,0,0,0,0,0,0,0,0,0,0,0,0,0,0,0,0,0,0,0,0,0,0,0,0,0,0,0,0,0,0,0,0,0,0
</data>
 </layer>
 <layer id="32" name="Objects - Player level" width="45" height="30">
  <data encoding="csv">
0,0,0,0,0,0,0,0,0,0,0,0,0,0,0,0,0,0,0,0,0,0,0,0,0,0,0,0,0,0,0,0,0,0,0,0,0,0,0,0,0,0,0,0,0,
0,0,0,0,0,0,0,0,0,0,0,0,0,0,0,0,0,0,0,0,0,0,0,0,0,0,0,0,0,0,0,0,0,0,0,0,0,0,0,0,0,0,0,0,0,
0,0,0,0,0,0,0,0,0,0,0,0,0,0,0,0,0,0,0,0,0,0,0,0,0,0,0,0,0,0,0,0,0,0,0,0,0,0,0,0,0,0,0,0,0,
0,0,0,0,0,0,0,0,0,0,0,0,0,0,0,0,0,0,0,0,0,0,0,0,0,0,0,0,0,0,0,0,0,0,0,0,0,0,0,0,0,0,0,0,0,
0,0,0,0,0,0,0,0,0,0,0,0,0,0,0,0,0,0,0,0,0,0,0,0,0,0,0,0,0,0,0,0,0,0,0,0,0,0,0,0,0,0,0,0,0,
0,0,0,0,0,0,0,0,0,0,0,0,0,0,0,0,0,0,0,0,0,0,0,0,0,0,0,0,0,0,0,0,0,0,0,0,0,0,0,0,0,0,0,0,0,
0,0,0,0,0,0,0,0,0,0,0,0,0,0,0,0,0,0,0,0,0,0,0,0,0,0,0,0,0,0,0,0,0,0,0,0,0,0,0,0,0,0,0,0,0,
0,0,0,0,0,0,0,0,0,0,0,0,0,0,0,0,0,0,0,0,0,0,0,0,0,0,0,0,0,0,0,0,0,0,0,0,0,0,0,0,0,0,0,0,0,
0,0,0,0,0,0,0,0,0,0,0,0,0,0,0,0,0,0,0,0,0,0,0,0,0,0,0,0,0,0,0,0,0,0,0,0,0,0,0,0,0,0,0,0,0,
0,0,0,0,0,0,0,0,0,0,0,0,0,0,0,0,0,0,0,0,0,0,0,0,0,0,0,0,0,0,0,0,0,0,0,0,0,0,0,0,0,0,0,0,0,
0,0,0,0,0,0,0,0,0,0,0,0,0,0,0,0,0,0,0,0,0,0,0,0,0,0,0,0,0,0,0,0,0,0,0,0,0,0,0,0,0,0,0,0,0,
0,0,0,0,0,0,0,0,0,0,0,0,0,0,0,0,0,0,0,0,0,0,0,0,0,0,0,0,0,0,0,0,0,0,0,0,0,0,0,0,0,0,0,0,0,
0,0,0,0,0,0,0,0,0,0,0,0,0,0,0,0,0,0,0,0,0,0,0,0,0,0,0,0,0,0,0,0,0,0,0,0,0,0,0,0,0,0,0,0,0,
0,0,0,0,0,0,0,0,0,0,0,0,0,0,0,0,0,0,0,0,0,0,0,0,0,0,0,0,0,0,0,0,0,0,0,0,0,0,0,0,0,0,0,0,0,
0,0,0,0,0,0,0,0,0,0,0,0,0,0,0,0,0,0,0,0,0,0,0,0,0,0,0,0,0,0,0,0,0,0,0,0,0,0,0,0,0,0,0,0,0,
0,0,0,0,0,0,0,0,0,0,0,0,0,0,0,0,0,0,0,0,0,0,0,0,0,0,0,0,0,0,0,0,0,0,0,0,0,0,0,0,0,0,0,0,0,
0,0,0,0,0,0,0,0,0,0,0,0,0,0,0,0,0,0,0,0,0,0,0,0,0,0,0,0,0,0,0,0,0,0,0,0,0,0,0,0,0,0,0,0,0,
0,0,0,0,0,0,0,0,0,0,0,0,0,0,0,0,0,0,0,0,0,0,0,0,0,0,0,0,0,0,0,0,0,0,0,0,0,0,0,0,0,0,0,0,0,
0,0,0,0,0,0,0,0,0,0,0,0,0,0,0,0,0,0,0,0,0,0,0,0,0,0,0,0,0,0,0,0,0,0,0,0,0,0,0,0,0,0,0,0,0,
0,0,0,0,0,0,0,0,0,0,0,0,0,0,0,0,0,0,0,0,0,0,0,0,0,0,0,0,0,0,0,0,0,0,0,0,0,0,0,0,0,0,0,0,0,
0,0,0,0,0,0,0,0,0,0,0,0,0,0,0,0,0,0,0,0,0,0,0,0,0,0,0,0,0,0,0,0,0,0,0,0,0,0,0,0,0,0,0,0,0,
0,0,0,0,0,0,0,0,0,0,0,0,0,0,0,0,0,0,0,0,0,0,0,0,0,0,0,0,0,0,0,0,0,0,0,0,0,0,0,0,0,0,0,0,0,
0,0,0,0,0,0,0,0,0,0,0,0,0,0,0,0,0,0,0,0,0,0,0,0,0,0,0,0,0,0,0,0,0,0,0,0,0,0,0,0,0,0,0,0,0,
0,0,0,0,0,0,0,0,0,0,0,0,0,0,0,0,0,0,0,0,0,0,0,0,0,0,0,0,0,0,0,0,0,0,0,0,0,0,0,0,0,0,0,0,0,
0,0,0,0,0,0,0,0,0,0,0,0,0,0,0,0,0,0,0,0,0,0,0,0,0,0,0,0,0,0,0,0,0,0,0,0,0,0,0,0,0,0,0,0,0,
0,0,0,0,0,0,0,0,0,0,0,0,0,0,0,0,0,0,0,0,0,0,0,0,0,0,0,0,0,0,0,0,0,0,0,0,0,0,0,0,0,0,0,0,0,
0,0,0,0,0,0,0,0,0,0,0,0,0,0,0,0,0,0,0,0,0,0,0,0,0,0,0,0,0,0,0,0,0,0,0,0,0,0,0,0,0,0,0,0,0,
0,0,0,0,0,0,0,0,0,0,0,0,0,0,0,0,0,0,0,0,0,0,0,0,0,0,0,0,0,0,0,0,0,0,0,0,0,0,0,0,0,0,0,0,0,
0,0,0,0,0,0,0,0,0,0,0,0,0,0,0,0,0,0,0,0,0,0,0,0,0,0,0,0,0,0,0,0,0,0,0,0,0,0,0,0,0,0,0,0,0,
0,0,0,0,0,0,0,0,0,0,0,0,0,0,0,0,0,0,0,0,0,0,0,0,0,0,0,0,0,0,0,0,0,0,0,0,0,0,0,0,0,0,0,0,0
</data>
 </layer>
 <layer id="29" name="Decorations 1 - OverP" width="45" height="30">
  <data encoding="csv">
9945,10009,9913,9977,9881,9881,9977,9977,9945,10009,9881,9913,10009,10009,9913,9977,9977,10009,9913,9913,9881,9945,10009,9977,9945,9977,9881,9881,9913,10009,9945,9913,9977,9881,9913,10151,0,0,0,0,0,0,0,0,0,
0,0,0,0,0,0,0,0,0,0,0,0,0,0,0,0,0,0,0,0,0,0,0,0,0,0,0,0,0,0,0,0,0,0,0,10151,0,0,0,0,0,0,0,0,0,
0,0,0,0,0,0,0,0,0,0,0,0,0,0,0,0,0,0,0,0,0,0,0,0,0,0,0,0,0,0,0,0,0,0,0,10183,0,0,0,0,0,0,0,0,0,
0,0,0,0,0,0,0,0,0,0,0,0,0,0,0,0,0,0,0,0,0,0,0,0,0,0,0,0,0,0,0,0,0,0,0,10022,10280,0,0,0,0,0,0,0,0,
0,0,0,0,0,0,0,0,0,0,0,0,0,0,0,0,0,0,0,0,0,0,0,0,0,0,0,0,0,0,0,0,0,0,0,9893,9895,0,0,0,0,0,0,0,0,
0,0,0,0,0,0,0,0,3221238076,12600,1073754428,0,0,9890,0,0,0,0,0,0,0,0,0,0,0,0,0,0,0,0,0,0,0,0,0,10106,9959,0,0,0,0,0,0,0,0,
0,0,0,1073754428,0,0,0,2147496256,9890,9892,9895,3221238076,12600,0,0,0,10186,0,0,0,0,0,0,0,0,0,0,0,0,0,0,0,0,0,0,9927,10023,0,0,0,0,0,0,0,0,
0,0,0,9895,0,12600,1073754428,0,0,0,0,9895,12600,0,0,0,0,0,0,0,0,0,0,0,0,0,0,0,0,0,0,0,0,0,0,9959,9991,0,0,0,0,0,0,0,0,
0,0,0,9888,9893,9895,12600,2147493547,2147493579,9922,0,0,0,0,0,0,9895,0,0,0,0,0,0,0,0,0,0,0,0,0,0,0,0,0,10882,0,10186,0,0,0,0,0,0,0,0,
0,0,0,10014,9888,0,9895,0,0,9954,9990,10023,0,9986,0,9991,9959,0,0,0,0,0,0,0,0,0,0,0,0,0,0,0,0,10819,10818,0,0,0,0,0,0,0,0,0,0,
0,0,0,9919,10046,0,0,0,0,10120,10121,9991,0,10018,0,10186,10023,0,0,0,0,0,0,0,0,0,0,0,0,0,0,0,0,0,0,0,0,0,0,0,0,0,0,0,0,
0,0,0,9982,9952,9958,9959,0,0,0,0,10023,0,9986,0,0,0,0,0,0,0,0,0,0,0,0,0,0,0,0,0,0,0,0,0,0,0,0,0,0,0,0,0,0,0,
0,0,0,9952,0,9926,10186,0,0,9986,10185,0,0,10018,0,0,0,11008,0,0,0,0,0,0,0,0,0,0,0,0,0,0,0,0,0,0,0,0,0,0,0,0,0,0,0,
0,0,0,0,0,0,0,0,0,10018,10379,0,12660,2147496292,12604,12604,12604,11262,0,0,0,0,0,0,0,0,0,0,0,0,0,0,0,0,0,0,0,0,0,0,0,0,0,0,0,
0,0,0,0,0,9991,0,2147496324,12660,2147496292,12608,0,12668,2147496300,12604,12604,12604,12604,12604,12604,0,0,0,0,0,0,0,0,0,0,0,0,0,0,0,0,0,0,0,0,0,0,0,0,0,
0,0,10077,0,0,10023,2684367228,2147496332,12668,2147496300,0,12604,12604,12604,12604,12604,12604,12604,12604,12604,12604,0,0,0,0,0,12604,0,0,0,0,0,0,0,0,0,0,0,0,0,0,0,0,0,0,
0,0,0,0,0,0,0,2147496300,0,0,12604,12604,12604,12604,12604,12604,0,0,0,0,0,0,0,0,0,0,0,12604,0,0,0,0,0,0,0,0,0,0,0,0,0,0,0,0,0,
0,0,0,0,0,0,0,0,12604,12604,12604,12604,12604,12604,0,0,0,0,0,0,0,0,0,0,0,0,0,12604,0,0,0,0,0,0,0,0,0,0,0,0,0,0,0,0,0,
0,0,0,0,0,0,0,0,0,0,0,12604,12604,0,0,0,0,0,0,0,0,0,0,0,0,0,0,12604,0,0,9531,9532,9533,0,0,9464,9465,0,0,0,0,0,0,0,0,
0,0,0,0,0,0,0,0,0,0,0,0,0,0,0,0,0,0,0,0,0,0,0,0,0,0,0,12604,0,0,9563,9564,9565,0,0,9496,9497,0,0,0,0,0,0,0,0,
0,0,0,0,0,0,0,0,0,0,0,0,0,0,0,0,0,0,0,0,0,0,0,0,0,0,0,0,0,0,9595,9596,9597,0,0,0,0,0,0,0,0,0,0,0,0,
0,0,0,0,0,0,0,0,0,0,10005,0,0,0,0,0,0,0,0,0,0,0,0,0,0,0,0,0,0,0,9627,9628,9629,0,0,0,0,0,0,0,0,0,0,0,0,
10119,10119,0,0,0,0,0,0,0,0,9909,0,0,0,0,0,0,0,0,0,0,0,0,0,0,0,0,0,0,0,9659,9660,9661,9489,9490,9491,9492,9493,0,0,0,0,0,0,0,
0,10116,10117,10119,0,0,0,0,0,0,0,0,0,0,0,0,0,0,0,0,0,0,0,0,0,0,0,0,0,0,9691,9692,9693,9521,9522,9523,9524,9525,0,0,0,0,0,0,0,
0,0,0,0,10119,0,0,0,0,0,0,0,0,0,0,0,0,0,0,0,0,0,0,0,0,0,0,0,0,0,0,0,0,9553,9554,9555,9556,9557,0,0,0,0,0,0,0,
0,0,10522,10525,0,0,0,0,0,0,0,0,0,0,0,0,0,0,0,0,0,0,0,0,0,0,0,0,0,0,0,0,0,9585,9586,9587,9588,9589,0,0,0,0,0,0,0,
0,0,0,0,10215,0,0,0,0,0,0,0,0,0,0,0,0,0,0,0,0,0,0,0,0,0,0,0,0,0,0,0,0,9617,9618,9619,9620,9621,0,0,0,0,0,0,0,
0,0,0,0,0,0,0,0,0,0,0,0,0,0,0,0,0,0,0,0,0,0,0,0,0,0,0,0,0,0,0,0,0,9649,9650,9651,9652,9653,0,0,0,0,0,0,0,
0,0,0,0,0,0,0,0,0,0,0,0,0,0,0,0,0,0,0,0,0,0,0,0,0,0,0,0,0,0,0,0,0,9681,9682,9683,9684,9685,0,0,0,0,0,0,0,
0,0,0,0,0,0,0,0,0,0,0,0,0,0,0,0,0,0,0,0,0,0,0,0,0,0,0,0,0,0,0,0,0,0,0,0,0,0,0,0,0,0,0,0,0
</data>
 </layer>
 <layer id="30" name="Decorations 2 - OverP" width="45" height="30">
  <data encoding="csv">
0,0,0,0,0,0,0,0,0,0,0,0,0,0,0,0,0,0,0,0,0,0,0,0,0,0,0,0,0,0,0,0,0,0,0,0,0,0,0,0,0,0,0,0,0,
0,0,0,0,0,0,0,0,0,0,0,0,0,0,0,0,0,0,0,0,0,0,0,0,0,0,0,0,0,0,0,0,0,0,0,0,0,0,0,0,0,0,0,0,0,
9895,2147496256,12600,1073754428,0,0,0,0,0,0,0,0,0,0,0,0,0,0,0,0,0,0,0,0,0,0,0,0,0,0,0,0,0,0,0,0,0,0,0,0,0,0,0,0,0,
9888,9893,9895,12600,12600,0,0,0,0,0,0,0,0,0,0,0,0,0,0,0,0,0,0,0,0,0,0,0,0,0,0,0,0,0,0,0,0,0,0,0,0,0,0,0,0,
10014,9888,0,9895,2147493547,0,0,0,0,0,0,0,0,0,0,0,0,0,0,0,0,0,0,0,0,0,0,0,0,0,0,0,0,0,0,0,0,0,0,0,0,0,0,0,0,
9919,10046,0,0,0,0,0,0,0,0,0,0,0,0,0,0,0,0,0,0,0,0,0,0,0,0,0,0,0,0,0,0,0,0,0,0,0,0,0,0,0,0,0,0,0,
9982,9952,9958,9959,0,0,0,0,0,0,0,0,0,0,0,0,0,0,0,0,0,0,0,0,0,0,0,0,0,0,0,0,0,0,0,0,0,0,0,0,0,0,0,0,0,
9952,0,9926,10186,0,0,0,0,0,0,0,0,0,0,0,0,0,0,0,0,0,0,0,0,0,0,0,0,0,0,0,0,0,0,0,0,0,0,0,0,0,0,0,0,0,
0,0,9959,0,0,0,0,0,0,0,0,0,0,0,0,0,0,0,0,0,0,0,0,0,0,0,0,0,0,0,0,0,0,0,0,0,0,0,0,0,0,0,0,0,0,
0,0,9991,0,0,0,0,0,0,0,0,0,0,0,0,0,0,0,0,0,0,0,0,0,0,0,0,0,0,0,0,0,0,0,0,0,0,0,0,0,0,0,0,0,0,
0,0,10023,0,0,0,0,0,0,0,0,0,0,0,0,0,0,0,0,0,0,0,0,0,0,0,0,0,0,0,0,0,0,0,0,0,0,0,0,0,0,0,0,0,0,
0,0,9991,0,0,0,0,0,0,0,0,0,0,0,0,0,0,0,0,0,0,0,0,0,0,0,0,0,0,0,0,0,0,0,0,0,0,0,0,0,0,0,0,0,0,
0,0,0,0,0,0,0,0,0,0,0,0,0,0,0,0,0,0,0,0,0,0,0,0,0,0,0,0,0,0,0,0,0,0,0,0,0,0,0,0,0,0,0,0,0,
10116,10117,10119,0,0,0,0,0,0,0,0,0,0,0,0,0,0,0,0,0,0,0,0,0,0,0,0,0,0,0,0,0,0,0,0,0,0,0,0,0,0,0,0,0,0,
10182,10119,10118,10116,10117,10119,10334,0,0,0,0,0,0,0,0,0,0,0,0,0,0,0,0,0,0,0,0,0,0,0,0,0,0,0,0,0,0,0,0,0,0,0,0,0,0,
0,0,10077,10078,2147493755,10151,2684364798,10206,0,0,0,0,0,0,0,0,0,0,0,0,0,0,0,0,0,0,0,0,0,0,0,0,0,0,0,0,0,0,0,0,0,0,0,0,0,
0,0,0,0,0,0,9895,2684364798,0,0,0,0,0,0,0,0,0,0,0,0,0,0,0,0,0,0,0,0,0,0,0,0,0,0,0,0,0,0,0,0,0,0,0,0,0,
0,0,0,0,0,0,0,0,0,0,0,0,0,0,0,0,0,0,0,0,0,0,0,0,0,0,0,0,0,0,0,0,0,0,0,0,0,0,0,0,0,0,0,0,0,
0,0,0,0,0,0,0,0,10206,0,0,0,0,0,0,0,0,0,0,0,0,0,0,0,0,0,0,0,0,0,0,0,0,0,0,0,0,0,0,0,0,0,0,0,0,
0,0,0,0,0,0,0,0,0,0,0,0,0,0,0,0,0,0,0,0,0,0,0,0,0,0,0,0,0,0,0,0,0,0,0,0,0,0,0,0,0,0,0,0,0,
0,0,0,0,0,0,0,0,0,0,0,0,0,0,0,0,0,0,0,0,0,0,0,0,0,0,0,0,0,0,0,0,0,0,0,0,0,0,0,0,0,0,0,0,0,
0,0,0,0,0,0,0,0,0,0,0,0,0,0,0,0,0,0,0,0,0,0,0,0,0,0,0,0,0,0,0,0,0,0,0,0,0,0,0,0,0,0,0,0,0,
0,0,0,0,0,0,0,0,0,0,0,0,0,0,0,0,0,0,0,0,0,0,0,0,0,0,0,0,0,0,0,0,0,0,0,0,0,0,0,0,0,0,0,0,0,
0,0,0,0,0,0,0,0,0,0,0,0,0,0,0,0,0,0,0,0,0,0,0,0,0,0,0,0,0,0,0,0,0,0,0,0,0,0,0,0,0,0,0,0,0,
0,0,0,0,0,0,0,0,0,0,0,0,0,0,0,0,0,0,0,0,0,0,0,0,0,0,0,0,0,0,0,0,0,0,0,0,0,0,0,0,0,0,0,0,0,
0,0,0,0,0,0,0,0,0,0,0,0,0,0,0,0,0,0,0,0,0,0,0,0,0,0,0,0,0,0,0,0,0,0,0,0,0,0,0,0,0,0,0,0,0,
0,0,0,0,0,0,0,0,0,0,0,0,0,0,0,0,0,0,0,0,0,0,0,0,0,0,0,0,0,0,0,0,0,0,0,0,0,0,0,0,0,0,0,0,0,
0,0,0,0,0,0,0,0,0,0,0,0,0,0,0,0,0,0,0,0,0,0,0,0,0,0,0,0,0,0,0,0,0,0,0,0,0,0,0,0,0,0,0,0,0,
0,0,0,0,0,0,0,0,0,0,0,0,0,0,0,0,0,0,0,0,0,0,0,0,0,0,0,0,0,0,0,0,0,0,0,0,0,0,0,0,0,0,0,0,0,
0,0,0,0,0,0,0,0,0,0,0,0,0,0,0,0,0,0,0,0,0,0,0,0,0,0,0,0,0,0,0,0,0,0,0,0,0,0,0,0,0,0,0,0,0
</data>
 </layer>
 <layer id="33" name="Decorations 3 - OverP" width="45" height="30">
  <data encoding="csv">
0,0,0,0,0,0,0,0,0,0,0,0,0,0,0,0,0,0,0,0,0,0,0,0,0,0,0,0,0,0,0,0,0,0,0,0,0,0,0,0,0,0,0,0,0,
0,0,0,0,0,0,0,0,0,0,0,0,0,0,0,0,0,0,0,0,0,0,0,0,0,0,0,0,0,0,0,0,0,0,0,0,0,0,0,0,0,0,0,0,0,
0,0,0,0,0,0,0,0,0,0,0,0,0,0,0,0,0,0,0,0,0,0,0,0,0,0,0,0,0,0,0,0,0,0,0,0,0,0,0,0,0,0,0,0,0,
0,0,0,0,0,0,0,0,0,0,0,0,0,0,0,0,0,0,0,0,0,0,0,0,0,0,0,0,0,0,0,0,0,0,0,0,0,0,0,0,0,0,0,0,0,
0,0,0,0,0,0,0,0,0,0,0,0,0,0,0,0,0,0,0,0,0,0,0,0,0,0,0,0,0,0,0,0,0,0,0,0,0,0,0,0,0,0,0,0,0,
0,0,0,0,0,0,0,0,0,0,0,0,0,0,0,0,0,0,0,0,0,0,0,0,0,0,0,0,0,0,0,0,0,0,0,0,0,0,0,0,0,0,0,0,0,
0,0,0,0,0,0,0,0,0,0,0,0,0,0,0,0,0,0,0,0,0,0,0,0,0,0,0,0,0,0,0,0,0,0,0,0,0,0,0,0,0,0,0,0,0,
0,0,0,0,0,0,0,0,0,0,0,0,0,0,0,0,0,0,0,0,0,0,0,0,0,0,0,0,0,0,0,0,0,0,0,0,0,0,0,0,0,0,0,0,0,
0,0,0,0,0,0,0,0,0,0,0,0,0,0,0,0,0,0,0,0,0,0,0,0,0,0,0,0,0,0,0,0,0,0,0,0,0,0,0,0,0,0,0,0,0,
0,0,0,0,0,0,0,0,0,0,0,0,0,0,0,0,0,0,0,0,0,0,0,0,0,0,0,0,0,0,0,0,0,0,0,0,0,0,0,0,0,0,0,0,0,
0,0,0,0,0,0,0,0,0,0,0,0,0,0,0,0,0,0,0,0,0,0,0,0,0,0,0,0,0,0,0,0,0,0,0,0,0,0,0,0,0,0,0,0,0,
0,0,0,0,0,0,0,0,0,0,0,0,0,0,0,0,0,0,0,0,0,0,0,0,0,0,0,0,0,0,0,0,0,0,0,0,0,0,0,0,0,0,0,0,0,
0,0,0,0,0,0,0,0,0,0,0,0,0,0,0,0,0,0,0,0,0,0,0,0,0,0,0,0,0,0,0,0,0,0,0,0,0,0,0,0,0,0,0,0,0,
0,0,0,0,0,0,0,0,0,0,0,0,0,0,0,0,0,0,0,0,0,0,0,0,0,0,0,0,0,0,0,0,0,0,0,0,0,0,0,0,0,0,0,0,0,
0,0,0,0,0,0,0,0,0,0,0,0,0,0,0,0,0,0,0,0,0,0,0,0,0,0,0,0,0,0,0,0,0,0,0,0,0,0,0,0,0,0,0,0,0,
0,0,0,0,0,0,0,0,0,0,0,0,0,0,0,0,0,0,0,0,0,0,0,0,0,0,0,0,0,0,0,0,0,0,0,0,0,0,0,0,0,0,0,0,0,
0,0,0,0,0,0,0,0,0,0,0,0,0,0,0,0,0,0,0,0,0,0,0,0,0,0,0,0,0,0,0,0,0,0,0,0,0,0,0,0,0,0,0,0,0,
0,0,0,0,0,0,0,0,0,0,0,0,0,0,0,0,0,0,0,0,0,0,0,0,0,0,0,0,0,0,0,0,0,0,0,0,0,0,0,0,0,0,0,0,0,
0,0,0,0,0,0,0,0,0,0,0,0,0,0,0,0,0,0,0,0,0,0,0,0,0,12692,0,0,0,0,0,0,0,0,0,0,0,0,0,0,0,0,0,0,0,
0,0,0,0,0,0,0,0,0,0,0,0,0,0,0,0,0,0,0,0,0,0,0,0,0,0,0,0,0,0,0,0,0,0,0,0,0,0,0,0,0,0,0,0,0,
0,0,0,0,0,0,0,0,0,0,0,0,0,0,0,0,0,0,0,0,0,0,0,0,0,0,0,0,0,0,0,0,0,0,0,0,0,0,0,0,0,0,0,0,0,
0,0,0,0,0,0,0,0,0,0,0,0,0,0,0,0,0,0,0,0,0,0,0,0,0,0,0,0,0,0,0,0,0,0,0,0,0,0,0,0,0,0,0,0,0,
0,0,0,0,0,0,0,0,0,0,0,0,0,0,0,0,0,0,0,0,0,0,0,0,0,0,0,0,0,0,0,0,0,0,0,0,0,0,0,0,0,0,0,0,0,
0,0,0,0,0,0,0,0,0,0,0,0,0,0,0,0,0,0,0,0,0,0,0,0,0,0,0,0,0,0,0,0,0,0,0,0,0,0,0,0,0,0,0,0,0,
0,0,0,0,0,0,0,0,0,0,0,0,0,0,0,0,0,0,0,0,0,0,0,0,0,0,0,0,0,0,0,0,0,0,0,0,0,0,0,0,0,0,0,0,0,
0,0,0,0,0,0,0,0,0,0,0,0,0,0,0,0,0,0,0,0,0,0,0,0,0,0,0,0,0,0,0,0,0,0,0,0,0,0,0,0,0,0,0,0,0,
0,0,0,0,0,0,0,0,0,0,0,0,0,0,0,0,0,0,0,0,0,0,0,0,0,0,0,0,0,0,0,0,0,0,0,0,0,0,0,0,0,0,0,0,0,
0,0,0,0,0,0,0,0,0,0,0,0,0,0,0,0,0,0,0,0,0,0,0,0,0,0,0,0,0,0,0,0,0,0,0,0,0,0,0,0,0,0,0,0,0,
0,0,0,0,0,0,0,0,0,0,0,0,0,0,0,0,0,0,0,0,0,0,0,0,0,0,0,0,0,0,0,0,0,0,0,0,0,0,0,0,0,0,0,0,0,
0,0,0,0,0,0,0,0,0,0,0,0,0,0,0,0,0,0,0,0,0,0,0,0,0,0,0,0,0,0,0,0,0,0,0,0,0,0,0,0,0,0,0,0,0
</data>
 </layer>
 <objectgroup id="19" name="Object Layer 1"/>
 <group id="20" name="Buildings">
  <imagelayer id="40" name="Sign" offsetx="502.449" offsety="8.53581">
   <image source="../../../../../../../../Assets/Structure Sprites/AL_TreeSign.png"/>
  </imagelayer>
 </group>
</map>
