<?xml version="1.0" encoding="UTF-8"?>
<map version="1.10" tiledversion="1.11.1.1" orientation="orthogonal" renderorder="right-down" width="15" height="12" tilewidth="16" tileheight="16" infinite="0" nextlayerid="6" nextobjectid="3">
 <tileset firstgid="1" source="../Tilesets/Mana_Interiors.tsx"/>
 <layer id="1" name="Ground &amp; Walls" width="15" height="12">
  <data encoding="csv">
2372,325,2373,2373,2374,2373,2374,2373,2374,2373,2374,2373,2374,2374,2375,
2500,3151,3151,3151,3151,3151,3151,3151,2775,2776,3151,3151,3151,3151,2503,
2628,3279,3279,3279,3279,3279,3279,3279,2903,2904,3279,3279,3279,3279,2631,
2756,2367,2367,2368,2753,2368,2367,2367,3031,3032,2367,2367,2367,2625,2759,
2884,2625,2622,2367,2368,2753,2367,2367,1073745111,1073745112,2368,2753,2368,2753,2887,
2756,2753,2750,2367,2368,2881,2367,2367,2367,2367,2368,2881,2368,2881,2631,
2884,2881,2878,2367,2367,2367,2368,2367,2368,2367,2368,2368,2368,2625,2631,
2756,2494,2367,2368,2368,2367,2368,2368,2367,2368,2367,2367,2750,2625,2759,
2884,2622,2367,2368,2753,2367,2367,2368,2368,2367,2368,2367,2878,2753,2887,
2756,2750,2367,2367,2881,2368,2368,2367,2750,2368,2368,2367,2750,2881,3015,
2884,2878,2367,2368,2368,2368,2368,2368,2878,2368,2368,2367,2878,2622,3143,
3268,3269,3269,3269,3269,3269,1221,1222,3269,3269,3269,3269,3269,3270,3271
</data>
 </layer>
 <layer id="3" name="Floor Coverings" width="15" height="12">
  <data encoding="csv">
0,0,4534,4535,0,0,0,0,0,0,0,0,0,0,0,
0,0,0,0,0,0,0,0,0,0,0,1667,1667,0,0,
0,0,3377,3378,3379,3380,0,0,0,0,0,1667,0,0,0,
0,0,3505,3506,3507,3508,0,0,0,0,0,0,0,0,0,
0,0,3633,3634,3635,3636,0,0,0,0,0,0,0,0,0,
0,3774,3761,3762,3763,3764,0,0,0,0,3497,3649,3650,0,0,
0,3648,3649,3648,3649,3650,0,0,0,0,3625,3650,3650,0,0,
0,0,0,0,0,0,0,0,0,0,0,3650,0,0,0,
0,0,0,0,0,0,0,0,0,0,0,0,0,0,0,
0,0,0,0,0,3648,3649,3650,3650,0,0,0,0,0,0,
0,0,0,0,0,3648,3649,3650,0,0,0,0,0,0,0,
0,0,0,0,0,3648,3649,3650,0,0,0,0,0,0,0
</data>
 </layer>
 <layer id="2" name="Furniture &amp; Decor" width="15" height="12">
  <data encoding="csv">
0,0,0,0,0,0,0,0,0,0,0,0,0,0,0,
0,0,0,0,0,2387,2387,0,0,0,1835,1830,0,7,0,
0,0,0,0,0,2515,2515,2147485202,1553,1554,0,0,0,135,0,
0,0,0,0,0,2643,2643,2147485330,1681,1682,0,0,0,263,0,
0,0,0,0,0,0,0,0,0,0,0,0,0,3479,0,
0,0,0,0,0,0,0,0,0,0,0,0,0,0,0,
0,0,0,0,0,0,0,0,0,2478,2479,2480,0,0,0,
0,0,0,0,0,0,0,0,0,2606,2607,2608,0,0,0,
0,29,30,2827,2828,2147483678,2147483677,0,0,2734,3624,2736,1967,1966,1814,
0,157,158,2955,2956,2147483806,2147483805,0,0,0,0,3247,2095,2094,1942,
0,285,286,0,0,2147483934,2147483933,0,0,0,0,3247,3247,2070,2070,
0,0,0,0,0,0,0,0,0,0,0,0,0,0,0
</data>
 </layer>
 <layer id="4" name="Items" width="15" height="12">
  <data encoding="csv">
0,0,0,0,0,0,0,0,0,0,0,0,0,0,0,
0,0,0,0,0,0,0,0,0,0,0,0,0,0,0,
0,0,0,0,0,0,0,3995,3996,3997,0,0,0,0,0,
0,0,0,0,0,0,0,0,0,0,0,0,0,0,0,
0,0,0,0,0,0,0,0,0,0,0,0,0,2582,0,
0,0,0,0,0,0,0,0,0,0,0,0,0,3858,0,
0,0,0,0,0,0,0,0,0,0,1707,0,0,0,0,
0,0,0,0,0,0,0,0,0,0,1707,0,0,0,0,
0,0,0,1703,1703,0,0,0,0,0,0,0,0,1433,0,
0,0,0,0,0,0,0,0,0,0,0,0,1965,1561,0,
0,0,0,0,0,0,0,0,0,0,0,0,2093,1689,0,
0,0,0,0,0,0,0,0,0,0,0,0,0,0,0
</data>
 </layer>
 <objectgroup id="5" name="Triggers">
  <object id="1" name="SpawnFromDoor_8" type="spawn" x="16.7304" y="51.1093" width="16" height="16">
   <properties>
    <property name="door_id" type="int" value="8"/>
   </properties>
  </object>
  <object id="2" name="DownToGround_8" type="door" x="34.5535" y="48.3531" width="32" height="20.781">
   <properties>
    <property name="door_id" type="int" value="8"/>
    <property name="target_scene" type="file" value="../../../scenes/worlds/World_00_Windmill_GroundFloor.tscn"/>
   </properties>
  </object>
 </objectgroup>
</map>
