<?xml version="1.0" encoding="UTF-8"?>
<map version="1.10" tiledversion="1.11.1.1" orientation="orthogonal" renderorder="right-down" width="15" height="12" tilewidth="16" tileheight="16" infinite="0" nextlayerid="5" nextobjectid="6">
 <tileset firstgid="1" source="../Tilesets/Mana_Interiors.tsx"/>
 <layer id="1" name="Ground &amp; Walls" width="15" height="12">
  <data encoding="csv">
356,357,357,357,357,357,357,357,357,357,357,357,357,358,359,
452,847,0,845,972,847,972,973,972,847,972,973,972,842,487,
580,1754,1755,1756,1101,1103,1100,1100,1100,1103,1102,727,728,1098,615,
708,1882,1883,1884,1229,1231,1228,1228,1228,1231,1230,855,856,1226,743,
452,2010,2011,2012,449,450,446,447,448,449,450,983,984,322,871,
580,446,447,448,449,450,448,449,450,446,447,448,449,450,999,
708,574,575,576,577,578,576,577,578,574,575,576,577,578,871,
836,702,703,704,705,706,704,705,706,447,448,449,450,450,999,
1092,830,831,832,833,834,832,833,834,575,576,577,578,578,871,
1220,1254,1254,0,0,1254,1254,586,702,703,704,705,706,706,999,
0,0,0,0,0,0,0,1124,830,831,832,833,834,834,1127,
0,0,0,0,0,0,0,1252,1254,1254,0,0,1254,1254,1255
</data>
 </layer>
 <layer id="2" name="Furniture &amp; Decor" width="15" height="12">
  <data encoding="csv">
0,0,0,0,0,0,0,0,0,0,0,0,0,0,0,
0,1626,1627,1628,0,2067,2068,0,0,0,0,0,0,0,0,
0,0,0,0,0,2195,2196,2193,2194,0,2799,0,0,2800,0,
0,3183,0,0,0,0,0,0,0,0,2927,0,0,2928,0,
0,3311,0,0,0,0,0,0,0,0,3055,0,0,3056,0,
0,0,0,0,0,0,1826,1827,1828,0,0,0,0,0,0,
0,0,0,0,0,0,1954,1955,1956,0,0,0,0,0,0,
0,0,0,0,0,0,0,0,0,0,0,0,0,0,0,
0,0,0,0,0,0,0,0,0,0,0,0,0,0,0,
0,0,0,3287,3288,0,0,0,1963,0,0,0,3102,3103,0,
0,0,0,0,0,0,0,0,2091,0,0,0,3230,3231,0,
0,0,0,0,0,0,0,0,0,0,3287,3288,0,0,0
</data>
 </layer>
 <layer id="3" name="Items" width="15" height="12">
  <data encoding="csv">
0,0,0,0,0,0,0,0,0,0,0,0,0,0,0,
0,0,0,0,0,0,0,0,0,0,0,0,0,0,0,
0,0,0,0,0,0,0,0,0,0,0,0,0,0,0,
0,0,0,0,0,0,0,0,0,0,0,0,0,0,0,
0,0,0,3990,3990,0,0,0,0,0,0,0,0,0,0,
0,0,0,0,0,0,4375,4248,4374,0,0,0,0,2147484417,0,
0,0,0,0,0,0,0,0,0,0,0,0,0,2147484545,0,
0,2844,2845,0,0,0,0,0,0,0,0,0,0,2147484673,0,
0,2972,2973,0,0,0,0,0,0,0,0,0,0,0,0,
0,0,0,0,0,0,0,0,0,0,0,0,0,0,0,
0,0,0,0,0,0,0,0,0,0,0,0,0,3494,0,
0,0,0,0,0,0,0,0,0,0,0,0,0,0,0
</data>
 </layer>
 <objectgroup id="4" name="Triggers">
  <object id="1" name="SpawnFromDoor_1" type="spawn" x="55.5461" y="126.468" width="16" height="16">
   <properties>
    <property name="door_id" type="int" value="1"/>
   </properties>
  </object>
  <object id="2" name="ExitToVillage_1" type="door" x="47.0921" y="144.225" width="32" height="16">
   <properties>
    <property name="door_id" type="int" value="1"/>
    <property name="target_scene" type="file" value="../../../scenes/worlds/World_00.tscn"/>
   </properties>
  </object>
  <object id="3" name="ExitToVillage_2" type="door" x="160.123" y="175.84" width="32" height="16">
   <properties>
    <property name="door_id" type="int" value="2"/>
    <property name="target_scene" type="file" value="../../../scenes/worlds/World_00.tscn"/>
   </properties>
  </object>
  <object id="4" name="SpawnFromDoor_2" type="spawn" x="168.123" y="159.045" width="16" height="16">
   <properties>
    <property name="door_id" type="int" value="2"/>
   </properties>
  </object>
 </objectgroup>
</map>
