<?xml version="1.0" encoding="UTF-8"?>
<map version="1.10" tiledversion="1.11.1.1" orientation="orthogonal" renderorder="right-down" width="15" height="12" tilewidth="16" tileheight="16" infinite="0" nextlayerid="6" nextobjectid="3">
 <tileset firstgid="1" source="../Tilesets/Mana_Interiors.tsx"/>
 <layer id="1" name="Ground &amp; Walls" width="15" height="12">
  <data encoding="csv">
2372,2373,2373,2373,2374,2373,2374,2373,2374,2373,2374,2373,2374,2374,2375,
2500,2775,2776,3151,3151,3151,3151,3151,3151,2775,2776,3151,3151,3151,2503,
2628,2903,2904,3279,3279,3279,3279,3279,3279,2903,2904,3279,3151,3279,2631,
2756,3031,3032,2368,2753,2368,2367,2368,2367,3031,3032,2367,2368,2625,2759,
2884,2625,2622,2367,2368,2753,2367,2367,2367,2367,2368,2753,2368,2753,2887,
2756,2753,2750,2367,2368,2881,2367,2367,2367,2367,2368,2881,2368,2881,2631,
2884,2881,2878,2367,2367,2367,2368,2367,2368,2367,2368,2368,2368,2625,2631,
2756,2494,2367,2368,2368,2367,2368,2368,2367,2368,2367,2367,2750,2625,2759,
2884,2622,2367,2368,2753,2367,2367,2368,2368,2367,2368,2367,2878,2753,2887,
2756,2750,2367,2367,2881,2368,2368,2367,2750,2368,2368,2367,2750,2881,3015,
2884,2878,2367,2368,2368,2368,2368,2368,2878,2368,2368,2367,2878,2622,3143,
3268,3269,3269,3269,3269,3269,3287,3288,3269,3269,3269,3269,3269,3270,3271
</data>
 </layer>
 <layer id="3" name="Floor Coverings" width="15" height="12">
  <data encoding="csv">
0,0,0,0,0,0,0,0,0,0,0,0,0,0,0,
0,0,0,0,0,0,0,0,0,0,0,0,0,0,0,
0,0,0,0,0,0,0,0,0,0,0,0,0,0,0,
0,528,529,530,0,0,0,0,0,0,0,0,0,0,0,
0,657,657,658,0,0,0,0,2729,0,0,0,0,0,0,
0,657,657,658,0,0,531,529,2857,532,530,0,0,0,0,
0,784,785,786,0,0,659,657,657,657,658,0,0,0,0,
0,0,0,0,0,0,659,657,2856,657,661,0,0,0,0,
0,1967,0,2226,0,0,787,788,785,785,789,0,2305,2306,0,
0,2095,0,2355,0,0,0,0,0,0,0,0,2433,2434,0,
0,0,0,2355,0,0,0,0,0,0,0,0,0,0,0,
0,0,0,0,0,0,0,0,0,0,0,0,0,0,0
</data>
 </layer>
 <layer id="2" name="Furniture &amp; Decor" width="15" height="12">
  <data encoding="csv">
0,0,0,0,0,0,0,0,0,0,0,0,0,0,0,
0,0,0,0,0,781,782,0,1838,0,0,6,777,778,0,
0,2573,2574,1978,0,909,910,2313,2314,2311,2312,133,905,906,0,
0,2701,2702,2106,0,1037,1038,2441,2442,2439,2440,261,1033,1034,0,
0,2575,2576,0,0,0,0,0,0,0,0,0,0,772,0,
0,2703,2704,0,0,0,2730,915,916,917,2147486378,0,0,900,0,
0,0,0,0,0,0,2858,1043,1044,1045,2147486506,0,0,1028,0,
0,0,0,0,0,0,0,1171,1172,1173,0,0,0,0,0,
0,0,0,0,0,0,0,0,0,0,0,0,2305,2306,0,
0,1966,1965,2226,0,0,0,0,0,0,0,1974,2731,2434,0,
0,2094,2093,3993,3994,0,0,0,0,0,0,2102,2859,0,0,
0,0,0,0,0,0,0,0,0,0,0,0,0,0,0
</data>
 </layer>
 <layer id="4" name="Items" width="15" height="12">
  <data encoding="csv">
0,0,0,0,0,0,0,0,0,0,0,0,0,0,0,
0,0,0,0,0,0,0,1836,0,0,0,0,0,0,0,
0,0,0,1703,0,0,0,522,0,0,0,0,0,0,0,
0,0,0,0,0,0,0,522,0,0,0,0,0,0,0,
0,0,0,0,0,0,0,0,0,0,0,0,0,0,0,
0,0,0,0,0,0,0,1705,1724,1709,0,0,0,0,0,
0,0,0,0,0,0,0,1707,1715,1713,0,0,0,0,0,
0,0,0,0,0,2451,0,0,2856,0,2348,2348,0,0,0,
0,0,0,0,0,0,0,0,0,0,0,0,0,0,0,
0,0,0,0,0,0,0,0,0,0,0,0,1719,0,0,
0,0,0,0,0,0,0,0,0,0,0,0,0,0,0,
0,0,0,0,0,0,0,0,0,0,0,0,0,0,0
</data>
 </layer>
 <objectgroup id="5" name="Triggers">
  <object id="1" name="SpawnFromDoor_4" type="spawn" x="104" y="157.329" width="16" height="16">
   <properties>
    <property name="door_id" type="int" value="4"/>
   </properties>
  </object>
  <object id="2" name="ExitToVillage_4" type="door" x="96" y="176" width="32" height="16">
   <properties>
    <property name="door_id" type="int" value="4"/>
    <property name="target_scene" type="file" value="../../../scenes/worlds/World_00.tscn"/>
   </properties>
  </object>
 </objectgroup>
</map>
