<?xml version="1.0" encoding="UTF-8"?>
<map version="1.10" tiledversion="1.11.1.1" orientation="orthogonal" renderorder="right-down" width="45" height="30" tilewidth="16" tileheight="16" infinite="0" nextlayerid="9" nextobjectid="1">
 <tileset firstgid="1" name="Forest Combo" tilewidth="16" tileheight="16" tilecount="9200" columns="100" tilerendersize="grid">
  <image source="../Assets/FantasyForest_Combo.png" width="1600" height="1472"/>
  <tile id="701">
   <objectgroup draworder="index" id="2">
    <object id="1" x="0.0909091" y="0.204545" width="15.9091" height="15.6364"/>
   </objectgroup>
  </tile>
  <tile id="808">
   <objectgroup draworder="index" id="2">
    <object id="1" x="0.181818" y="0.181818" width="15.4545" height="15.8182"/>
   </objectgroup>
  </tile>
  <tile id="915">
   <objectgroup draworder="index" id="2">
    <object id="1" x="-1.77636e-15" y="-0.0909091" width="15.7273" height="11.5455"/>
   </objectgroup>
  </tile>
  <tile id="921">
   <objectgroup draworder="index" id="2">
    <object id="1" x="9.34211" y="4.60526"/>
    <object id="2" x="-0.0197368" y="0.125" width="16.0329" height="10.0658"/>
    <object id="3" x="9.86842" y="-0.592105">
     <polygon points="0,0 0,0 0,0 0,0"/>
    </object>
   </objectgroup>
  </tile>
  <wangsets>
   <wangset name="Paths and Layers" type="corner" tile="-1">
    <wangcolor name="Light Dirt on Light Grass" color="#ff0000" tile="-1" probability="1"/>
    <wangcolor name="Light Dirt on Dark Grass" color="#00ff00" tile="-1" probability="1"/>
    <wangcolor name="Sand on Light Grass" color="#0000ff" tile="-1" probability="1"/>
    <wangcolor name="Light Dirt on Sand" color="#ff7700" tile="-1" probability="1"/>
    <wangcolor name="Light Grass on Light Dirt" color="#00e9ff" tile="-1" probability="1"/>
    <wangcolor name="Light Grass on Sand" color="#ff00d8" tile="-1" probability="1"/>
    <wangcolor name="Sand on Light Dirt" color="#ffff00" tile="-1" probability="1"/>
    <wangcolor name="Dark Grass on Dark Dirt" color="#a000ff" tile="-1" probability="1"/>
    <wangcolor name="Dark Grass on Light Grass" color="#00ffa1" tile="-1" probability="1"/>
    <wangcolor name="Mud on Dark Grass" color="#ffa8a8" tile="-1" probability="1"/>
    <wangcolor name="Dark Grass on Empty" color="#b4a8ff" tile="-1" probability="1"/>
    <wangcolor name="Mud on Empty" color="#96ffa7" tile="-1" probability="1"/>
    <wangcolor name="Light Grass under Dark Grass" color="#8e7848" tile="-1" probability="1"/>
    <wangcolor name="Red Dirt on Empty" color="#5a5a5a" tile="-1" probability="1"/>
    <wangcolor name="Red Dirt on Dark Dirt" color="#0e7a46" tile="-1" probability="1"/>
    <wangcolor name="Sand over Water" color="#00000000" tile="-1" probability="1"/>
    <wangcolor name="Water over Dark Water" color="#8184b8" tile="-1" probability="1"/>
    <wangcolor name="Light grass on Empty" color="#fd3650" tile="-1" probability="1"/>
    <wangtile tileid="3701" wangid="0,0,0,1,0,0,0,0"/>
    <wangtile tileid="3702" wangid="0,0,0,1,0,1,0,0"/>
    <wangtile tileid="3703" wangid="0,0,0,0,0,1,0,0"/>
    <wangtile tileid="3704" wangid="0,1,0,1,0,1,0,0"/>
    <wangtile tileid="3705" wangid="0,0,0,1,0,1,0,1"/>
    <wangtile tileid="3707" wangid="0,0,0,3,0,0,0,0"/>
    <wangtile tileid="3708" wangid="0,0,0,3,0,3,0,0"/>
    <wangtile tileid="3709" wangid="0,0,0,0,0,3,0,0"/>
    <wangtile tileid="3710" wangid="0,3,0,3,0,3,0,0"/>
    <wangtile tileid="3711" wangid="0,0,0,3,0,3,0,3"/>
    <wangtile tileid="3713" wangid="0,0,0,4,0,0,0,0"/>
    <wangtile tileid="3714" wangid="0,0,0,4,0,4,0,0"/>
    <wangtile tileid="3715" wangid="0,0,0,0,0,4,0,0"/>
    <wangtile tileid="3716" wangid="0,4,0,4,0,4,0,0"/>
    <wangtile tileid="3717" wangid="0,0,0,4,0,4,0,4"/>
    <wangtile tileid="3719" wangid="0,0,0,2,0,0,0,0"/>
    <wangtile tileid="3720" wangid="0,0,0,2,0,2,0,0"/>
    <wangtile tileid="3721" wangid="0,0,0,0,0,2,0,0"/>
    <wangtile tileid="3722" wangid="0,2,0,2,0,2,0,0"/>
    <wangtile tileid="3723" wangid="0,0,0,2,0,2,0,2"/>
    <wangtile tileid="3725" wangid="0,9,0,0,0,9,0,9"/>
    <wangtile tileid="3726" wangid="0,9,0,0,0,0,0,9"/>
    <wangtile tileid="3727" wangid="0,9,0,9,0,0,0,9"/>
    <wangtile tileid="3728" wangid="0,0,0,0,0,0,0,9"/>
    <wangtile tileid="3729" wangid="0,9,0,0,0,0,0,0"/>
    <wangtile tileid="3731" wangid="0,10,0,0,0,10,0,10"/>
    <wangtile tileid="3732" wangid="0,10,0,0,0,0,0,10"/>
    <wangtile tileid="3733" wangid="0,10,0,10,0,0,0,10"/>
    <wangtile tileid="3734" wangid="0,0,0,0,0,0,0,10"/>
    <wangtile tileid="3735" wangid="0,10,0,0,0,0,0,0"/>
    <wangtile tileid="3737" wangid="0,15,0,0,0,15,0,15"/>
    <wangtile tileid="3738" wangid="0,15,0,0,0,0,0,15"/>
    <wangtile tileid="3739" wangid="0,15,0,15,0,0,0,15"/>
    <wangtile tileid="3740" wangid="0,0,0,0,0,0,0,15"/>
    <wangtile tileid="3741" wangid="0,15,0,0,0,0,0,0"/>
    <wangtile tileid="3801" wangid="0,1,0,1,0,0,0,0"/>
    <wangtile tileid="3802" wangid="0,14,0,14,0,14,0,14"/>
    <wangtile tileid="3803" wangid="0,0,0,0,0,1,0,1"/>
    <wangtile tileid="3804" wangid="0,1,0,1,0,0,0,1"/>
    <wangtile tileid="3805" wangid="0,1,0,0,0,1,0,1"/>
    <wangtile tileid="3807" wangid="0,3,0,3,0,0,0,0"/>
    <wangtile tileid="3808" wangid="0,3,0,3,0,3,0,3"/>
    <wangtile tileid="3809" wangid="0,0,0,0,0,3,0,3"/>
    <wangtile tileid="3810" wangid="0,3,0,3,0,0,0,3"/>
    <wangtile tileid="3811" wangid="0,3,0,0,0,3,0,3"/>
    <wangtile tileid="3813" wangid="0,4,0,4,0,0,0,0"/>
    <wangtile tileid="3814" wangid="0,4,0,4,0,4,0,4"/>
    <wangtile tileid="3815" wangid="0,0,0,0,0,4,0,4"/>
    <wangtile tileid="3816" wangid="0,4,0,4,0,0,0,4"/>
    <wangtile tileid="3817" wangid="0,4,0,0,0,4,0,4"/>
    <wangtile tileid="3819" wangid="0,2,0,2,0,0,0,0"/>
    <wangtile tileid="3820" wangid="0,2,0,2,0,2,0,2"/>
    <wangtile tileid="3821" wangid="0,0,0,0,0,2,0,2"/>
    <wangtile tileid="3822" wangid="0,2,0,2,0,0,0,2"/>
    <wangtile tileid="3823" wangid="0,2,0,0,0,2,0,2"/>
    <wangtile tileid="3825" wangid="0,0,0,0,0,9,0,9"/>
    <wangtile tileid="3827" wangid="0,9,0,9,0,0,0,0"/>
    <wangtile tileid="3828" wangid="0,0,0,0,0,9,0,0"/>
    <wangtile tileid="3829" wangid="0,0,0,9,0,0,0,0"/>
    <wangtile tileid="3831" wangid="0,0,0,0,0,10,0,10"/>
    <wangtile tileid="3833" wangid="0,10,0,10,0,0,0,0"/>
    <wangtile tileid="3834" wangid="0,0,0,0,0,10,0,0"/>
    <wangtile tileid="3835" wangid="0,0,0,10,0,0,0,0"/>
    <wangtile tileid="3837" wangid="0,0,0,0,0,15,0,15"/>
    <wangtile tileid="3839" wangid="0,15,0,15,0,0,0,0"/>
    <wangtile tileid="3840" wangid="0,0,0,0,0,15,0,0"/>
    <wangtile tileid="3841" wangid="0,0,0,15,0,0,0,0"/>
    <wangtile tileid="3901" wangid="0,1,0,0,0,0,0,0"/>
    <wangtile tileid="3902" wangid="0,1,0,0,0,0,0,1"/>
    <wangtile tileid="3903" wangid="0,0,0,0,0,0,0,1"/>
    <wangtile tileid="3904" wangid="0,1,0,0,0,1,0,0"/>
    <wangtile tileid="3905" wangid="0,0,0,1,0,0,0,1"/>
    <wangtile tileid="3907" wangid="0,3,0,0,0,0,0,0"/>
    <wangtile tileid="3908" wangid="0,3,0,0,0,0,0,3"/>
    <wangtile tileid="3909" wangid="0,0,0,0,0,0,0,3"/>
    <wangtile tileid="3910" wangid="0,3,0,0,0,3,0,0"/>
    <wangtile tileid="3911" wangid="0,0,0,3,0,0,0,3"/>
    <wangtile tileid="3913" wangid="0,4,0,0,0,0,0,0"/>
    <wangtile tileid="3914" wangid="0,4,0,0,0,0,0,4"/>
    <wangtile tileid="3915" wangid="0,0,0,0,0,0,0,4"/>
    <wangtile tileid="3916" wangid="0,4,0,0,0,4,0,0"/>
    <wangtile tileid="3917" wangid="0,0,0,4,0,0,0,4"/>
    <wangtile tileid="3919" wangid="0,2,0,0,0,0,0,0"/>
    <wangtile tileid="3920" wangid="0,2,0,0,0,0,0,2"/>
    <wangtile tileid="3921" wangid="0,0,0,0,0,0,0,2"/>
    <wangtile tileid="3922" wangid="0,2,0,0,0,2,0,0"/>
    <wangtile tileid="3923" wangid="0,0,0,2,0,0,0,2"/>
    <wangtile tileid="3925" wangid="0,0,0,9,0,9,0,9"/>
    <wangtile tileid="3926" wangid="0,0,0,9,0,9,0,0"/>
    <wangtile tileid="3927" wangid="0,9,0,9,0,9,0,0"/>
    <wangtile tileid="3928" wangid="0,0,0,9,0,0,0,9"/>
    <wangtile tileid="3929" wangid="0,9,0,0,0,9,0,0"/>
    <wangtile tileid="3931" wangid="0,0,0,10,0,10,0,10"/>
    <wangtile tileid="3932" wangid="0,0,0,10,0,10,0,0"/>
    <wangtile tileid="3933" wangid="0,10,0,10,0,10,0,0"/>
    <wangtile tileid="3934" wangid="0,0,0,10,0,0,0,10"/>
    <wangtile tileid="3935" wangid="0,10,0,0,0,10,0,0"/>
    <wangtile tileid="3937" wangid="0,0,0,15,0,15,0,15"/>
    <wangtile tileid="3938" wangid="0,0,0,15,0,15,0,0"/>
    <wangtile tileid="3939" wangid="0,15,0,15,0,15,0,0"/>
    <wangtile tileid="3940" wangid="0,0,0,15,0,0,0,15"/>
    <wangtile tileid="3941" wangid="0,15,0,0,0,15,0,0"/>
    <wangtile tileid="4101" wangid="0,5,0,0,0,5,0,5"/>
    <wangtile tileid="4102" wangid="0,5,0,0,0,0,0,5"/>
    <wangtile tileid="4103" wangid="0,5,0,5,0,0,0,5"/>
    <wangtile tileid="4104" wangid="0,0,0,0,0,0,0,5"/>
    <wangtile tileid="4105" wangid="0,5,0,0,0,0,0,0"/>
    <wangtile tileid="4107" wangid="0,6,0,0,0,6,0,6"/>
    <wangtile tileid="4108" wangid="0,6,0,0,0,0,0,6"/>
    <wangtile tileid="4109" wangid="0,6,0,6,0,0,0,6"/>
    <wangtile tileid="4110" wangid="0,0,0,0,0,0,0,6"/>
    <wangtile tileid="4111" wangid="0,6,0,0,0,0,0,0"/>
    <wangtile tileid="4113" wangid="0,7,0,0,0,7,0,7"/>
    <wangtile tileid="4114" wangid="0,7,0,0,0,0,0,7"/>
    <wangtile tileid="4115" wangid="0,7,0,7,0,0,0,7"/>
    <wangtile tileid="4116" wangid="0,0,0,0,0,0,0,7"/>
    <wangtile tileid="4117" wangid="0,7,0,0,0,0,0,0"/>
    <wangtile tileid="4119" wangid="0,8,0,0,0,8,0,8"/>
    <wangtile tileid="4120" wangid="0,8,0,0,0,0,0,8"/>
    <wangtile tileid="4121" wangid="0,8,0,8,0,0,0,8"/>
    <wangtile tileid="4122" wangid="0,0,0,0,0,0,0,8"/>
    <wangtile tileid="4123" wangid="0,8,0,0,0,0,0,0"/>
    <wangtile tileid="4125" wangid="0,11,0,0,0,11,0,11"/>
    <wangtile tileid="4126" wangid="0,11,0,0,0,0,0,11"/>
    <wangtile tileid="4127" wangid="0,11,0,11,0,0,0,11"/>
    <wangtile tileid="4128" wangid="0,0,0,0,0,0,0,11"/>
    <wangtile tileid="4129" wangid="0,11,0,0,0,0,0,0"/>
    <wangtile tileid="4131" wangid="0,12,0,0,0,12,0,12"/>
    <wangtile tileid="4132" wangid="0,12,0,0,0,0,0,12"/>
    <wangtile tileid="4133" wangid="0,12,0,12,0,0,0,12"/>
    <wangtile tileid="4134" wangid="0,0,0,0,0,0,0,12"/>
    <wangtile tileid="4135" wangid="0,12,0,0,0,0,0,0"/>
    <wangtile tileid="4137" wangid="0,14,0,0,0,14,0,14"/>
    <wangtile tileid="4138" wangid="0,14,0,0,0,0,0,14"/>
    <wangtile tileid="4139" wangid="0,14,0,14,0,0,0,14"/>
    <wangtile tileid="4140" wangid="0,0,0,0,0,0,0,14"/>
    <wangtile tileid="4141" wangid="0,14,0,0,0,0,0,0"/>
    <wangtile tileid="4201" wangid="0,0,0,0,0,5,0,5"/>
    <wangtile tileid="4203" wangid="0,5,0,5,0,0,0,0"/>
    <wangtile tileid="4204" wangid="0,0,0,0,0,5,0,0"/>
    <wangtile tileid="4205" wangid="0,0,0,5,0,0,0,0"/>
    <wangtile tileid="4207" wangid="0,0,0,0,0,6,0,6"/>
    <wangtile tileid="4209" wangid="0,6,0,6,0,0,0,0"/>
    <wangtile tileid="4210" wangid="0,0,0,0,0,6,0,0"/>
    <wangtile tileid="4211" wangid="0,0,0,6,0,0,0,0"/>
    <wangtile tileid="4213" wangid="0,0,0,0,0,7,0,7"/>
    <wangtile tileid="4215" wangid="0,7,0,7,0,0,0,0"/>
    <wangtile tileid="4216" wangid="0,0,0,0,0,7,0,0"/>
    <wangtile tileid="4217" wangid="0,0,0,7,0,0,0,0"/>
    <wangtile tileid="4219" wangid="0,0,0,0,0,8,0,8"/>
    <wangtile tileid="4221" wangid="0,8,0,8,0,0,0,0"/>
    <wangtile tileid="4222" wangid="0,0,0,0,0,8,0,0"/>
    <wangtile tileid="4223" wangid="0,0,0,8,0,0,0,0"/>
    <wangtile tileid="4225" wangid="0,0,0,0,0,11,0,11"/>
    <wangtile tileid="4227" wangid="0,11,0,11,0,0,0,0"/>
    <wangtile tileid="4228" wangid="0,0,0,0,0,11,0,0"/>
    <wangtile tileid="4229" wangid="0,0,0,11,0,0,0,0"/>
    <wangtile tileid="4231" wangid="0,0,0,0,0,12,0,12"/>
    <wangtile tileid="4233" wangid="0,12,0,12,0,0,0,0"/>
    <wangtile tileid="4234" wangid="0,0,0,0,0,12,0,0"/>
    <wangtile tileid="4235" wangid="0,0,0,12,0,0,0,0"/>
    <wangtile tileid="4237" wangid="0,0,0,0,0,14,0,14"/>
    <wangtile tileid="4239" wangid="0,14,0,14,0,0,0,0"/>
    <wangtile tileid="4240" wangid="0,0,0,0,0,14,0,0"/>
    <wangtile tileid="4241" wangid="0,0,0,14,0,0,0,0"/>
    <wangtile tileid="4301" wangid="0,0,0,5,0,5,0,5"/>
    <wangtile tileid="4302" wangid="0,0,0,5,0,5,0,0"/>
    <wangtile tileid="4303" wangid="0,5,0,5,0,5,0,0"/>
    <wangtile tileid="4304" wangid="0,0,0,5,0,0,0,5"/>
    <wangtile tileid="4305" wangid="0,5,0,0,0,5,0,0"/>
    <wangtile tileid="4307" wangid="0,0,0,6,0,6,0,6"/>
    <wangtile tileid="4308" wangid="0,0,0,6,0,6,0,0"/>
    <wangtile tileid="4309" wangid="0,6,0,6,0,6,0,0"/>
    <wangtile tileid="4310" wangid="0,0,0,6,0,0,0,6"/>
    <wangtile tileid="4311" wangid="0,6,0,0,0,6,0,0"/>
    <wangtile tileid="4313" wangid="0,0,0,7,0,7,0,7"/>
    <wangtile tileid="4314" wangid="0,0,0,7,0,7,0,0"/>
    <wangtile tileid="4315" wangid="0,7,0,7,0,7,0,0"/>
    <wangtile tileid="4316" wangid="0,0,0,7,0,0,0,7"/>
    <wangtile tileid="4317" wangid="0,7,0,0,0,7,0,0"/>
    <wangtile tileid="4319" wangid="0,0,0,8,0,8,0,8"/>
    <wangtile tileid="4320" wangid="0,0,0,8,0,8,0,0"/>
    <wangtile tileid="4321" wangid="0,8,0,8,0,8,0,0"/>
    <wangtile tileid="4322" wangid="0,0,0,8,0,0,0,8"/>
    <wangtile tileid="4323" wangid="0,8,0,0,0,8,0,0"/>
    <wangtile tileid="4325" wangid="0,0,0,11,0,11,0,11"/>
    <wangtile tileid="4326" wangid="0,0,0,11,0,11,0,0"/>
    <wangtile tileid="4327" wangid="0,11,0,11,0,11,0,0"/>
    <wangtile tileid="4328" wangid="0,0,0,11,0,0,0,11"/>
    <wangtile tileid="4329" wangid="0,11,0,0,0,11,0,0"/>
    <wangtile tileid="4331" wangid="0,0,0,12,0,12,0,12"/>
    <wangtile tileid="4332" wangid="0,0,0,12,0,12,0,0"/>
    <wangtile tileid="4333" wangid="0,12,0,12,0,12,0,0"/>
    <wangtile tileid="4334" wangid="0,0,0,12,0,0,0,12"/>
    <wangtile tileid="4335" wangid="0,12,0,0,0,12,0,0"/>
    <wangtile tileid="4337" wangid="0,0,0,14,0,14,0,14"/>
    <wangtile tileid="4338" wangid="0,0,0,14,0,14,0,0"/>
    <wangtile tileid="4339" wangid="0,14,0,14,0,14,0,0"/>
    <wangtile tileid="4340" wangid="0,0,0,14,0,0,0,14"/>
    <wangtile tileid="4341" wangid="0,14,0,0,0,14,0,0"/>
    <wangtile tileid="4501" wangid="0,16,0,0,0,16,0,16"/>
    <wangtile tileid="4502" wangid="0,16,0,0,0,0,0,16"/>
    <wangtile tileid="4503" wangid="0,16,0,16,0,0,0,16"/>
    <wangtile tileid="4505" wangid="0,0,0,0,0,0,0,16"/>
    <wangtile tileid="4506" wangid="0,16,0,0,0,0,0,0"/>
    <wangtile tileid="4517" wangid="0,17,0,0,0,17,0,17"/>
    <wangtile tileid="4518" wangid="0,17,0,0,0,0,0,17"/>
    <wangtile tileid="4519" wangid="0,17,0,17,0,0,0,17"/>
    <wangtile tileid="4520" wangid="0,0,0,0,0,0,0,17"/>
    <wangtile tileid="4521" wangid="0,17,0,0,0,0,0,0"/>
    <wangtile tileid="4523" wangid="0,17,0,17,0,17,0,17"/>
    <wangtile tileid="4524" wangid="0,17,0,17,0,17,0,17"/>
    <wangtile tileid="4538" wangid="0,18,0,0,0,18,0,18"/>
    <wangtile tileid="4539" wangid="0,18,0,0,0,0,0,18"/>
    <wangtile tileid="4540" wangid="0,18,0,18,0,0,0,18"/>
    <wangtile tileid="4541" wangid="0,0,0,0,0,0,0,18"/>
    <wangtile tileid="4542" wangid="0,18,0,0,0,0,0,0"/>
    <wangtile tileid="4601" wangid="0,0,0,0,0,16,0,16"/>
    <wangtile tileid="4603" wangid="0,16,0,16,0,0,0,0"/>
    <wangtile tileid="4605" wangid="0,0,0,0,0,16,0,0"/>
    <wangtile tileid="4606" wangid="0,0,0,16,0,0,0,0"/>
    <wangtile tileid="4617" wangid="0,0,0,0,0,17,0,17"/>
    <wangtile tileid="4619" wangid="0,17,0,17,0,0,0,0"/>
    <wangtile tileid="4620" wangid="0,0,0,0,0,17,0,17"/>
    <wangtile tileid="4621" wangid="0,17,0,17,0,0,0,0"/>
    <wangtile tileid="4623" wangid="0,17,0,17,0,17,0,17"/>
    <wangtile tileid="4624" wangid="0,17,0,17,0,17,0,17"/>
    <wangtile tileid="4638" wangid="0,0,0,0,0,18,0,18"/>
    <wangtile tileid="4640" wangid="0,18,0,18,0,0,0,0"/>
    <wangtile tileid="4641" wangid="0,0,0,0,0,18,0,0"/>
    <wangtile tileid="4642" wangid="0,0,0,18,0,0,0,0"/>
    <wangtile tileid="4701" wangid="0,0,0,16,0,16,0,16"/>
    <wangtile tileid="4702" wangid="0,0,0,16,0,16,0,0"/>
    <wangtile tileid="4703" wangid="0,16,0,16,0,16,0,0"/>
    <wangtile tileid="4705" wangid="0,0,0,16,0,0,0,16"/>
    <wangtile tileid="4706" wangid="0,16,0,0,0,16,0,0"/>
    <wangtile tileid="4717" wangid="0,0,0,17,0,17,0,17"/>
    <wangtile tileid="4718" wangid="0,0,0,17,0,17,0,0"/>
    <wangtile tileid="4719" wangid="0,17,0,17,0,17,0,0"/>
    <wangtile tileid="4720" wangid="0,0,0,17,0,0,0,17"/>
    <wangtile tileid="4721" wangid="0,0,0,0,0,17,0,0"/>
    <wangtile tileid="4723" wangid="0,17,0,17,0,17,0,17"/>
    <wangtile tileid="4724" wangid="0,17,0,17,0,17,0,17"/>
    <wangtile tileid="4738" wangid="0,0,0,18,0,18,0,18"/>
    <wangtile tileid="4739" wangid="0,0,0,18,0,18,0,0"/>
    <wangtile tileid="4740" wangid="0,18,0,18,0,18,0,0"/>
    <wangtile tileid="4741" wangid="0,0,0,18,0,0,0,18"/>
    <wangtile tileid="4742" wangid="0,18,0,0,0,18,0,0"/>
    <wangtile tileid="4901" wangid="0,18,0,18,0,18,0,18"/>
    <wangtile tileid="4903" wangid="0,11,0,11,0,11,0,11"/>
    <wangtile tileid="4905" wangid="0,12,0,12,0,12,0,12"/>
    <wangtile tileid="4907" wangid="0,1,0,1,0,1,0,1"/>
    <wangtile tileid="4909" wangid="0,1,0,1,0,1,0,1"/>
    <wangtile tileid="4911" wangid="0,15,0,15,0,15,0,15"/>
    <wangtile tileid="4913" wangid="0,2,0,2,0,2,0,2"/>
    <wangtile tileid="4915" wangid="0,7,0,7,0,7,0,7"/>
   </wangset>
  </wangsets>
 </tileset>
 <imagelayer id="7" name="Ground" repeatx="1" repeaty="1">
  <image source="../Assets/Light_Grass_BG.png" width="16" height="16"/>
 </imagelayer>
 <layer id="6" name="Ground 3 - under P" width="45" height="30">
  <data encoding="csv">
0,0,0,0,0,0,0,0,0,0,0,0,0,0,0,0,0,0,4620,4724,4725,4724,4724,4625,4524,4722,0,0,0,0,0,0,0,0,0,0,0,0,0,0,0,0,0,0,0,
0,0,0,0,0,0,0,0,0,0,0,0,0,0,0,0,4722,0,4524,4724,4725,4725,4724,4725,4725,4722,0,0,0,0,0,0,0,0,0,0,0,0,0,0,0,0,0,0,0,
0,0,0,0,0,0,0,0,0,0,0,0,0,0,0,0,4721,4722,4518,4519,4519,4519,4520,4622,4618,0,0,0,0,0,0,0,0,0,0,0,0,0,0,0,0,0,0,0,0,
0,0,0,0,0,0,0,0,0,0,0,0,0,0,0,0,4620,4718,4719,4719,4719,4722,4519,0,4621,0,0,0,0,0,4620,4718,4518,4721,4722,0,0,0,0,0,0,0,0,0,0,
0,0,0,0,0,0,0,0,0,0,0,0,0,0,0,0,4622,4524,4625,4525,4625,4718,4719,4720,4718,4719,4722,4521,4521,4521,4620,4518,4521,4522,4721,4722,0,0,0,0,0,0,0,0,0,
0,0,0,0,0,0,0,0,0,0,0,0,0,0,4719,4719,4720,4525,4624,4525,4624,4724,4724,4524,4625,4524,4718,4719,4719,4722,4522,4721,4719,4722,4620,4718,4722,0,0,0,0,0,0,0,0,
0,0,0,0,0,0,0,0,0,0,0,0,0,4521,4520,4518,4520,4724,4525,4524,4524,4524,4625,4525,4725,4625,4524,4525,4525,4718,4719,4720,4525,4718,4720,4624,4718,4722,0,0,0,0,0,0,0,
0,0,0,0,0,0,0,0,0,0,0,0,4620,4618,4620,4718,4720,4524,4525,4625,4518,4520,4518,4519,4519,4520,4624,4725,4725,4725,4524,4725,4625,4518,4519,4520,4624,4718,4719,4719,4722,0,0,0,0,
0,0,0,0,0,0,0,0,0,0,0,4521,4620,4718,4720,4625,4724,4724,4724,4725,4718,4720,4718,4719,4719,4720,4518,4519,4725,4518,4519,4520,4625,4718,4719,4720,4624,4624,4725,4518,4721,4722,0,0,0,
0,0,0,0,0,0,0,0,0,0,0,4521,4620,4624,4725,4624,4518,4519,4519,4519,4725,4520,4624,4625,4518,4520,4718,4719,4518,4721,4719,4720,4518,4519,4519,4519,4519,4520,4524,4718,4720,4618,0,0,0,
0,0,0,0,0,0,0,0,0,0,4719,4719,4720,4525,4518,4520,4718,4719,4719,4719,4719,4720,4525,4525,4718,4720,4725,4724,4718,4720,4524,4518,4521,4619,4619,4619,4619,4620,4724,4524,4625,4618,4521,0,0,
0,0,0,0,0,0,0,0,0,0,4519,4520,4524,4724,4621,4622,4625,4518,4520,4725,4518,4520,4518,4520,4834,4834,4520,4725,4524,4624,4718,4722,4619,4619,4619,4619,4619,4522,4520,4724,4625,4621,4521,0,0,
0,0,0,0,0,0,0,0,0,0,0,4522,4520,4525,4718,4720,4725,4718,4720,4525,4621,4622,4916,4916,4916,4916,4522,4520,4624,4724,4518,4521,4619,4619,4619,4619,4619,4619,4522,4520,4625,4618,0,0,0,
0,0,0,0,0,0,0,0,0,0,0,0,4620,4524,4524,4525,4518,4520,4525,4525,4718,4720,4718,4916,4916,4916,4722,4622,4724,4725,4718,4722,4619,4619,4619,4619,4619,4619,4619,4622,4525,4618,0,0,0,
0,0,0,0,0,0,0,0,0,0,0,0,4622,4525,4625,4625,4621,4620,4724,4518,4519,4520,4518,4834,4834,4520,4718,4720,4624,4525,4525,4621,4619,4619,4619,4619,4619,4622,4719,4720,4624,4621,0,0,0,
0,0,0,0,0,0,0,0,0,0,0,0,4620,4524,4625,4625,4618,4620,4518,4721,4719,4720,4718,4720,4618,4622,4518,4520,4518,4520,4518,4521,4619,4619,4619,4619,4619,4522,4520,4624,4624,4618,0,0,0,
0,0,0,0,0,0,0,0,0,0,0,4521,4522,4520,4625,4724,4718,4720,4621,4522,4519,4520,4625,4625,4618,4620,4621,4522,4721,4720,4718,4722,4619,4619,4619,4619,4619,4619,4620,4725,4724,4618,4521,0,0,
0,0,0,0,0,0,0,0,0,0,0,4721,4722,4522,4520,4624,4725,4624,4618,4622,4718,4720,4524,4725,4718,4720,4718,4719,4720,4725,4624,4618,4619,4619,4619,4619,4619,4619,4620,4625,4525,4618,4521,0,0,
0,0,0,0,0,0,0,0,0,0,0,4522,4721,4722,4620,4524,4725,4725,4718,4720,4525,4624,4518,4520,4724,4518,4520,4518,4520,4725,4525,4621,4620,4719,4722,4619,4619,4619,4622,4524,4624,4618,0,0,0,
0,0,0,0,0,0,0,0,0,0,0,0,4522,4721,4720,4625,4524,4625,4625,4625,4624,4724,4718,4720,4518,4721,4720,4718,4720,4524,4524,4718,4720,4625,4718,4719,4722,4619,4620,4724,4518,4521,0,0,0,
0,0,0,0,0,0,0,0,0,0,0,0,0,4522,4520,4524,4518,4519,4519,4520,4524,4724,4724,4525,4718,4720,4625,4724,4518,4520,4625,4524,4724,4524,4525,4525,4718,4719,4720,4518,4521,4521,0,0,0,
0,0,0,0,0,0,0,0,0,0,0,0,0,0,4522,4520,4718,4719,4722,4522,4519,4519,4519,4520,4525,4518,4519,4519,4521,4620,4524,4725,4725,4525,4624,4624,4625,4724,4518,4521,4521,0,0,0,0,
0,0,0,0,0,0,0,0,0,0,0,0,0,0,0,4522,4519,4520,4718,4719,4719,4719,4719,4720,4625,4718,4719,4719,4719,4720,4724,4624,4624,4625,4724,4524,4518,4519,4521,4521,0,0,0,0,0,
0,0,0,0,0,0,0,0,0,0,0,0,0,0,0,0,0,4522,4519,4519,4519,4519,4519,4519,4519,4519,4519,4519,4519,4519,4519,4519,4519,4519,4519,4519,4521,4521,0,0,0,0,0,0,0,
0,0,0,0,0,0,0,0,0,0,0,0,0,0,0,0,0,0,0,0,0,0,0,0,0,0,0,0,0,0,4521,4521,4521,4521,4521,4521,0,0,0,0,0,0,0,0,0,
0,0,0,0,0,0,0,0,0,0,0,0,0,0,0,0,0,0,0,0,0,0,0,0,0,0,0,0,0,0,0,0,0,0,0,0,0,0,0,0,0,0,0,0,0,
0,0,0,0,0,0,0,0,0,0,0,0,0,0,0,0,0,0,0,0,0,0,0,0,0,0,0,0,0,0,0,0,0,0,0,0,0,0,0,0,0,0,0,0,0,
0,0,0,0,0,0,0,0,0,0,0,0,0,0,0,0,0,0,0,0,0,0,0,0,0,0,0,0,0,0,0,0,0,0,0,0,0,0,0,0,0,0,0,0,0,
0,0,0,0,0,0,0,0,0,0,0,0,0,0,0,0,0,0,0,0,0,0,0,0,0,0,0,0,0,0,0,0,0,0,0,0,0,0,0,0,0,0,0,0,0,
0,0,0,0,0,0,0,0,0,0,0,0,0,0,0,0,0,0,0,0,0,0,0,0,0,0,0,0,0,0,0,0,0,0,0,0,0,0,0,0,0,0,0,0,0
</data>
 </layer>
 <layer id="5" name="Ground 2 - under P" width="45" height="30">
  <data encoding="csv">
0,0,0,0,0,0,0,0,0,0,0,0,0,0,0,0,0,0,0,0,0,0,0,0,0,0,0,0,0,0,4916,4916,4916,4916,4916,4916,4916,4916,4834,4916,4916,4916,4834,4916,4834,
0,0,0,0,0,0,0,0,0,0,0,0,0,0,0,0,4916,0,0,0,0,0,0,0,0,0,0,0,0,0,4834,4916,4834,4834,4834,4834,4834,4916,4916,4834,4834,4916,4916,4834,4916,
0,0,0,0,0,0,0,0,0,0,0,0,0,0,0,0,4916,4916,0,0,0,0,0,0,4916,4916,4916,4916,4916,4916,4834,4834,4916,4834,4916,4834,4834,4834,4916,4834,4916,4834,4916,4834,4916,
0,0,0,0,0,0,0,0,0,0,0,0,0,4916,4916,4916,4916,4916,0,0,0,0,0,4916,4916,4916,4916,4916,4916,4916,4916,4916,4916,4834,4834,4916,4834,4834,4916,4834,4834,4916,4834,4834,4916,
0,1233,1234,1235,0,0,0,0,0,0,0,0,4916,4916,4916,4916,4502,4503,0,0,0,0,0,4503,4503,4503,4503,4504,4502,4504,4916,4834,4834,4916,4834,4916,4834,4834,4834,4916,4834,4916,4834,4834,4916,
0,0,1334,1335,0,0,0,0,0,0,0,4916,4916,4916,4502,4503,4506,0,0,0,0,0,0,0,0,0,0,4507,4506,4507,4503,4503,4503,4503,4503,4503,4504,4916,4834,4834,4916,4834,4916,4834,4916,
0,0,0,0,0,0,0,0,0,0,4916,4916,4916,4502,4506,0,0,0,0,0,0,0,0,0,4722,0,0,0,0,0,0,0,0,0,0,0,4507,4504,4916,4834,4834,4916,4834,4834,4916,
0,0,0,0,0,0,0,0,0,4916,4916,4916,4502,4506,0,0,0,0,0,0,0,0,0,0,0,0,0,0,0,0,0,0,0,0,0,0,0,4507,4504,4916,4916,4834,4916,4834,4834,
0,0,0,0,0,0,0,0,0,4916,4916,4502,4506,0,0,0,0,0,0,0,0,0,0,0,0,0,0,0,0,0,0,0,0,0,0,0,0,0,4507,4503,4503,4504,4834,4916,4834,
0,0,0,0,0,0,0,0,0,4916,4916,4602,0,0,0,0,0,0,0,0,4607,4606,4607,4703,4703,4703,4606,0,0,0,0,0,0,0,0,0,0,0,0,0,0,4604,4916,4916,4834,
0,0,0,0,0,0,0,0,0,4916,4502,4506,0,0,0,0,0,0,0,0,4507,4706,4704,4834,4834,4834,4702,4703,4606,0,0,0,0,0,0,0,0,0,0,0,0,4507,4504,4834,4916,
0,0,0,0,0,0,0,0,0,4916,4702,4606,0,0,0,0,0,0,0,0,4607,4704,4834,4834,0,4834,4834,4834,4602,0,0,0,0,0,0,0,0,0,0,0,0,4607,4704,4834,4834,
0,0,0,0,0,0,0,0,0,4916,4916,4702,4606,0,0,0,0,0,0,0,4604,4834,4916,4916,4916,4916,4834,4834,4602,0,0,0,0,0,0,0,0,0,0,0,0,4604,4834,4834,4834,
0,0,0,0,0,0,0,0,0,4916,4916,4916,4602,0,0,0,0,0,0,0,4604,4834,4834,4916,4916,4916,4834,4834,4602,0,0,0,0,0,0,0,0,0,0,0,0,4604,4834,4834,4834,
0,0,0,0,0,0,0,0,0,4916,4916,4916,4602,0,0,0,0,0,0,0,4507,4504,4834,4834,4834,4834,4834,4834,4602,0,0,0,0,0,0,0,0,0,0,0,4607,4704,4834,4916,4834,
0,0,0,0,0,0,0,0,0,4916,4916,4916,4602,0,0,0,0,0,0,0,4607,4707,4503,4504,4834,4834,4502,4503,4506,0,0,0,0,0,0,0,0,0,0,0,4507,4504,4916,4834,4834,
0,0,0,0,0,0,0,0,0,4916,4916,4502,4506,0,0,0,0,0,0,0,4507,4506,0,4507,4503,4503,4506,0,0,0,0,0,0,0,0,0,0,0,0,0,0,4507,4504,4834,4834,
0,0,0,0,0,0,0,0,0,4916,4916,4602,0,0,0,0,0,0,0,0,0,0,0,0,0,0,0,0,0,0,0,0,0,0,0,0,0,0,0,0,0,4607,4704,4834,4834,
0,0,0,0,0,0,0,0,0,4916,4916,4702,4606,0,0,0,0,0,0,0,0,0,0,0,0,0,0,0,0,0,0,0,0,0,0,0,0,0,0,0,0,4604,4834,4834,4834,
0,0,0,0,0,0,0,0,0,4916,4916,4916,4602,0,0,0,0,0,0,0,0,0,0,0,0,0,0,0,0,0,0,0,0,0,0,0,0,0,0,0,0,4604,4916,4834,4834,
0,0,0,0,0,0,0,0,0,0,4916,4916,4702,4606,0,0,0,0,0,0,0,0,0,0,0,0,0,0,0,0,0,0,0,0,0,0,0,0,0,0,4607,4704,4916,4834,4916,
0,0,0,0,0,0,0,0,0,0,0,4916,4916,4702,4703,4606,0,0,0,0,0,0,0,0,0,0,0,0,0,0,0,0,0,0,0,0,0,0,0,4607,4704,4834,4834,4834,4916,
0,0,0,0,0,0,0,0,0,0,0,0,4916,4916,4916,4702,4703,4606,4607,4606,0,0,4607,4606,0,0,0,0,0,0,0,0,0,0,0,0,0,4607,4703,4704,4916,4916,4916,4916,4916,
0,0,0,0,0,0,0,0,0,0,0,0,0,4916,4916,4916,4916,4702,4704,4702,4703,4703,4704,4702,4703,4703,4703,4703,4703,4606,0,0,0,0,0,4607,4703,4704,4916,4916,4916,3809,0,0,4916,
0,0,0,0,0,0,0,0,0,0,0,0,0,0,4916,4916,4916,4916,4916,4916,4916,4916,4916,4916,4916,4916,4916,4916,4916,4702,4703,4703,4703,4703,4703,4704,4916,4916,4916,4916,0,0,0,0,0,
0,0,0,0,0,0,0,0,0,0,0,0,0,0,0,4916,4916,4916,4916,4916,4916,4916,4916,4916,4916,4916,4916,4916,4916,4916,4916,4916,4916,4916,4916,4916,4916,4916,3809,0,0,0,0,0,0,
0,0,0,0,0,0,0,0,0,0,0,0,0,0,0,0,0,0,0,0,0,0,0,0,0,0,0,0,4916,4916,4916,4916,4916,4916,4916,4916,4916,0,0,0,0,0,0,0,0,
0,0,0,0,0,0,0,0,0,0,0,0,0,0,0,0,0,0,0,0,0,0,0,0,0,0,0,0,0,0,0,0,0,0,0,0,0,0,0,0,0,0,0,0,0,
0,0,0,0,0,0,0,0,0,0,0,0,0,0,0,0,0,0,0,0,0,0,0,0,0,0,0,0,0,0,0,0,0,0,0,0,0,0,0,0,0,0,0,0,0,
0,0,0,0,0,0,0,0,0,0,0,0,0,0,0,0,0,0,0,0,0,0,0,0,0,0,0,0,0,0,0,0,0,0,0,0,0,0,0,0,0,0,0,0,0
</data>
 </layer>
 <layer id="1" name="Ground 1 - under P" width="45" height="30">
  <data encoding="csv">
5512,5513,5511,5512,5513,5511,5705,5706,5606,5606,5606,5606,5606,5606,5606,5606,5606,5606,5606,5208,0,0,0,0,0,5210,5606,5606,5606,5608,5609,0,0,0,0,0,0,0,0,0,0,0,0,0,0,
5612,5613,5611,5612,5613,5611,5805,5806,5705,5706,5706,5706,5706,5706,5706,5606,5606,6507,5109,5111,0,0,1073746936,1073748730,1073746933,3221230580,5706,5706,5707,5708,5709,0,0,0,0,0,0,0,0,0,0,0,0,0,0,
5712,5713,5711,5712,5713,5711,5905,5906,5805,5806,5806,5806,5806,5806,5806,6606,6606,5708,6509,0,0,0,5112,5906,7013,7114,7014,7015,5708,2684362676,0,0,0,0,0,0,0,0,0,0,0,0,0,0,0,
5812,5813,5811,5812,5813,5811,6005,6006,5905,5906,5906,5906,5906,5906,5906,6706,6706,5808,6609,0,0,0,0,6106,5103,5103,5103,5103,8815,0,0,0,0,0,0,0,0,0,0,0,0,0,0,0,0,
0,0,0,0,0,0,6105,6106,6005,6006,6006,6006,6006,6006,6006,6806,6806,5908,6709,0,0,0,0,0,0,0,0,0,0,0,0,0,0,0,0,0,0,0,0,0,0,0,0,0,0,
5415,5415,6207,0,0,0,0,0,6105,6106,6106,6106,6106,6106,6106,6906,6906,6808,0,0,0,0,0,0,0,0,0,0,0,0,0,0,0,0,0,0,0,0,0,0,0,0,0,0,0,
0,0,6307,7002,7003,7004,7005,0,0,7006,3708,3711,0,0,0,0,0,0,0,0,0,0,0,0,0,0,0,0,0,0,0,0,0,0,0,0,0,0,0,0,0,0,0,0,0,
0,0,0,7102,7103,7104,7105,0,3708,3709,3711,0,0,0,0,0,0,0,0,0,0,0,0,0,0,0,0,0,0,0,0,0,0,0,0,0,0,0,0,0,0,0,0,0,0,
0,0,6507,7202,7203,7204,7205,0,3808,3809,0,0,0,0,0,0,0,0,0,0,0,0,0,0,0,0,0,0,0,0,0,0,0,0,0,0,0,0,0,0,0,0,0,0,0,
0,0,5608,7302,7303,7304,7305,0,3808,3809,0,0,0,0,0,0,0,0,0,0,0,0,382,383,384,385,386,0,0,0,0,0,0,0,0,0,0,0,0,0,0,0,0,0,0,
0,0,5608,7402,7403,7404,7405,0,3808,3809,0,0,0,0,0,0,0,0,0,0,0,0,482,483,484,485,486,0,0,0,0,0,0,0,0,0,0,0,0,0,0,0,0,0,0,
0,0,5608,5609,0,0,0,3708,3711,3809,2861,2862,2863,2864,2865,2867,2868,2869,2870,2872,2873,2874,582,583,584,585,586,0,0,0,0,0,0,0,0,0,0,0,0,0,0,0,0,0,0,
0,0,5608,5609,0,0,3708,3711,3809,3809,2961,2962,2963,2964,2965,2967,2968,2969,2970,2972,2973,2974,2975,0,0,0,0,0,0,0,0,0,0,0,0,0,0,0,0,0,0,0,0,0,0,
0,0,5608,5609,0,0,3808,3809,3809,3809,3161,3162,3163,3064,3065,3067,3068,3069,3070,3172,3173,3174,3175,0,0,0,0,0,0,0,0,0,0,0,0,0,0,0,0,0,0,0,0,0,0,
0,0,5608,5609,0,0,3808,3809,3809,3809,3261,3262,3263,3264,3265,3267,3268,3269,3270,3272,3273,3274,3275,0,0,0,0,0,0,0,0,0,0,0,0,0,0,0,0,0,0,0,0,0,0,
5606,5607,5608,5609,0,0,3808,3809,3809,3809,3361,3362,3363,3364,3365,3367,3368,3369,3370,3372,3373,3374,3375,0,0,0,0,0,0,0,0,0,0,0,0,0,0,0,0,0,0,0,0,0,0,
5706,5707,5708,5709,0,0,3908,3811,3809,3809,3809,0,0,0,0,0,0,0,0,0,0,0,0,0,0,0,0,0,0,0,0,0,0,0,0,0,0,0,0,0,0,0,0,0,0,
5806,5807,5808,5809,0,0,0,3908,3811,3809,3809,0,0,0,0,0,0,0,0,0,0,0,0,0,0,0,0,0,0,0,0,0,0,0,0,0,0,0,0,0,0,0,0,0,0,
5906,5907,5908,5909,0,0,0,0,3908,3811,3809,0,0,0,0,0,0,0,0,0,0,0,0,0,0,0,0,0,0,0,0,0,0,0,0,0,0,0,0,0,0,0,0,0,0,
6006,6007,6008,6009,0,0,0,0,0,3808,3809,0,0,0,0,0,0,0,0,0,0,0,0,0,0,0,0,0,0,0,0,0,0,0,0,0,0,0,0,0,0,0,0,0,0,
6106,6107,6108,6109,0,0,0,0,0,3908,4211,0,0,0,0,0,0,0,0,0,0,0,0,0,0,0,0,0,0,0,0,0,0,0,0,0,0,0,0,0,0,0,0,0,0,
0,0,0,0,0,0,0,0,0,0,4308,4211,0,0,0,0,0,0,0,0,0,0,0,0,0,0,0,0,0,0,0,0,0,0,0,0,0,0,0,0,0,0,0,0,0,
0,0,0,0,0,0,0,0,0,0,0,4308,4309,4211,0,0,0,0,0,0,0,0,0,0,0,0,0,0,0,0,0,0,0,0,0,0,0,0,0,0,0,0,4212,4211,0,
0,0,0,0,0,0,0,0,0,0,0,0,0,4308,4211,0,0,0,0,0,0,0,0,0,0,0,0,0,0,0,0,0,0,0,0,0,0,0,0,0,4212,4309,4310,4308,4309,
0,0,0,0,0,0,0,0,0,0,0,0,0,0,4308,4211,0,0,0,0,0,0,0,0,0,0,0,0,0,0,0,0,0,0,0,0,0,0,0,4212,4310,0,0,0,0,
0,0,0,0,0,0,0,0,0,0,0,0,0,0,0,4308,4211,4212,4309,4309,4309,4211,4212,4309,4309,4211,4212,4211,0,0,0,0,0,0,0,0,0,4212,4309,4310,0,0,0,0,0,
0,0,0,0,0,0,0,0,0,0,0,0,0,0,0,0,4308,4310,0,0,0,4308,4310,0,0,4308,4310,4308,4309,4309,4309,4309,4309,4211,4212,4309,4309,4310,0,0,0,0,0,0,0,
0,0,0,0,0,0,0,0,0,0,0,0,0,0,0,0,0,0,0,0,0,0,0,0,0,0,0,0,0,0,0,0,0,4308,4310,0,0,0,0,0,0,0,0,0,0,
0,0,0,0,0,0,0,0,0,0,0,0,0,0,0,0,0,0,0,0,0,0,0,0,0,0,0,0,0,0,0,0,0,0,0,0,0,0,0,0,0,0,0,0,0,
0,0,0,0,0,0,0,0,0,0,0,0,0,0,0,0,0,0,0,0,0,0,0,0,0,0,0,0,0,0,0,0,0,0,0,0,0,0,0,0,0,0,0,0,0
</data>
 </layer>
 <layer id="8" name="Objects" width="45" height="30">
  <data encoding="csv">
0,0,0,0,0,0,0,0,0,0,0,0,0,0,0,0,0,0,0,0,0,0,0,0,0,0,2055,2056,0,0,0,0,0,0,0,0,0,0,0,0,0,0,0,0,0,
0,0,0,0,0,0,0,0,0,0,0,0,0,0,0,0,0,0,0,0,0,0,0,0,0,0,2155,2156,0,0,0,0,0,0,0,0,0,0,0,0,0,0,0,0,0,
0,0,0,0,0,0,0,0,0,0,0,0,0,0,0,0,0,0,0,0,0,0,0,0,0,0,2255,2256,0,0,0,0,0,0,0,0,0,0,0,0,0,0,0,0,0,
0,0,0,0,0,0,0,0,0,0,0,0,0,0,0,0,0,0,0,0,0,0,0,0,0,0,0,0,0,0,0,0,0,0,0,0,0,0,0,0,0,0,0,0,0,
0,0,0,0,0,0,0,0,0,0,0,0,0,0,0,0,0,0,0,0,0,0,0,0,0,0,0,0,0,0,0,0,0,0,0,0,0,0,0,0,0,0,0,0,0,
930,931,932,0,0,0,0,0,0,0,0,0,0,0,0,0,0,0,0,0,0,0,0,0,0,0,0,0,0,0,0,0,0,0,0,0,0,0,0,0,0,0,0,0,0,
1030,1031,1032,0,0,0,0,0,0,0,0,0,0,0,0,0,0,0,0,0,0,0,0,0,0,0,0,0,0,0,0,0,0,0,0,0,0,0,0,0,0,0,0,0,0,
0,0,0,0,0,0,0,0,0,0,0,0,0,0,0,0,0,0,0,0,0,0,0,0,0,0,0,0,0,0,0,0,0,0,0,0,0,0,0,0,0,0,0,0,0,
0,0,0,0,0,0,0,0,0,0,0,0,0,0,0,0,0,0,0,0,0,0,0,0,0,0,0,0,0,0,0,0,0,0,0,0,0,0,0,0,0,0,0,0,0,
0,0,0,0,0,0,0,0,0,0,0,0,0,0,0,0,0,0,0,0,0,0,0,0,0,0,0,0,0,0,0,0,0,0,0,0,0,0,0,0,0,0,0,0,0,
0,0,0,0,0,0,0,0,0,0,0,0,0,0,0,0,0,0,0,0,0,0,0,0,0,0,0,0,0,0,0,0,0,0,0,0,0,0,0,0,0,0,0,0,0,
0,0,0,0,0,0,0,0,0,0,0,0,0,0,0,0,0,0,0,0,0,0,0,0,0,0,0,0,0,0,0,0,0,0,0,0,0,0,0,0,0,0,0,0,0,
0,0,0,0,0,0,0,0,0,0,0,0,0,0,0,0,0,0,0,0,0,0,0,0,0,0,0,0,0,0,0,0,0,0,0,0,0,0,0,0,0,0,0,0,0,
0,0,0,0,0,0,0,0,0,0,0,0,0,0,0,0,0,0,0,0,0,0,0,0,0,0,0,0,0,0,0,0,0,0,0,0,0,0,0,0,0,0,0,0,0,
0,0,0,0,0,0,0,0,0,0,0,0,0,0,0,0,0,0,0,0,0,0,0,0,0,0,0,0,0,0,0,0,0,0,0,0,0,0,0,0,0,0,0,0,0,
0,0,0,0,0,0,0,0,0,0,0,0,0,0,0,0,0,0,0,0,0,0,0,0,0,0,0,0,0,0,0,0,0,0,0,0,0,0,0,0,0,0,0,0,0,
0,0,0,0,0,0,0,0,0,0,0,0,0,0,0,0,0,0,0,0,0,0,0,0,0,0,0,0,0,0,0,0,0,0,0,0,0,0,0,0,0,0,0,0,0,
0,0,0,0,0,0,0,0,0,0,0,0,0,0,0,0,0,0,0,0,0,0,0,0,0,0,0,0,0,0,0,0,0,0,0,0,0,0,0,0,0,0,0,0,0,
0,0,0,0,0,0,0,0,0,0,0,0,0,0,0,0,0,0,0,0,0,0,0,0,0,0,0,0,0,0,0,0,0,0,0,0,0,0,0,0,0,0,0,0,0,
0,0,0,0,0,0,0,0,0,0,0,0,0,0,0,0,0,0,0,0,0,0,0,0,0,0,0,0,0,0,0,0,0,0,0,0,0,0,0,0,0,0,0,0,0,
0,0,0,0,0,0,0,0,0,0,0,0,0,0,0,0,0,0,0,0,0,0,0,0,0,0,0,0,0,0,0,0,0,0,0,0,0,0,0,0,0,0,0,0,0,
0,0,0,0,0,0,0,0,0,0,0,0,0,0,0,0,0,0,0,0,0,0,0,0,0,0,0,0,0,0,0,0,0,0,0,0,0,0,0,0,0,0,0,0,0,
0,0,0,0,0,0,0,0,0,0,0,0,0,0,0,0,0,0,0,0,0,0,0,0,0,0,0,0,0,0,0,0,0,0,0,0,0,0,0,0,0,0,0,0,0,
0,0,0,0,0,0,0,0,0,0,0,0,0,0,0,0,0,0,0,0,0,0,0,0,0,0,0,0,0,0,0,0,0,0,0,0,0,0,0,0,0,0,0,0,0,
0,0,0,0,0,0,0,0,0,0,0,0,0,0,0,0,0,0,0,0,0,0,0,0,0,0,0,0,0,0,0,0,0,0,0,0,0,0,0,0,0,0,0,0,0,
0,0,0,0,0,0,0,0,0,0,0,0,0,0,0,0,0,0,0,0,0,0,0,0,2348,2349,0,0,0,0,0,0,0,0,0,0,0,0,0,0,0,0,0,0,0,
0,0,0,0,0,0,0,0,0,0,0,0,0,0,0,0,0,0,0,0,0,0,0,0,2448,2449,0,0,0,0,0,0,0,0,0,0,0,0,0,0,0,0,0,0,0,
0,0,0,0,0,0,0,0,0,0,0,0,0,0,0,0,0,0,0,0,0,0,0,0,2548,2549,0,0,0,0,0,0,0,0,0,0,0,0,0,0,0,0,0,0,0,
0,0,0,0,0,0,0,0,0,0,0,0,0,0,0,0,0,0,0,0,0,0,0,0,0,0,0,0,0,0,0,0,0,0,0,0,0,0,0,0,0,0,0,0,0,
0,0,0,0,0,0,0,0,0,0,0,0,0,0,0,0,0,0,0,0,0,0,0,0,0,0,0,0,0,0,0,0,0,0,0,0,0,0,0,0,0,0,0,0,0
</data>
 </layer>
 <layer id="4" name="Decor 1 - P level" width="45" height="30">
  <data encoding="csv">
0,0,0,0,0,0,0,0,0,0,0,0,0,0,0,0,0,0,0,0,0,0,0,0,0,0,0,0,0,0,0,0,0,0,0,0,0,0,0,0,0,0,0,1213,1214,
0,0,0,0,0,0,0,0,0,0,0,0,0,0,0,0,0,0,0,0,0,0,0,0,0,0,0,0,0,0,0,1318,1318,0,0,0,0,0,1015,1016,1017,0,0,1313,1314,
0,1624,1625,0,0,0,0,0,0,0,1624,1625,0,0,0,0,0,0,0,0,0,0,0,0,0,0,0,2684362670,0,5609,1318,0,0,0,1318,0,0,0,1115,1116,1117,0,0,1413,1414,
0,1724,1725,0,0,0,0,0,0,0,1724,1725,0,0,0,0,0,0,0,0,3221227586,3221227585,0,0,0,0,0,0,0,1319,0,1203,1204,1205,1206,0,0,0,1215,1216,1217,0,0,0,0,
941,0,0,0,0,0,0,0,0,0,0,0,0,0,0,0,0,0,0,0,3221227486,3221227485,0,1419,0,1319,0,1319,0,0,0,1303,1304,1305,1306,1319,0,0,0,0,0,0,0,0,0,
0,0,0,0,710,711,712,0,0,0,0,0,0,0,0,0,0,0,0,0,0,0,0,0,0,0,0,0,0,0,0,1403,1404,1405,1406,0,0,0,1419,0,0,0,0,0,0,
0,0,0,0,810,811,812,0,1240,0,0,0,4916,0,0,0,2013,2014,0,0,0,0,0,0,0,0,0,713,714,0,2147485862,2147485861,0,0,0,0,0,0,0,0,0,0,1307,1308,1309,
0,0,0,0,0,0,0,0,0,0,0,4916,0,0,0,0,2113,2114,0,0,0,0,0,0,0,0,0,813,814,0,2147485962,2147485961,0,0,0,0,713,714,0,0,0,0,1407,1408,1409,
0,0,0,0,0,0,0,0,0,0,4916,0,0,0,0,914,915,0,0,0,0,0,0,0,0,0,0,0,0,0,0,0,0,0,0,0,813,814,0,0,0,0,0,0,0,
0,0,0,0,0,0,0,0,0,0,4916,0,0,0,0,914,915,0,0,0,0,693,694,6045,0,0,693,694,0,0,0,0,0,0,0,0,0,0,0,1510,1511,0,0,0,0,
0,0,0,0,0,0,0,0,0,0,0,0,0,0,0,0,0,0,0,0,0,793,794,6045,6045,6045,793,794,0,0,0,0,0,0,0,0,0,0,0,1610,1611,0,0,0,0,
0,0,0,0,0,1141,0,0,0,0,0,0,0,0,0,0,0,0,0,0,0,893,894,6145,6145,6145,893,894,0,0,0,0,0,0,0,0,0,0,0,0,0,0,0,0,0,
0,0,0,0,0,0,0,0,0,0,0,0,0,0,0,0,713,714,0,0,0,0,0,0,0,0,0,0,0,0,0,0,0,0,0,0,0,0,0,0,0,0,0,0,0,
0,0,0,0,0,0,0,0,0,0,0,4916,0,0,0,0,813,814,0,0,0,0,0,0,0,0,1719,1720,0,0,0,0,0,0,0,0,0,0,0,0,0,0,0,0,0,
0,0,0,0,0,0,0,0,0,0,0,0,0,0,0,0,0,0,0,0,0,0,0,0,0,0,1819,1820,0,0,0,0,0,0,0,0,0,0,0,0,0,0,0,0,0,
0,0,0,0,1534,0,0,0,0,0,0,0,0,0,0,0,0,0,0,0,0,0,0,0,0,0,0,0,0,0,0,0,0,0,0,0,0,0,0,0,0,0,0,0,0,
0,0,0,0,0,0,0,0,0,0,0,0,0,0,0,0,0,0,0,0,0,0,0,0,0,0,0,0,0,0,0,0,0,0,0,0,0,0,0,0,0,0,0,0,0,
213,0,0,0,0,0,0,0,0,0,0,0,0,0,0,2221,2222,0,0,0,0,0,2417,2418,0,0,0,0,0,0,0,0,0,0,0,0,0,0,0,0,0,0,0,0,0,
0,0,0,0,0,0,0,0,0,0,0,0,0,0,0,2321,2322,0,0,0,0,0,2517,2518,0,0,0,713,714,0,0,0,0,0,0,0,0,0,0,0,0,0,0,0,0,
0,0,0,0,0,0,0,0,0,0,0,0,0,0,0,0,0,0,0,0,0,0,0,0,0,1918,0,813,814,0,0,0,0,0,0,0,0,0,0,0,0,0,0,0,0,
0,0,0,0,0,0,0,0,0,0,0,0,0,0,0,0,0,0,0,0,0,0,0,0,0,0,0,0,0,0,0,0,0,713,714,0,1514,0,0,0,0,0,1315,1316,1317,
0,0,0,0,715,716,717,718,0,0,0,0,2147485268,2147485267,0,0,0,0,0,0,0,0,0,0,0,0,0,0,0,0,0,0,2147485862,2147485861,814,0,1614,0,0,0,0,0,1415,1416,1417,
0,0,0,0,815,816,817,0,0,0,0,0,0,0,0,0,0,0,0,0,0,0,0,0,0,0,0,0,0,0,0,0,2147485962,2147485961,0,0,0,0,0,0,0,0,0,0,0,
0,2147484369,2147484368,2147484367,0,0,0,0,0,0,0,0,0,0,0,0,0,0,0,0,0,0,0,0,0,0,0,0,0,0,0,0,0,0,0,0,0,0,0,0,0,0,0,0,0,
0,2147484469,2147484468,2147484467,0,0,0,0,0,0,0,0,0,0,0,0,0,0,0,0,0,0,0,0,0,0,0,0,0,0,0,0,0,0,0,0,0,0,0,0,0,0,0,0,0,
0,0,0,0,0,0,0,719,720,721,0,0,0,0,0,0,0,0,0,0,0,0,0,0,0,0,0,0,0,0,0,0,0,0,0,0,0,0,0,0,0,0,930,931,932,
0,0,0,1433,1434,0,0,819,820,821,0,0,0,0,0,0,0,0,2147484215,2147484214,2147484213,2147484212,0,0,0,0,0,0,564,565,566,567,0,0,0,0,0,0,0,0,0,0,1030,1031,1032,
0,0,0,0,0,0,0,0,0,0,0,0,0,0,0,0,0,0,2147484315,2147484314,2147484313,689,690,0,0,0,0,689,690,665,666,667,0,0,0,0,0,0,0,0,0,0,0,0,0,
0,0,0,0,0,0,0,0,0,0,0,0,0,0,0,0,0,0,2147484415,2147484414,2147484413,689,690,0,0,0,0,689,690,765,766,767,0,0,0,0,0,0,0,0,0,0,0,0,0,
0,0,0,0,0,0,0,0,0,0,0,0,0,0,0,0,0,0,0,0,0,0,0,0,0,0,0,0,0,0,0,0,0,0,0,0,0,0,0,0,0,0,0,0,0
</data>
 </layer>
 <layer id="3" name="Decor 2 - over P" width="45" height="30">
  <data encoding="csv">
1325,1326,0,209,210,211,212,213,0,0,0,0,0,0,0,0,0,0,0,0,0,0,0,0,0,0,0,0,0,0,0,15,16,17,18,19,0,0,102,103,0,9,9,9,108,
1425,1426,0,309,310,311,312,313,0,0,0,0,0,0,0,0,0,0,0,0,0,0,0,0,0,0,0,0,0,0,0,1003,1004,1005,1006,119,0,0,0,0,0,9,9,9,208,
1525,1526,0,409,410,411,412,413,0,1323,0,0,0,0,0,1329,1330,0,0,0,0,0,0,0,0,0,0,0,0,0,15,1103,1104,1105,1106,18,19,0,0,0,0,9,9,9,9,
0,0,1134,509,510,511,512,513,0,1423,0,0,1331,1332,0,1429,1430,0,0,0,0,0,0,0,0,0,0,0,0,0,115,0,0,0,0,19,119,9,0,0,0,9,9,9,9,
0,0,0,609,610,611,612,613,0,1523,0,0,1431,1432,0,1529,1530,0,0,0,0,0,0,0,0,0,0,0,0,0,0,0,0,0,0,119,0,0,9,9,9,9,1107,1108,1109,
0,0,0,0,0,0,0,713,2717,2718,2719,2720,1531,1532,0,0,0,0,0,0,0,0,0,6043,6044,6045,6045,0,0,0,0,0,0,0,0,0,0,0,9,9,9,9,1207,1208,1209,
0,0,0,0,0,0,0,813,0,0,0,0,0,0,0,0,0,0,0,0,0,0,0,6143,6144,6145,6145,0,0,0,6043,6044,6045,0,0,0,0,0,0,9,9,9,0,0,0,
0,0,0,0,0,0,0,2717,0,0,0,0,0,0,0,0,0,0,0,0,0,0,0,6243,6244,6245,6245,0,0,0,6143,6144,6145,0,0,0,0,0,0,803,9,9,0,0,0,
0,0,0,0,0,0,0,2717,0,0,0,0,0,0,0,0,0,0,0,0,0,0,0,6343,6344,6345,6345,0,0,0,6243,6244,6245,0,0,0,0,0,0,0,0,0,0,0,0,
0,0,0,0,0,0,2717,2718,0,0,0,0,0,0,0,0,0,6043,6044,6045,6045,0,0,0,0,0,0,0,0,0,6343,6344,6345,0,0,0,0,0,0,0,0,0,0,0,0,
0,0,0,0,0,0,2717,2718,2719,2720,2820,0,0,6043,6043,6044,6045,6045,6045,6045,6043,0,0,0,0,0,0,0,0,0,0,0,0,0,0,0,0,0,0,0,0,0,0,0,0,
0,0,0,0,0,0,2817,2818,2819,2820,2920,0,0,6143,6043,6044,6045,6145,6145,6145,6043,0,0,0,0,0,0,0,6045,0,0,0,0,0,0,0,0,0,0,0,0,0,0,0,0,
0,0,0,0,0,0,2917,2918,2919,2920,0,0,0,6243,6043,6043,6044,6045,6245,6245,6043,6044,6045,6245,6245,6045,6245,6145,6145,6045,0,0,0,0,0,0,0,0,0,0,0,0,0,0,0,
0,0,0,0,0,0,0,0,0,0,0,0,0,6343,6143,6043,6043,6044,6045,6345,6043,6044,6045,6345,6345,6145,6345,6245,6245,6145,0,0,0,0,0,0,0,0,0,0,0,0,0,0,0,
0,0,0,0,0,0,0,0,0,0,0,0,0,0,6243,6143,6043,6043,6044,6045,6043,6044,6045,6344,6345,6245,6345,6345,6345,6245,0,0,0,0,0,0,0,0,0,0,0,0,0,0,0,
0,0,0,0,0,0,0,0,0,0,0,0,0,0,6343,6243,6143,6043,6043,6044,6043,6044,6045,0,0,0,0,6343,6344,6345,6044,6045,0,0,0,0,6043,6044,6045,0,0,0,0,0,0,
0,0,0,0,0,0,0,0,0,0,0,0,0,0,0,6343,6243,6143,6043,6043,6043,6044,6045,0,0,0,0,0,6143,6043,6043,6044,6045,0,0,0,6143,6144,6145,0,0,0,0,0,0,
0,0,0,0,0,0,0,0,0,0,0,0,0,0,0,0,6343,6243,6143,6143,6043,6043,6044,0,0,0,0,0,6243,6143,6143,6043,6044,6045,0,0,6243,6244,6245,6245,6145,0,0,0,0,
0,0,0,0,0,0,0,0,0,0,0,0,0,0,0,0,0,6343,6243,6243,6143,6043,6044,0,0,0,0,0,6343,6243,6243,6143,6043,6043,6043,6043,6343,6344,6345,6345,6245,0,0,0,0,
0,0,0,0,0,0,0,0,0,0,0,0,0,0,0,0,0,0,6343,6343,6243,6043,6044,0,0,0,0,0,0,6343,6343,6043,6143,6143,6143,6143,6143,6343,6344,6345,6345,0,0,0,0,
0,0,0,0,0,0,0,0,0,0,0,0,0,0,0,0,0,0,0,0,6343,6143,6144,0,0,0,0,0,0,0,0,6143,6243,6243,6243,6243,6243,6343,6343,6344,6345,0,0,0,0,
0,0,0,0,0,0,0,0,0,0,0,0,0,0,0,0,0,0,0,0,0,6243,6244,4852,4853,4854,4855,0,0,0,0,6243,6343,6343,6343,6343,6343,6343,6344,6345,0,0,0,0,0,
0,0,0,0,0,0,0,0,0,0,0,0,0,0,0,0,0,0,0,0,0,6343,6344,4952,4953,4954,4955,0,0,0,0,6343,6343,6344,6345,0,0,0,0,0,0,0,0,0,0,
0,0,0,0,0,0,0,0,0,0,0,0,0,0,0,0,0,0,0,0,0,0,0,5052,5053,5054,5055,0,0,0,0,0,0,0,0,0,0,0,0,0,0,0,0,0,0,
0,0,0,0,0,0,0,0,0,0,0,0,0,0,0,0,0,0,0,0,4347,4348,4349,5152,5153,5154,5155,4358,4359,4360,0,0,0,0,0,0,0,0,0,0,0,0,0,0,0,
0,0,0,0,0,0,0,0,0,0,0,0,0,0,0,0,0,0,0,0,4447,4448,4449,5252,5253,5254,5255,4458,4459,4460,0,0,0,0,0,0,0,0,0,0,0,0,0,0,0,
0,0,0,0,0,0,0,0,0,0,0,0,0,0,0,0,0,0,0,0,4547,4548,4549,5352,5353,5354,5355,4558,4559,4560,0,0,0,0,0,0,0,0,0,0,0,0,0,0,0,
4347,4348,4349,5552,5552,5553,5554,5555,5555,5552,5553,5554,5555,5555,5552,5553,5554,5555,0,5558,5559,5560,4649,5452,5453,5454,5455,4658,5547,5548,5549,0,5552,5553,5554,5555,5552,5552,5553,5554,5555,4358,4358,4359,4360,
4447,4448,4449,5652,5652,5653,5654,5655,5655,5652,5653,5654,5655,5655,5652,5653,5654,5655,4455,5658,5659,5660,0,0,0,0,0,0,5647,5648,5649,4452,5652,5653,5654,5655,5652,5652,5653,5654,5655,4458,4458,4459,4460,
4547,4548,4549,5752,5752,5753,5754,5755,5755,5752,5753,5754,5755,5755,5752,5753,5754,5755,4555,5758,5759,5760,0,0,0,0,0,0,5747,5748,5749,4552,5752,5753,5754,5755,5752,5752,5753,5754,5755,4558,4558,4559,4560
</data>
 </layer>
 <layer id="2" name="Decor 3 - over P" width="45" height="30">
  <data encoding="csv">
0,0,0,0,0,0,0,0,0,0,0,0,0,0,0,0,0,0,0,0,0,0,0,0,0,0,0,0,0,0,0,0,0,0,0,0,0,0,0,0,0,0,0,0,0,
0,0,0,0,0,0,0,0,0,0,0,0,0,0,0,0,0,0,0,0,0,0,0,0,0,0,0,0,0,0,0,0,0,0,0,0,0,0,0,0,0,0,0,0,0,
0,0,0,0,0,0,0,0,0,0,0,0,0,0,0,0,0,0,0,0,0,0,0,0,0,0,0,0,0,0,0,0,0,0,0,0,0,0,0,0,0,0,0,0,0,
0,0,0,0,0,0,0,0,0,0,0,0,0,0,0,0,0,0,0,0,0,0,0,0,0,0,0,0,0,0,0,0,0,0,0,0,0,0,0,0,0,0,0,0,0,
0,0,0,0,0,0,0,0,0,0,0,0,0,0,0,0,0,0,0,0,0,0,0,0,0,0,0,0,0,0,0,0,0,0,0,0,0,0,0,0,0,0,0,0,0,
0,0,0,0,0,0,0,0,0,0,0,0,0,0,0,0,0,0,0,0,0,0,0,0,0,0,0,0,0,0,0,0,0,0,0,0,0,0,0,0,0,0,0,0,0,
0,0,0,0,0,0,0,0,0,0,0,0,0,0,0,0,0,0,0,0,0,0,0,0,0,0,0,0,0,0,0,0,0,0,0,0,0,0,0,0,0,0,0,0,0,
0,0,0,0,0,0,0,0,0,0,0,0,0,0,0,0,0,0,0,0,0,0,0,0,0,0,0,0,0,0,0,0,0,0,0,0,0,0,0,0,0,0,0,0,0,
0,0,0,0,0,0,0,0,0,0,0,0,0,0,0,0,0,0,0,0,0,0,0,0,0,0,0,0,0,0,0,0,0,0,0,0,0,0,0,0,0,0,0,0,0,
0,0,0,0,0,0,0,0,0,0,0,0,0,0,0,0,0,0,0,0,0,0,0,0,0,0,0,0,0,0,0,0,0,0,0,0,0,0,0,0,0,0,0,0,0,
0,0,0,0,0,0,0,0,0,0,0,0,0,0,0,0,0,0,0,0,0,0,0,0,0,0,0,0,0,0,0,0,0,0,0,0,0,0,0,0,0,0,0,0,0,
0,0,0,0,0,0,0,0,0,0,0,0,0,0,0,0,0,0,0,0,0,0,0,0,0,0,0,0,0,0,0,0,0,0,0,0,0,0,0,0,0,0,0,0,0,
0,0,0,0,0,0,0,0,0,0,0,0,0,0,0,0,0,0,0,0,0,0,0,0,0,0,0,0,0,0,0,0,0,0,0,0,0,0,0,0,0,0,0,0,0,
0,0,0,0,0,0,0,0,0,0,0,0,0,0,0,0,0,0,0,0,0,0,0,0,0,0,0,0,0,0,0,0,0,0,0,0,0,0,0,0,0,0,0,0,0,
0,0,0,0,0,0,0,0,0,0,0,0,0,0,0,0,0,0,0,0,0,0,0,0,0,0,0,0,0,0,0,0,0,0,0,0,0,0,0,0,0,0,0,0,0,
0,0,0,0,0,0,0,0,0,0,0,0,0,0,0,0,0,0,0,0,0,0,0,0,0,0,0,0,0,0,0,0,0,0,0,0,0,0,0,0,0,0,0,0,0,
0,0,0,214,215,216,217,218,0,0,0,0,0,0,0,0,0,0,0,0,0,0,0,0,0,0,0,0,0,0,0,0,0,0,0,0,0,0,0,0,0,0,0,0,0,
0,0,0,314,315,316,317,318,0,0,0,0,0,0,0,0,0,0,0,0,0,0,0,0,0,0,0,0,0,0,0,0,0,0,0,0,0,0,0,0,0,0,0,0,0,
313,0,0,414,415,416,417,418,0,0,0,0,0,0,0,0,0,0,0,0,0,0,0,0,0,0,0,0,0,0,0,0,0,0,0,0,0,0,0,0,0,0,0,0,0,
413,0,0,514,515,516,517,518,0,0,0,0,0,0,0,0,0,0,0,0,0,0,0,0,0,0,0,0,0,0,0,0,0,0,0,0,0,0,0,0,0,0,0,0,0,
513,2147484069,2147484068,2147484067,615,616,617,618,0,0,0,0,0,0,0,0,0,0,0,0,0,0,0,0,0,0,0,0,0,0,0,0,0,0,0,0,0,0,0,0,0,0,0,0,0,
613,2147484169,2147484168,2147484167,0,0,0,0,0,0,0,0,0,0,0,0,0,0,2147483715,2147483714,2147483713,2147483712,0,0,0,0,0,0,64,65,66,67,0,0,0,0,0,0,0,0,0,0,0,0,0,
0,2147484269,2147484268,2147484267,0,0,0,419,420,421,0,0,0,0,0,0,0,0,2147483815,2147483814,2147483813,2147483812,0,0,0,0,0,0,164,165,166,167,0,0,0,0,0,0,0,0,0,0,0,0,0,
0,0,0,0,0,0,0,519,520,521,0,0,0,0,0,0,0,0,2147483915,2147483914,2147483913,2147483912,0,0,0,0,0,0,264,265,266,267,0,0,0,0,0,0,0,0,0,0,0,0,0,
0,0,0,0,0,0,0,619,620,621,0,0,0,0,0,0,0,0,2147484015,2147484014,2147484013,2147484012,0,0,0,0,0,0,364,365,366,367,0,0,0,0,0,0,0,0,0,0,0,0,0,
0,0,0,0,0,0,0,0,0,0,0,0,0,0,0,0,0,0,2147484115,2147484114,2147484113,2147484112,0,0,0,0,0,0,464,465,466,467,0,0,0,0,0,0,0,0,0,0,0,0,0,
0,0,0,0,0,0,0,0,0,0,0,0,0,0,0,0,0,0,0,0,0,589,590,0,0,0,0,589,590,0,0,0,0,0,0,0,0,0,0,0,0,0,0,0,0,
0,0,0,0,0,0,0,0,0,0,0,0,0,0,0,0,0,0,0,0,0,589,590,0,0,0,0,589,590,0,0,0,0,0,0,0,0,0,0,0,0,0,0,0,0,
0,0,0,0,0,0,0,0,0,0,0,0,0,0,0,0,0,0,0,0,0,589,590,0,0,0,0,589,590,0,0,0,0,0,0,0,0,0,0,0,0,0,0,0,0,
0,0,0,0,0,0,0,0,0,0,0,0,0,0,0,0,0,0,0,0,0,689,690,0,0,0,0,689,690,0,0,0,0,0,0,0,0,0,0,0,0,0,0,0,0
</data>
 </layer>
</map>
