<?xml version="1.0" encoding="UTF-8"?>
<map version="1.10" tiledversion="1.11.1.1" orientation="orthogonal" renderorder="right-down" width="45" height="30" tilewidth="16" tileheight="16" infinite="0" backgroundcolor="#c0a920" nextlayerid="43" nextobjectid="11">
 <tileset firstgid="1" name="Forest Combo" tilewidth="16" tileheight="16" tilecount="9200" columns="100" tilerendersize="grid">
  <image source="../spritesheets/FantasyForest_Combo.png" width="1600" height="1472"/>
  <tile id="701">
   <objectgroup draworder="index" id="2">
    <object id="1" x="0.0909091" y="0.204545" width="15.9091" height="15.6364"/>
   </objectgroup>
  </tile>
  <tile id="808">
   <objectgroup draworder="index" id="2">
    <object id="1" x="0.181818" y="0.181818" width="15.4545" height="15.8182"/>
   </objectgroup>
  </tile>
  <tile id="915">
   <objectgroup draworder="index" id="2">
    <object id="1" x="-1.77636e-15" y="-0.0909091" width="15.7273" height="11.5455"/>
   </objectgroup>
  </tile>
  <tile id="921">
   <objectgroup draworder="index" id="2">
    <object id="1" x="9.34211" y="4.60526"/>
    <object id="2" x="-0.0197368" y="0.125" width="16.0329" height="10.0658"/>
    <object id="3" x="9.86842" y="-0.592105">
     <polygon points="0,0 0,0 0,0 0,0"/>
    </object>
   </objectgroup>
  </tile>
  <wangsets>
   <wangset name="Paths and Layers" type="corner" tile="-1">
    <wangcolor name="Light Dirt on Light Grass" color="#ff0000" tile="-1" probability="1"/>
    <wangcolor name="Light Dirt on Dark Grass" color="#00ff00" tile="-1" probability="1"/>
    <wangcolor name="Sand on Light Grass" color="#0000ff" tile="-1" probability="1"/>
    <wangcolor name="Light Dirt on Sand" color="#ff7700" tile="-1" probability="1"/>
    <wangcolor name="Light Grass on Light Dirt" color="#00e9ff" tile="-1" probability="1"/>
    <wangcolor name="Light Grass on Sand" color="#ff00d8" tile="-1" probability="1"/>
    <wangcolor name="Sand on Light Dirt" color="#ffff00" tile="-1" probability="1"/>
    <wangcolor name="Dark Grass on Dark Dirt" color="#a000ff" tile="-1" probability="1"/>
    <wangcolor name="Dark Grass on Light Grass" color="#00ffa1" tile="-1" probability="1"/>
    <wangcolor name="Mud on Dark Grass" color="#ffa8a8" tile="-1" probability="1"/>
    <wangcolor name="Dark Grass on Empty" color="#b4a8ff" tile="-1" probability="1"/>
    <wangcolor name="Mud on Empty" color="#96ffa7" tile="-1" probability="1"/>
    <wangcolor name="Light Grass under Dark Grass" color="#8e7848" tile="-1" probability="1"/>
    <wangcolor name="Red Dirt on Empty" color="#5a5a5a" tile="-1" probability="1"/>
    <wangcolor name="Red Dirt on Dark Dirt" color="#0e7a46" tile="-1" probability="1"/>
    <wangcolor name="Sand over Water" color="#00000000" tile="-1" probability="1"/>
    <wangcolor name="Water over Dark Water" color="#8184b8" tile="-1" probability="1"/>
    <wangcolor name="Light grass on Empty" color="#fd3650" tile="-1" probability="1"/>
    <wangtile tileid="3701" wangid="0,0,0,1,0,0,0,0"/>
    <wangtile tileid="3702" wangid="0,0,0,1,0,1,0,0"/>
    <wangtile tileid="3703" wangid="0,0,0,0,0,1,0,0"/>
    <wangtile tileid="3704" wangid="0,1,0,1,0,1,0,0"/>
    <wangtile tileid="3705" wangid="0,0,0,1,0,1,0,1"/>
    <wangtile tileid="3707" wangid="0,0,0,3,0,0,0,0"/>
    <wangtile tileid="3708" wangid="0,0,0,3,0,3,0,0"/>
    <wangtile tileid="3709" wangid="0,0,0,0,0,3,0,0"/>
    <wangtile tileid="3710" wangid="0,3,0,3,0,3,0,0"/>
    <wangtile tileid="3711" wangid="0,0,0,3,0,3,0,3"/>
    <wangtile tileid="3713" wangid="0,0,0,4,0,0,0,0"/>
    <wangtile tileid="3714" wangid="0,0,0,4,0,4,0,0"/>
    <wangtile tileid="3715" wangid="0,0,0,0,0,4,0,0"/>
    <wangtile tileid="3716" wangid="0,4,0,4,0,4,0,0"/>
    <wangtile tileid="3717" wangid="0,0,0,4,0,4,0,4"/>
    <wangtile tileid="3719" wangid="0,0,0,2,0,0,0,0"/>
    <wangtile tileid="3720" wangid="0,0,0,2,0,2,0,0"/>
    <wangtile tileid="3721" wangid="0,0,0,0,0,2,0,0"/>
    <wangtile tileid="3722" wangid="0,2,0,2,0,2,0,0"/>
    <wangtile tileid="3723" wangid="0,0,0,2,0,2,0,2"/>
    <wangtile tileid="3725" wangid="0,9,0,0,0,9,0,9"/>
    <wangtile tileid="3726" wangid="0,9,0,0,0,0,0,9"/>
    <wangtile tileid="3727" wangid="0,9,0,9,0,0,0,9"/>
    <wangtile tileid="3728" wangid="0,0,0,0,0,0,0,9"/>
    <wangtile tileid="3729" wangid="0,9,0,0,0,0,0,0"/>
    <wangtile tileid="3731" wangid="0,10,0,0,0,10,0,10"/>
    <wangtile tileid="3732" wangid="0,10,0,0,0,0,0,10"/>
    <wangtile tileid="3733" wangid="0,10,0,10,0,0,0,10"/>
    <wangtile tileid="3734" wangid="0,0,0,0,0,0,0,10"/>
    <wangtile tileid="3735" wangid="0,10,0,0,0,0,0,0"/>
    <wangtile tileid="3737" wangid="0,15,0,0,0,15,0,15"/>
    <wangtile tileid="3738" wangid="0,15,0,0,0,0,0,15"/>
    <wangtile tileid="3739" wangid="0,15,0,15,0,0,0,15"/>
    <wangtile tileid="3740" wangid="0,0,0,0,0,0,0,15"/>
    <wangtile tileid="3741" wangid="0,15,0,0,0,0,0,0"/>
    <wangtile tileid="3801" wangid="0,1,0,1,0,0,0,0"/>
    <wangtile tileid="3802" wangid="0,14,0,14,0,14,0,14"/>
    <wangtile tileid="3803" wangid="0,0,0,0,0,1,0,1"/>
    <wangtile tileid="3804" wangid="0,1,0,1,0,0,0,1"/>
    <wangtile tileid="3805" wangid="0,1,0,0,0,1,0,1"/>
    <wangtile tileid="3807" wangid="0,3,0,3,0,0,0,0"/>
    <wangtile tileid="3808" wangid="0,3,0,3,0,3,0,3"/>
    <wangtile tileid="3809" wangid="0,0,0,0,0,3,0,3"/>
    <wangtile tileid="3810" wangid="0,3,0,3,0,0,0,3"/>
    <wangtile tileid="3811" wangid="0,3,0,0,0,3,0,3"/>
    <wangtile tileid="3813" wangid="0,4,0,4,0,0,0,0"/>
    <wangtile tileid="3814" wangid="0,4,0,4,0,4,0,4"/>
    <wangtile tileid="3815" wangid="0,0,0,0,0,4,0,4"/>
    <wangtile tileid="3816" wangid="0,4,0,4,0,0,0,4"/>
    <wangtile tileid="3817" wangid="0,4,0,0,0,4,0,4"/>
    <wangtile tileid="3819" wangid="0,2,0,2,0,0,0,0"/>
    <wangtile tileid="3820" wangid="0,2,0,2,0,2,0,2"/>
    <wangtile tileid="3821" wangid="0,0,0,0,0,2,0,2"/>
    <wangtile tileid="3822" wangid="0,2,0,2,0,0,0,2"/>
    <wangtile tileid="3823" wangid="0,2,0,0,0,2,0,2"/>
    <wangtile tileid="3825" wangid="0,0,0,0,0,9,0,9"/>
    <wangtile tileid="3827" wangid="0,9,0,9,0,0,0,0"/>
    <wangtile tileid="3828" wangid="0,0,0,0,0,9,0,0"/>
    <wangtile tileid="3829" wangid="0,0,0,9,0,0,0,0"/>
    <wangtile tileid="3831" wangid="0,0,0,0,0,10,0,10"/>
    <wangtile tileid="3833" wangid="0,10,0,10,0,0,0,0"/>
    <wangtile tileid="3834" wangid="0,0,0,0,0,10,0,0"/>
    <wangtile tileid="3835" wangid="0,0,0,10,0,0,0,0"/>
    <wangtile tileid="3837" wangid="0,0,0,0,0,15,0,15"/>
    <wangtile tileid="3839" wangid="0,15,0,15,0,0,0,0"/>
    <wangtile tileid="3840" wangid="0,0,0,0,0,15,0,0"/>
    <wangtile tileid="3841" wangid="0,0,0,15,0,0,0,0"/>
    <wangtile tileid="3901" wangid="0,1,0,0,0,0,0,0"/>
    <wangtile tileid="3902" wangid="0,1,0,0,0,0,0,1"/>
    <wangtile tileid="3903" wangid="0,0,0,0,0,0,0,1"/>
    <wangtile tileid="3904" wangid="0,1,0,0,0,1,0,0"/>
    <wangtile tileid="3905" wangid="0,0,0,1,0,0,0,1"/>
    <wangtile tileid="3907" wangid="0,3,0,0,0,0,0,0"/>
    <wangtile tileid="3908" wangid="0,3,0,0,0,0,0,3"/>
    <wangtile tileid="3909" wangid="0,0,0,0,0,0,0,3"/>
    <wangtile tileid="3910" wangid="0,3,0,0,0,3,0,0"/>
    <wangtile tileid="3911" wangid="0,0,0,3,0,0,0,3"/>
    <wangtile tileid="3913" wangid="0,4,0,0,0,0,0,0"/>
    <wangtile tileid="3914" wangid="0,4,0,0,0,0,0,4"/>
    <wangtile tileid="3915" wangid="0,0,0,0,0,0,0,4"/>
    <wangtile tileid="3916" wangid="0,4,0,0,0,4,0,0"/>
    <wangtile tileid="3917" wangid="0,0,0,4,0,0,0,4"/>
    <wangtile tileid="3919" wangid="0,2,0,0,0,0,0,0"/>
    <wangtile tileid="3920" wangid="0,2,0,0,0,0,0,2"/>
    <wangtile tileid="3921" wangid="0,0,0,0,0,0,0,2"/>
    <wangtile tileid="3922" wangid="0,2,0,0,0,2,0,0"/>
    <wangtile tileid="3923" wangid="0,0,0,2,0,0,0,2"/>
    <wangtile tileid="3925" wangid="0,0,0,9,0,9,0,9"/>
    <wangtile tileid="3926" wangid="0,0,0,9,0,9,0,0"/>
    <wangtile tileid="3927" wangid="0,9,0,9,0,9,0,0"/>
    <wangtile tileid="3928" wangid="0,0,0,9,0,0,0,9"/>
    <wangtile tileid="3929" wangid="0,9,0,0,0,9,0,0"/>
    <wangtile tileid="3931" wangid="0,0,0,10,0,10,0,10"/>
    <wangtile tileid="3932" wangid="0,0,0,10,0,10,0,0"/>
    <wangtile tileid="3933" wangid="0,10,0,10,0,10,0,0"/>
    <wangtile tileid="3934" wangid="0,0,0,10,0,0,0,10"/>
    <wangtile tileid="3935" wangid="0,10,0,0,0,10,0,0"/>
    <wangtile tileid="3937" wangid="0,0,0,15,0,15,0,15"/>
    <wangtile tileid="3938" wangid="0,0,0,15,0,15,0,0"/>
    <wangtile tileid="3939" wangid="0,15,0,15,0,15,0,0"/>
    <wangtile tileid="3940" wangid="0,0,0,15,0,0,0,15"/>
    <wangtile tileid="3941" wangid="0,15,0,0,0,15,0,0"/>
    <wangtile tileid="4101" wangid="0,5,0,0,0,5,0,5"/>
    <wangtile tileid="4102" wangid="0,5,0,0,0,0,0,5"/>
    <wangtile tileid="4103" wangid="0,5,0,5,0,0,0,5"/>
    <wangtile tileid="4104" wangid="0,0,0,0,0,0,0,5"/>
    <wangtile tileid="4105" wangid="0,5,0,0,0,0,0,0"/>
    <wangtile tileid="4107" wangid="0,6,0,0,0,6,0,6"/>
    <wangtile tileid="4108" wangid="0,6,0,0,0,0,0,6"/>
    <wangtile tileid="4109" wangid="0,6,0,6,0,0,0,6"/>
    <wangtile tileid="4110" wangid="0,0,0,0,0,0,0,6"/>
    <wangtile tileid="4111" wangid="0,6,0,0,0,0,0,0"/>
    <wangtile tileid="4113" wangid="0,7,0,0,0,7,0,7"/>
    <wangtile tileid="4114" wangid="0,7,0,0,0,0,0,7"/>
    <wangtile tileid="4115" wangid="0,7,0,7,0,0,0,7"/>
    <wangtile tileid="4116" wangid="0,0,0,0,0,0,0,7"/>
    <wangtile tileid="4117" wangid="0,7,0,0,0,0,0,0"/>
    <wangtile tileid="4119" wangid="0,8,0,0,0,8,0,8"/>
    <wangtile tileid="4120" wangid="0,8,0,0,0,0,0,8"/>
    <wangtile tileid="4121" wangid="0,8,0,8,0,0,0,8"/>
    <wangtile tileid="4122" wangid="0,0,0,0,0,0,0,8"/>
    <wangtile tileid="4123" wangid="0,8,0,0,0,0,0,0"/>
    <wangtile tileid="4125" wangid="0,11,0,0,0,11,0,11"/>
    <wangtile tileid="4126" wangid="0,11,0,0,0,0,0,11"/>
    <wangtile tileid="4127" wangid="0,11,0,11,0,0,0,11"/>
    <wangtile tileid="4128" wangid="0,0,0,0,0,0,0,11"/>
    <wangtile tileid="4129" wangid="0,11,0,0,0,0,0,0"/>
    <wangtile tileid="4131" wangid="0,12,0,0,0,12,0,12"/>
    <wangtile tileid="4132" wangid="0,12,0,0,0,0,0,12"/>
    <wangtile tileid="4133" wangid="0,12,0,12,0,0,0,12"/>
    <wangtile tileid="4134" wangid="0,0,0,0,0,0,0,12"/>
    <wangtile tileid="4135" wangid="0,12,0,0,0,0,0,0"/>
    <wangtile tileid="4137" wangid="0,14,0,0,0,14,0,14"/>
    <wangtile tileid="4138" wangid="0,14,0,0,0,0,0,14"/>
    <wangtile tileid="4139" wangid="0,14,0,14,0,0,0,14"/>
    <wangtile tileid="4140" wangid="0,0,0,0,0,0,0,14"/>
    <wangtile tileid="4141" wangid="0,14,0,0,0,0,0,0"/>
    <wangtile tileid="4201" wangid="0,0,0,0,0,5,0,5"/>
    <wangtile tileid="4203" wangid="0,5,0,5,0,0,0,0"/>
    <wangtile tileid="4204" wangid="0,0,0,0,0,5,0,0"/>
    <wangtile tileid="4205" wangid="0,0,0,5,0,0,0,0"/>
    <wangtile tileid="4207" wangid="0,0,0,0,0,6,0,6"/>
    <wangtile tileid="4209" wangid="0,6,0,6,0,0,0,0"/>
    <wangtile tileid="4210" wangid="0,0,0,0,0,6,0,0"/>
    <wangtile tileid="4211" wangid="0,0,0,6,0,0,0,0"/>
    <wangtile tileid="4213" wangid="0,0,0,0,0,7,0,7"/>
    <wangtile tileid="4215" wangid="0,7,0,7,0,0,0,0"/>
    <wangtile tileid="4216" wangid="0,0,0,0,0,7,0,0"/>
    <wangtile tileid="4217" wangid="0,0,0,7,0,0,0,0"/>
    <wangtile tileid="4219" wangid="0,0,0,0,0,8,0,8"/>
    <wangtile tileid="4221" wangid="0,8,0,8,0,0,0,0"/>
    <wangtile tileid="4222" wangid="0,0,0,0,0,8,0,0"/>
    <wangtile tileid="4223" wangid="0,0,0,8,0,0,0,0"/>
    <wangtile tileid="4225" wangid="0,0,0,0,0,11,0,11"/>
    <wangtile tileid="4227" wangid="0,11,0,11,0,0,0,0"/>
    <wangtile tileid="4228" wangid="0,0,0,0,0,11,0,0"/>
    <wangtile tileid="4229" wangid="0,0,0,11,0,0,0,0"/>
    <wangtile tileid="4231" wangid="0,0,0,0,0,12,0,12"/>
    <wangtile tileid="4233" wangid="0,12,0,12,0,0,0,0"/>
    <wangtile tileid="4234" wangid="0,0,0,0,0,12,0,0"/>
    <wangtile tileid="4235" wangid="0,0,0,12,0,0,0,0"/>
    <wangtile tileid="4237" wangid="0,0,0,0,0,14,0,14"/>
    <wangtile tileid="4239" wangid="0,14,0,14,0,0,0,0"/>
    <wangtile tileid="4240" wangid="0,0,0,0,0,14,0,0"/>
    <wangtile tileid="4241" wangid="0,0,0,14,0,0,0,0"/>
    <wangtile tileid="4301" wangid="0,0,0,5,0,5,0,5"/>
    <wangtile tileid="4302" wangid="0,0,0,5,0,5,0,0"/>
    <wangtile tileid="4303" wangid="0,5,0,5,0,5,0,0"/>
    <wangtile tileid="4304" wangid="0,0,0,5,0,0,0,5"/>
    <wangtile tileid="4305" wangid="0,5,0,0,0,5,0,0"/>
    <wangtile tileid="4307" wangid="0,0,0,6,0,6,0,6"/>
    <wangtile tileid="4308" wangid="0,0,0,6,0,6,0,0"/>
    <wangtile tileid="4309" wangid="0,6,0,6,0,6,0,0"/>
    <wangtile tileid="4310" wangid="0,0,0,6,0,0,0,6"/>
    <wangtile tileid="4311" wangid="0,6,0,0,0,6,0,0"/>
    <wangtile tileid="4313" wangid="0,0,0,7,0,7,0,7"/>
    <wangtile tileid="4314" wangid="0,0,0,7,0,7,0,0"/>
    <wangtile tileid="4315" wangid="0,7,0,7,0,7,0,0"/>
    <wangtile tileid="4316" wangid="0,0,0,7,0,0,0,7"/>
    <wangtile tileid="4317" wangid="0,7,0,0,0,7,0,0"/>
    <wangtile tileid="4319" wangid="0,0,0,8,0,8,0,8"/>
    <wangtile tileid="4320" wangid="0,0,0,8,0,8,0,0"/>
    <wangtile tileid="4321" wangid="0,8,0,8,0,8,0,0"/>
    <wangtile tileid="4322" wangid="0,0,0,8,0,0,0,8"/>
    <wangtile tileid="4323" wangid="0,8,0,0,0,8,0,0"/>
    <wangtile tileid="4325" wangid="0,0,0,11,0,11,0,11"/>
    <wangtile tileid="4326" wangid="0,0,0,11,0,11,0,0"/>
    <wangtile tileid="4327" wangid="0,11,0,11,0,11,0,0"/>
    <wangtile tileid="4328" wangid="0,0,0,11,0,0,0,11"/>
    <wangtile tileid="4329" wangid="0,11,0,0,0,11,0,0"/>
    <wangtile tileid="4331" wangid="0,0,0,12,0,12,0,12"/>
    <wangtile tileid="4332" wangid="0,0,0,12,0,12,0,0"/>
    <wangtile tileid="4333" wangid="0,12,0,12,0,12,0,0"/>
    <wangtile tileid="4334" wangid="0,0,0,12,0,0,0,12"/>
    <wangtile tileid="4335" wangid="0,12,0,0,0,12,0,0"/>
    <wangtile tileid="4337" wangid="0,0,0,14,0,14,0,14"/>
    <wangtile tileid="4338" wangid="0,0,0,14,0,14,0,0"/>
    <wangtile tileid="4339" wangid="0,14,0,14,0,14,0,0"/>
    <wangtile tileid="4340" wangid="0,0,0,14,0,0,0,14"/>
    <wangtile tileid="4341" wangid="0,14,0,0,0,14,0,0"/>
    <wangtile tileid="4501" wangid="0,16,0,0,0,16,0,16"/>
    <wangtile tileid="4502" wangid="0,16,0,0,0,0,0,16"/>
    <wangtile tileid="4503" wangid="0,16,0,16,0,0,0,16"/>
    <wangtile tileid="4505" wangid="0,0,0,0,0,0,0,16"/>
    <wangtile tileid="4506" wangid="0,16,0,0,0,0,0,0"/>
    <wangtile tileid="4517" wangid="0,17,0,0,0,17,0,17"/>
    <wangtile tileid="4518" wangid="0,17,0,0,0,0,0,17"/>
    <wangtile tileid="4519" wangid="0,17,0,17,0,0,0,17"/>
    <wangtile tileid="4520" wangid="0,0,0,0,0,0,0,17"/>
    <wangtile tileid="4521" wangid="0,17,0,0,0,0,0,0"/>
    <wangtile tileid="4523" wangid="0,17,0,17,0,17,0,17"/>
    <wangtile tileid="4524" wangid="0,17,0,17,0,17,0,17"/>
    <wangtile tileid="4538" wangid="0,18,0,0,0,18,0,18"/>
    <wangtile tileid="4539" wangid="0,18,0,0,0,0,0,18"/>
    <wangtile tileid="4540" wangid="0,18,0,18,0,0,0,18"/>
    <wangtile tileid="4541" wangid="0,0,0,0,0,0,0,18"/>
    <wangtile tileid="4542" wangid="0,18,0,0,0,0,0,0"/>
    <wangtile tileid="4601" wangid="0,0,0,0,0,16,0,16"/>
    <wangtile tileid="4603" wangid="0,16,0,16,0,0,0,0"/>
    <wangtile tileid="4605" wangid="0,0,0,0,0,16,0,0"/>
    <wangtile tileid="4606" wangid="0,0,0,16,0,0,0,0"/>
    <wangtile tileid="4617" wangid="0,0,0,0,0,17,0,17"/>
    <wangtile tileid="4619" wangid="0,17,0,17,0,0,0,0"/>
    <wangtile tileid="4620" wangid="0,0,0,0,0,17,0,17"/>
    <wangtile tileid="4621" wangid="0,17,0,17,0,0,0,0"/>
    <wangtile tileid="4623" wangid="0,17,0,17,0,17,0,17"/>
    <wangtile tileid="4624" wangid="0,17,0,17,0,17,0,17"/>
    <wangtile tileid="4638" wangid="0,0,0,0,0,18,0,18"/>
    <wangtile tileid="4640" wangid="0,18,0,18,0,0,0,0"/>
    <wangtile tileid="4641" wangid="0,0,0,0,0,18,0,0"/>
    <wangtile tileid="4642" wangid="0,0,0,18,0,0,0,0"/>
    <wangtile tileid="4701" wangid="0,0,0,16,0,16,0,16"/>
    <wangtile tileid="4702" wangid="0,0,0,16,0,16,0,0"/>
    <wangtile tileid="4703" wangid="0,16,0,16,0,16,0,0"/>
    <wangtile tileid="4705" wangid="0,0,0,16,0,0,0,16"/>
    <wangtile tileid="4706" wangid="0,16,0,0,0,16,0,0"/>
    <wangtile tileid="4717" wangid="0,0,0,17,0,17,0,17"/>
    <wangtile tileid="4718" wangid="0,0,0,17,0,17,0,0"/>
    <wangtile tileid="4719" wangid="0,17,0,17,0,17,0,0"/>
    <wangtile tileid="4720" wangid="0,0,0,17,0,0,0,17"/>
    <wangtile tileid="4721" wangid="0,0,0,0,0,17,0,0"/>
    <wangtile tileid="4723" wangid="0,17,0,17,0,17,0,17"/>
    <wangtile tileid="4724" wangid="0,17,0,17,0,17,0,17"/>
    <wangtile tileid="4738" wangid="0,0,0,18,0,18,0,18"/>
    <wangtile tileid="4739" wangid="0,0,0,18,0,18,0,0"/>
    <wangtile tileid="4740" wangid="0,18,0,18,0,18,0,0"/>
    <wangtile tileid="4741" wangid="0,0,0,18,0,0,0,18"/>
    <wangtile tileid="4742" wangid="0,18,0,0,0,18,0,0"/>
    <wangtile tileid="4901" wangid="0,18,0,18,0,18,0,18"/>
    <wangtile tileid="4903" wangid="0,11,0,11,0,11,0,11"/>
    <wangtile tileid="4905" wangid="0,12,0,12,0,12,0,12"/>
    <wangtile tileid="4907" wangid="0,1,0,1,0,1,0,1"/>
    <wangtile tileid="4909" wangid="0,1,0,1,0,1,0,1"/>
    <wangtile tileid="4911" wangid="0,15,0,15,0,15,0,15"/>
    <wangtile tileid="4913" wangid="0,2,0,2,0,2,0,2"/>
    <wangtile tileid="4915" wangid="0,7,0,7,0,7,0,7"/>
   </wangset>
   <wangset name="Mixed attempt" type="mixed" tile="-1">
    <wangcolor name="Sand over water" color="#ff0000" tile="-1" probability="1"/>
    <wangcolor name="" color="#00ff00" tile="-1" probability="1"/>
    <wangtile tileid="4501" wangid="1,1,1,0,1,1,1,1"/>
    <wangtile tileid="4502" wangid="1,1,1,0,0,0,1,1"/>
    <wangtile tileid="4503" wangid="1,1,1,1,1,0,1,1"/>
    <wangtile tileid="4505" wangid="0,0,0,0,0,0,0,1"/>
    <wangtile tileid="4506" wangid="0,1,0,0,0,0,0,0"/>
    <wangtile tileid="4601" wangid="1,0,0,0,1,1,1,1"/>
    <wangtile tileid="4603" wangid="1,1,1,1,1,0,0,0"/>
    <wangtile tileid="4605" wangid="0,0,0,0,0,1,0,0"/>
    <wangtile tileid="4606" wangid="0,0,0,1,0,0,0,0"/>
    <wangtile tileid="4701" wangid="1,0,1,1,1,1,1,1"/>
    <wangtile tileid="4702" wangid="0,0,1,1,1,1,1,0"/>
    <wangtile tileid="4703" wangid="1,1,1,1,1,1,1,0"/>
    <wangtile tileid="4705" wangid="0,0,0,1,0,0,0,1"/>
    <wangtile tileid="4706" wangid="0,1,0,0,0,1,0,0"/>
   </wangset>
  </wangsets>
 </tileset>
 <imagelayer id="37" name="Ground" locked="1" repeatx="1" repeaty="1">
  <image source="../../../../../../../../My Drive/_AdventureLand/02_Creative/Tiled/Assets/Light_Grass_BG.png"/>
 </imagelayer>
 <layer id="31" name="Ground 3 - under P" width="45" height="30">
  <data encoding="csv">
0,0,0,0,4230,4229,0,0,0,0,4230,4327,4327,4327,4327,4229,0,0,0,0,0,0,0,0,0,0,0,0,0,0,0,0,0,0,0,0,0,0,0,0,0,0,0,0,0,
0,0,0,0,4130,4129,0,0,0,4230,4328,4904,4904,4904,4904,4226,0,0,0,0,0,0,0,0,0,0,0,0,0,0,0,0,0,0,0,0,0,0,0,0,0,0,0,0,0,
0,0,0,0,0,0,0,0,0,4228,4904,4126,4128,4904,4904,4226,0,0,0,0,0,4230,4229,0,0,0,0,0,0,0,0,0,0,0,0,0,0,0,0,0,0,0,0,0,0,
0,0,0,0,0,0,0,0,0,4228,4126,4129,4228,4904,4904,4226,0,0,0,0,0,4130,4129,0,0,0,0,0,0,0,0,0,0,0,0,0,0,0,0,0,0,0,0,0,0,
0,0,0,0,0,0,0,0,0,4130,4129,4230,4328,4904,4904,4226,0,0,0,0,0,0,0,0,0,0,0,0,0,0,0,0,0,0,0,0,0,0,0,0,0,0,0,0,0,
4230,4229,0,0,4230,4229,0,0,0,0,4230,4328,4904,4904,4904,4326,4229,0,0,0,0,0,0,0,0,0,0,0,0,0,0,0,0,0,0,0,0,0,0,0,0,0,0,0,0,
4130,4129,0,0,4130,4129,0,0,4230,4327,4328,4904,4904,4904,4904,4904,4226,0,0,0,0,0,0,0,0,0,0,0,0,0,0,0,0,0,0,0,0,0,0,0,0,0,0,0,0,
0,0,0,0,0,0,0,4230,4328,4904,4904,4904,4904,4904,4904,4904,4326,4229,0,0,0,0,0,0,0,4230,4229,0,0,0,0,0,0,0,0,0,0,0,0,0,0,0,0,0,0,
0,0,0,0,0,0,4230,4328,4904,4904,4904,4904,4904,4904,4904,4904,4904,4326,4327,4229,0,0,0,0,0,4130,4129,0,0,0,0,0,0,0,0,0,0,0,0,0,0,0,0,0,0,
0,0,0,4230,4327,4327,4328,4904,4904,4904,4904,4904,4904,4904,4904,4904,4904,4904,4904,4326,4229,0,0,0,0,0,0,0,0,0,0,0,0,0,0,0,0,0,0,0,0,0,0,0,0,
0,0,4230,4328,4904,4904,4904,4904,4904,4904,4904,4904,4904,4904,4904,4904,4904,4904,4904,4904,4326,4229,0,0,0,0,0,0,0,0,0,0,0,0,0,0,0,0,0,0,0,0,0,0,0,
0,4230,4328,4904,4904,4904,4904,4904,4904,4904,4904,4904,4904,4904,4904,4904,4904,4904,4904,4904,4904,4326,4327,4327,4229,0,0,0,0,0,0,0,0,0,0,0,0,0,0,0,0,0,0,0,0,
0,4228,4904,4904,4904,4904,4904,4904,4904,4904,4904,4904,4904,4904,4904,4904,4904,4904,4904,4904,4904,4904,4904,4904,4326,4229,0,0,0,0,0,0,0,0,0,0,0,0,0,0,0,0,0,0,0,
4230,4328,4904,4904,4904,4904,4904,4904,4904,4904,4904,4904,4904,4904,4904,4904,4904,4904,4904,4904,4904,4904,4904,4904,4904,4326,4229,0,0,0,0,0,0,0,0,0,0,0,0,0,0,0,0,0,0,
4130,4127,4127,4127,4127,4128,4904,4126,4127,4127,4127,4127,4127,4127,4127,4127,4127,4128,4904,4904,4904,4904,4904,4904,4904,4126,4129,0,0,0,0,0,0,0,0,0,0,0,0,0,0,0,0,0,0,
0,0,0,0,0,4130,4127,4129,0,0,0,0,0,0,0,0,0,4130,4127,4127,4127,4127,4127,4127,4127,4129,0,4230,4229,0,0,0,0,0,0,0,0,0,0,0,0,0,0,0,0,
0,0,0,0,0,0,0,0,0,0,0,0,0,0,0,4230,4229,0,0,0,0,0,0,0,0,0,0,4130,4129,0,0,0,0,0,0,0,0,0,0,0,0,0,0,0,0,
0,0,0,0,0,0,0,0,0,0,0,0,0,0,0,4130,4129,0,0,0,0,0,0,0,0,0,0,0,0,0,0,0,0,0,0,0,0,0,0,0,0,0,0,0,0,
0,0,0,0,0,0,0,0,0,0,0,0,0,0,0,0,0,0,0,0,0,0,0,0,0,0,0,0,0,0,0,0,0,0,0,0,0,0,0,0,0,0,0,0,0,
0,0,0,0,0,0,0,0,0,0,0,0,0,0,0,0,0,0,0,0,0,0,0,0,0,0,0,0,0,0,0,0,0,0,0,0,0,0,0,0,0,0,0,0,0,
0,0,0,0,0,0,0,0,0,0,0,0,0,0,0,0,0,0,0,0,0,0,0,0,0,0,0,0,0,0,0,0,0,0,0,0,0,0,0,0,0,0,0,0,0,
0,0,0,0,0,0,0,0,0,0,0,0,0,0,0,0,0,0,0,0,0,0,0,0,0,0,0,0,0,0,0,0,0,0,0,0,0,0,0,0,0,0,0,0,0,
0,0,0,0,0,0,0,0,0,0,0,0,0,0,0,0,0,0,0,0,0,0,0,0,0,0,0,0,0,0,0,0,0,0,0,0,0,0,0,0,0,0,0,0,0,
0,0,0,0,0,0,0,0,0,0,0,0,0,0,0,0,0,0,0,0,0,0,0,0,0,0,0,0,0,0,0,0,0,0,0,0,0,0,0,0,0,0,0,0,0,
0,0,0,0,0,0,0,0,0,0,0,0,0,0,0,0,0,0,0,0,0,0,0,0,0,0,0,0,0,0,0,0,0,0,0,0,0,0,0,0,0,0,0,0,0,
0,0,0,0,0,0,0,0,0,0,0,0,0,0,0,0,0,0,0,0,0,0,0,0,0,0,0,0,0,0,0,0,0,0,0,0,0,0,0,0,0,0,0,0,0,
0,0,0,0,0,0,0,0,0,0,0,0,0,0,0,0,0,0,0,0,0,0,0,0,0,0,0,0,0,0,0,0,0,0,0,0,0,0,0,0,0,0,0,0,0,
0,0,0,0,0,0,0,0,0,0,0,0,0,0,0,0,0,0,0,0,0,0,0,0,0,0,0,0,0,0,0,0,0,0,0,0,0,0,0,0,0,0,0,0,0,
0,0,0,0,0,0,0,0,0,0,0,0,0,0,0,0,0,0,0,0,0,0,0,0,0,0,0,0,0,0,0,0,0,0,0,0,0,0,0,0,0,0,0,0,0,
0,0,0,0,0,0,0,0,0,0,0,0,0,0,0,0,0,0,0,0,0,0,0,0,0,0,0,0,0,0,0,0,0,0,0,0,0,0,0,0,0,0,0,0,0
</data>
 </layer>
 <layer id="34" name="Ground 2 - under P" width="45" height="30">
  <data encoding="csv">
0,4236,4235,0,0,0,0,0,0,0,0,0,0,0,0,0,0,0,0,0,0,0,0,0,0,0,3802,4910,3804,0,0,0,0,0,0,0,0,0,0,0,0,0,0,0,0,
0,4136,4135,0,0,0,0,0,0,0,0,0,0,0,0,0,0,4236,4235,0,0,0,0,0,0,0,3802,4910,3804,0,0,0,0,0,0,0,0,0,0,0,0,0,0,0,0,
0,0,0,0,0,0,0,0,0,0,0,0,0,0,0,0,0,4136,4135,0,0,0,0,0,0,0,3802,4908,3804,0,0,0,0,0,0,0,0,0,0,0,0,0,0,0,0,
0,0,0,0,0,0,0,0,0,4236,4235,0,0,0,0,0,0,0,0,0,0,0,0,0,4236,4235,3802,4910,3804,0,0,0,0,0,0,0,0,0,0,0,0,0,0,0,0,
0,0,0,0,0,0,0,0,0,4136,4135,0,0,0,0,0,0,0,0,0,0,0,0,0,4136,4135,3902,3805,3706,3704,0,0,0,0,0,0,0,0,0,0,0,0,0,0,0,
0,0,0,0,0,0,4236,4235,0,0,0,0,0,0,0,0,0,0,0,0,0,0,0,0,0,0,0,3902,3805,3706,3703,3704,0,0,0,0,0,0,0,0,0,0,0,0,0,
0,0,0,0,0,0,4136,4135,0,0,0,0,0,0,0,0,0,0,0,0,0,0,0,0,0,0,0,0,3902,3903,3805,3706,3704,0,0,0,0,0,0,0,0,0,0,0,0,
0,0,0,0,0,0,0,0,0,4236,4235,0,0,0,4236,4235,0,0,0,0,0,4236,4235,0,0,0,0,0,0,0,3902,3805,3706,3704,0,0,0,0,0,0,0,0,0,0,0,
0,0,0,0,0,0,0,0,0,4136,4135,0,0,0,4136,4135,0,0,0,0,0,4136,4135,0,0,0,0,0,0,0,0,3902,3805,3706,3703,3704,0,0,0,0,0,0,0,0,0,
0,0,0,0,0,0,0,0,0,0,0,4236,4235,0,0,0,0,0,0,0,0,0,0,0,0,0,4236,4235,0,0,0,0,3902,3903,3805,3706,3704,0,0,0,0,0,0,0,0,
0,0,0,0,0,0,0,0,0,0,0,4136,4135,4236,4235,0,0,0,0,0,0,0,0,0,0,0,4136,4135,0,0,0,0,4236,4235,3902,3805,3706,3704,0,0,0,0,0,0,0,
0,0,0,0,0,0,0,0,4236,4333,4333,4333,4333,4334,4232,0,0,0,0,0,0,0,0,0,0,0,0,0,0,0,0,0,4136,4135,0,3902,3805,3804,0,0,0,0,0,0,0,
0,0,0,0,0,0,0,0,4234,4132,4133,4133,4133,4133,4135,0,0,0,0,0,0,0,0,0,0,0,0,0,0,0,0,0,0,0,0,0,3802,3706,3704,0,0,0,0,0,0,
4236,4235,0,0,0,0,0,0,4136,4135,0,0,0,0,0,0,0,0,0,0,0,0,0,0,0,0,0,0,0,0,0,0,0,0,0,0,3902,3805,3804,0,0,0,0,0,0,
4136,4135,0,0,0,0,0,0,0,0,0,0,0,0,0,0,0,0,0,0,0,0,0,0,0,0,0,0,0,0,0,0,0,0,0,0,0,3802,3804,0,0,0,0,0,0,
0,0,0,0,4622,4718,4720,4621,4522,4721,4722,0,0,0,0,0,0,0,0,0,0,0,0,0,0,0,0,0,0,0,0,0,4236,4235,0,0,0,3802,3804,0,0,0,0,0,0,
4721,4719,4719,4722,4620,4724,4525,4718,4719,4720,4718,4722,4622,4618,0,0,0,0,0,0,0,0,4236,4235,0,0,0,0,0,0,0,0,4136,4135,0,0,0,3902,3904,0,0,0,0,0,0,
4720,4624,4625,4718,4720,4724,4525,4524,4625,4725,4625,4618,4522,4721,4720,0,0,0,0,0,0,0,4136,4135,0,0,0,0,0,0,0,0,0,0,0,0,0,0,0,0,0,0,0,0,0,
4520,4524,4524,4625,4525,4625,4724,4725,4725,4524,4525,4718,4719,4720,4525,4618,0,0,0,0,0,0,0,0,0,0,4722,4622,4621,0,0,0,0,0,4522,4721,4722,4721,4722,0,4622,4618,4522,4721,4722,
4620,4518,4519,4519,4519,4519,4519,4519,4519,4519,4520,4625,4524,4724,4524,4718,4719,4719,4719,4719,4719,4719,4719,4719,4719,4720,4718,4720,4718,4719,4719,4719,4719,4719,4719,4720,4618,4522,4721,4722,4622,4718,4722,4522,4721,
4522,4718,4720,0,0,0,0,0,0,0,4522,4519,4519,4520,4625,4518,4520,4624,4525,4724,4525,4625,4525,4725,4524,4624,4625,4525,4518,4519,4519,4519,4519,4519,4519,4519,4721,4719,4720,4718,4720,4725,4718,4719,4720,
0,7959,7960,0,0,0,0,0,0,7959,7960,0,0,4522,4519,4521,4620,4524,4725,4524,4724,4625,4525,4625,4624,4625,4624,4724,4718,4719,4719,4719,4719,4719,4719,4719,4720,4725,4524,4625,4725,4725,4525,4624,4625,
0,8059,8060,0,0,0,0,0,0,8059,8060,0,0,0,0,0,4522,4519,4519,4519,4519,4519,4519,4519,4519,4519,4519,4519,4519,4519,4519,4519,4519,4519,4519,4519,4519,4519,4519,4519,4519,4519,4519,4519,4519,
0,8159,8160,0,0,0,0,0,0,8159,8160,0,0,0,0,0,0,0,0,0,0,0,0,0,0,0,0,0,0,0,0,0,0,0,0,0,0,0,0,0,0,0,0,0,0,
0,8259,8260,0,0,3702,3704,0,0,8259,8260,0,0,0,0,0,0,0,0,0,0,0,0,0,0,0,0,0,0,0,0,0,0,0,0,0,0,0,0,0,0,0,0,0,0,
0,0,0,0,0,3802,3804,0,0,8263,8264,0,0,0,0,0,0,0,0,0,0,0,0,0,0,0,0,0,0,0,0,0,0,0,0,0,0,0,0,0,0,0,0,0,0,
0,0,0,0,0,3802,3706,3703,3704,0,0,0,0,0,0,0,3702,3703,3703,3703,3704,3702,3703,3703,3703,3703,3703,3703,3703,3703,3703,3704,0,0,0,0,0,3702,3704,0,0,0,0,0,0,
0,0,0,0,0,3902,3903,3903,3906,3703,3703,3703,3703,3703,3703,3703,3905,3903,3903,3805,3706,3705,4910,3806,3903,3903,3903,3903,3903,3805,4910,3706,3703,3703,3703,3703,3703,3705,3804,0,0,0,0,0,0,
0,0,0,0,0,0,0,0,3902,3903,3903,3903,3903,3903,3903,3903,3904,0,0,3902,3903,3903,3903,3904,0,0,0,0,0,3902,3903,3903,3903,3903,3903,3903,3903,3805,3804,0,0,0,0,0,0,
0,0,0,0,0,0,0,0,0,0,0,0,0,0,0,0,0,0,0,0,0,0,0,0,0,0,0,0,0,0,0,0,0,0,0,0,0,3802,3804,0,0,0,0,0,0
</data>
 </layer>
 <layer id="36" name="Ground 1 - under P" width="45" height="30">
  <data encoding="csv">
0,0,0,0,0,0,0,0,0,0,0,0,0,0,0,0,0,0,0,0,0,0,0,0,0,0,0,0,0,0,0,0,0,0,0,0,0,0,0,1851,0,0,0,0,0,
1626,1627,0,0,0,0,0,0,0,0,0,1626,1627,0,0,0,0,0,0,0,0,0,0,933,934,935,0,0,0,0,0,0,0,0,0,0,0,0,0,1951,0,0,0,0,0,
1726,1727,0,0,0,0,0,0,0,0,0,1726,1727,0,0,0,0,0,0,0,0,0,0,1033,1034,1035,0,0,0,0,0,0,0,0,0,0,0,0,0,0,0,0,0,0,0,
0,1626,1627,0,0,0,1826,1827,0,0,0,0,0,0,0,0,0,0,0,0,0,0,0,0,0,0,0,0,0,0,0,0,0,0,0,0,0,0,0,0,0,0,0,0,0,
0,1726,1727,0,0,2147485181,1926,1927,0,0,0,0,0,0,0,0,0,0,0,0,0,0,0,0,0,0,0,0,0,0,0,0,0,0,0,0,0,1826,1827,0,0,0,0,0,0,
0,1433,1434,0,0,0,0,0,0,1533,0,0,0,0,0,0,0,0,0,0,1626,1627,0,0,0,0,0,0,0,0,0,0,0,0,0,0,0,1926,1927,0,0,0,0,0,0,
0,0,0,0,0,0,1626,1627,0,0,0,0,0,0,0,0,0,0,0,0,1726,1727,0,0,0,0,0,0,0,0,0,0,0,0,0,0,0,0,0,0,0,0,0,0,0,
0,0,0,0,0,0,1726,1727,0,0,0,0,0,1626,1627,0,0,0,0,0,0,0,0,0,0,0,0,0,0,0,0,0,0,0,0,0,0,0,0,0,0,0,0,0,0,
0,0,0,0,0,0,0,0,0,0,0,0,0,1726,1727,0,0,0,0,1826,1827,0,0,0,0,0,0,0,0,0,0,0,0,0,0,0,0,0,0,0,0,0,0,0,0,
0,0,0,0,0,0,0,0,0,0,0,0,0,0,0,0,2147485082,2147485081,0,1926,1927,0,0,0,0,0,0,0,0,0,0,0,0,0,0,0,0,0,0,0,0,0,0,0,0,
0,0,0,0,0,0,1826,1827,0,0,0,0,0,0,0,0,0,0,0,0,0,0,0,0,0,0,0,0,0,0,0,0,0,0,0,0,0,0,0,0,0,0,0,0,0,
0,0,0,0,0,0,1926,1927,0,0,0,0,0,0,0,0,0,0,0,1533,0,0,0,0,0,0,0,1626,1627,0,0,0,0,0,0,0,0,0,0,0,0,0,0,0,0,
0,0,1433,1434,0,0,930,931,932,608,0,0,0,0,0,0,0,0,0,0,0,0,0,0,0,1133,1134,1135,1727,0,0,0,0,0,0,0,0,0,0,0,0,0,0,0,0,
0,0,0,0,0,0,1030,1031,1032,708,0,0,0,0,0,0,0,0,0,0,0,0,0,0,1534,1233,1234,1235,0,0,0,0,0,0,0,0,0,0,0,0,0,0,0,0,0,
0,0,0,0,0,0,0,0,0,808,0,0,0,0,1125,1126,1127,1128,1129,0,0,2147484580,2147484579,2147484578,0,1333,1334,1335,0,0,0,0,0,0,0,0,0,0,0,0,0,0,0,0,0,
0,0,0,0,5108,5109,5109,5109,5109,5109,5110,0,0,0,1225,1226,1227,1228,1229,0,0,2147484680,2147484679,2147484678,0,0,0,0,0,0,0,0,0,0,0,0,0,0,0,0,0,0,0,0,0,
5109,5109,5109,5109,5111,0,0,0,0,0,5112,5109,5109,5110,0,0,0,0,0,0,0,0,0,0,0,0,0,0,0,0,0,0,0,0,0,0,0,0,0,0,0,0,0,0,0,
0,0,0,0,0,0,0,0,0,0,0,0,0,5112,5110,0,0,0,0,0,0,0,0,0,0,0,0,0,0,0,0,0,0,0,0,0,0,0,0,0,0,0,0,0,0,
0,0,0,0,0,0,0,0,0,0,0,0,0,0,5112,5110,0,0,0,0,0,0,0,0,0,0,5108,5109,5109,5110,0,0,0,5108,5109,5109,5109,5109,5109,5109,5109,5109,5109,5109,5109,
0,0,0,5309,5309,5309,5309,5309,5309,5309,5211,0,0,0,0,5112,5109,5109,5109,5109,5109,5109,5109,5109,5109,5109,5111,0,0,5112,5109,5109,5109,5111,0,0,0,0,0,0,0,0,0,0,0,
5309,5309,5310,0,0,0,0,0,0,0,5308,5309,5309,5211,0,0,0,0,0,0,0,0,0,0,0,0,0,0,0,0,0,0,0,0,0,0,0,0,0,0,0,0,0,0,0,
0,0,0,0,0,0,0,0,0,0,0,0,0,5308,5309,5309,5211,0,0,0,0,0,0,0,0,0,0,0,0,0,0,0,0,0,0,0,0,0,0,0,0,0,0,0,0,
0,0,7948,7949,7950,0,0,7953,7954,7955,0,0,0,0,0,0,5308,5309,5309,5309,5309,5309,5309,5309,5309,5309,5309,5309,5309,5309,5309,5309,5309,5309,5309,5309,5309,5309,5309,5309,5309,5309,5309,5309,5309,
0,0,8048,8049,8050,0,0,8053,8054,8055,0,0,0,0,0,0,0,0,0,0,0,0,0,0,0,0,0,0,0,0,0,0,0,0,0,0,0,0,0,0,0,0,0,0,0,
0,0,8148,8149,8150,0,0,8153,8154,8155,0,0,0,0,0,0,0,0,0,0,1241,0,0,0,0,0,0,0,0,0,0,0,0,0,0,0,0,0,0,0,0,0,0,0,0,
0,1240,8248,8249,8250,0,0,8253,8254,8255,0,0,1239,0,0,0,0,0,0,0,0,0,0,0,1240,0,0,0,0,0,0,0,0,0,0,0,0,0,0,0,0,0,0,0,0,
0,0,0,0,0,0,0,0,0,0,0,0,0,0,0,0,0,0,0,0,0,0,0,0,0,0,0,0,0,0,0,0,0,0,0,0,0,0,0,0,0,0,0,0,0,
0,0,0,0,0,0,0,0,0,0,0,0,0,0,0,0,0,0,0,0,0,0,0,0,0,0,0,0,0,0,0,0,0,0,0,0,0,0,0,0,0,0,0,0,0,
0,0,0,0,0,0,0,0,0,0,0,0,0,0,0,0,0,0,0,0,0,0,0,0,0,0,0,0,0,0,0,0,0,0,0,0,0,0,0,0,1315,1316,1317,0,0,
0,0,0,0,0,0,0,0,0,0,0,0,0,0,0,0,0,0,0,0,0,0,0,0,0,0,0,0,0,0,0,0,0,0,0,0,0,0,0,1241,1415,1416,1417,0,0
</data>
 </layer>
 <layer id="29" name="Decorations 1 - P level" width="45" height="30">
  <data encoding="csv">
0,0,0,0,0,0,0,0,0,0,0,0,0,0,0,0,0,0,0,0,0,0,0,0,0,0,0,0,0,0,0,0,0,0,0,0,0,0,0,0,0,0,0,0,0,
0,0,0,0,0,0,0,0,0,0,0,0,0,0,133,0,0,0,0,0,0,0,0,0,0,0,0,0,0,0,0,0,0,0,0,0,0,0,0,0,0,0,0,0,0,
0,0,0,0,0,0,0,0,0,0,0,0,0,0,233,0,0,0,0,0,0,0,0,0,0,0,0,0,0,0,0,0,0,0,0,0,0,0,0,832,833,0,0,0,0,
0,0,0,0,0,0,0,0,0,0,0,0,0,0,333,0,0,0,0,0,0,0,0,0,0,0,0,0,0,0,0,0,0,0,0,0,0,0,0,1169,1170,1171,0,0,0,
0,0,0,0,0,0,0,0,0,0,0,0,0,0,433,0,0,0,0,0,0,0,0,0,0,0,0,0,0,0,0,0,0,0,0,0,0,0,0,1269,1270,1271,0,0,0,
0,0,0,0,0,0,0,0,0,0,0,0,0,0,0,0,0,0,0,0,0,0,0,0,0,0,0,0,0,0,0,0,0,0,0,0,0,0,0,0,0,0,0,0,0,
0,0,0,0,0,0,0,0,0,0,0,0,0,0,0,0,0,0,0,0,0,0,0,0,0,0,0,0,0,0,0,0,0,1862,1863,0,0,0,0,0,0,0,0,0,0,
0,0,0,0,0,0,0,0,0,0,0,0,0,0,0,734,735,736,737,738,739,0,0,0,0,0,0,0,0,0,0,0,0,1962,1963,0,0,0,0,0,0,0,0,0,0,
0,0,0,0,0,0,0,2147484392,2147484391,0,0,0,0,0,0,834,835,836,837,838,839,0,0,0,0,0,0,0,0,0,0,0,0,0,0,0,0,0,0,0,0,0,0,0,0,
0,0,0,0,0,0,0,2147484492,2147484491,0,0,0,0,0,0,0,0,0,0,0,0,0,0,0,0,0,0,0,0,0,0,0,0,0,0,0,0,0,0,0,0,0,0,0,0,
0,0,0,0,0,0,0,0,0,0,740,741,742,0,0,0,0,0,0,0,0,0,0,0,0,0,0,0,0,0,0,0,0,0,0,0,0,0,0,0,0,0,0,0,0,
0,0,0,0,0,0,0,0,0,0,840,841,842,0,0,0,0,0,0,0,0,0,0,0,0,0,0,0,0,0,0,0,0,0,0,0,0,0,0,0,0,0,0,0,0,
0,0,0,0,0,0,0,0,0,0,0,0,0,0,0,0,0,0,0,0,0,0,0,0,0,0,0,0,0,0,0,0,0,0,0,0,0,0,0,822,823,824,825,0,0,
0,0,0,0,0,0,0,0,0,0,0,0,0,0,0,0,0,0,0,0,0,0,0,0,0,0,0,0,0,743,744,0,0,0,0,0,0,0,0,0,0,0,0,0,0,
0,0,0,0,0,0,0,0,0,0,0,0,0,0,0,0,0,0,0,0,0,0,0,0,0,0,0,0,0,843,844,0,0,0,0,0,0,0,0,0,0,0,0,0,0,
0,0,0,0,0,0,0,0,0,0,0,0,0,0,0,0,0,0,0,0,0,0,0,0,0,0,0,0,0,0,0,0,0,0,0,0,0,0,0,0,0,0,0,0,0,
0,0,0,0,0,0,0,0,0,0,0,0,0,0,0,0,0,0,0,0,0,0,0,0,0,0,0,0,0,0,0,0,0,0,0,0,0,0,0,0,0,1437,1438,0,0,
0,0,0,0,0,0,0,0,0,0,0,0,0,0,0,0,0,0,0,0,0,0,0,0,0,0,0,0,0,0,0,0,0,0,0,0,0,0,0,0,0,0,0,0,0,
0,0,0,0,0,0,0,0,0,0,0,0,0,0,0,0,0,0,0,0,0,0,0,0,0,0,0,0,0,0,0,0,0,0,0,0,0,0,0,0,0,0,0,0,0,
0,0,1339,1340,0,0,0,0,1341,1342,0,0,0,0,0,0,0,0,0,0,0,0,0,0,0,0,0,0,0,0,0,0,0,0,0,0,0,0,0,0,0,0,0,0,0,
0,0,1439,1440,0,0,0,0,1441,1442,0,0,0,0,0,0,0,0,0,0,0,0,0,0,0,0,0,0,0,0,0,0,0,0,0,0,0,0,0,0,0,0,0,0,0,
0,0,1539,1540,0,0,0,0,1541,1542,0,2903,2904,2905,0,0,0,0,0,0,0,0,0,0,0,0,0,0,0,0,0,0,0,0,0,0,0,0,0,0,0,0,0,0,0,
0,0,0,0,0,0,0,0,0,0,0,3003,3004,3005,0,0,0,0,0,0,0,0,0,0,0,0,0,0,0,0,0,0,0,0,0,0,0,0,0,0,0,0,0,0,0,
1435,1436,0,0,0,0,0,0,0,0,0,3103,3104,3105,0,0,0,0,0,0,0,0,0,0,0,0,0,0,0,0,0,0,0,0,0,0,0,0,0,0,0,0,0,0,0,
0,0,0,0,0,0,0,0,0,0,0,0,0,0,0,0,0,719,720,721,0,603,720,0,0,826,827,828,1236,1237,1238,0,0,0,0,0,0,0,0,0,0,0,0,0,0,
0,0,0,1826,1827,0,0,0,0,0,0,0,0,0,732,733,0,819,820,821,0,819,820,821,0,0,0,0,1336,1337,1338,0,729,730,731,0,0,0,0,0,0,732,733,0,0,
0,0,0,1926,1927,0,0,0,0,0,0,0,0,0,832,833,1133,1134,1135,0,0,0,0,0,0,0,0,0,0,0,0,0,829,830,831,0,0,0,0,0,0,832,833,0,0,
0,0,0,0,0,0,0,0,0,0,0,0,0,0,0,0,1233,1234,1235,0,0,0,0,0,0,0,0,0,0,0,0,0,0,0,0,0,0,0,0,0,0,0,0,0,0,
0,0,0,0,0,0,0,0,0,0,0,0,0,0,0,0,1333,1334,1335,0,0,0,0,0,1435,1436,832,833,1240,0,0,0,0,0,0,0,0,0,0,0,0,0,0,0,0,
0,0,0,0,0,0,0,0,0,0,0,0,0,0,0,0,0,0,0,0,0,0,0,0,0,0,0,0,0,0,0,0,0,0,0,0,0,0,0,0,0,0,0,0,0
</data>
 </layer>
 <layer id="32" name="Objects - Player level" width="45" height="30">
  <data encoding="csv">
0,0,0,0,0,0,0,0,0,0,0,0,0,0,0,0,0,0,0,0,0,0,0,0,0,0,0,0,0,0,0,0,0,0,0,0,0,0,0,0,0,0,0,4347,4348,
0,0,0,0,0,0,0,0,0,0,0,0,0,0,0,0,0,0,0,0,0,0,0,0,0,0,0,0,0,0,0,0,0,0,0,0,0,0,0,0,0,0,0,4447,4448,
0,0,0,0,0,0,0,0,0,0,0,0,0,0,0,0,0,0,0,0,0,0,0,0,0,0,0,0,0,0,0,0,0,0,2046,2047,2048,2049,2050,2051,0,0,0,4547,4548,
0,0,0,743,744,0,0,0,0,0,0,0,0,0,0,0,0,0,0,0,0,0,0,0,0,0,0,0,0,0,0,0,0,0,2146,2147,2148,2149,2150,2151,0,0,0,4647,4648,
0,0,0,843,844,0,0,0,0,0,0,0,0,0,0,0,0,0,0,0,0,0,0,0,0,0,0,0,0,0,0,0,0,0,2246,2247,2248,2249,2250,2251,0,0,0,4947,4948,
0,0,0,0,0,0,0,2147484390,2147484389,2147484388,0,0,0,2147484392,2147484391,0,0,0,0,0,0,0,0,0,0,0,0,0,0,0,0,0,0,0,0,0,0,0,0,0,0,0,0,5047,5048,
0,0,0,0,0,0,0,2147484490,2147484489,2147484488,0,0,0,2147484492,2147484491,0,0,0,0,0,0,0,0,0,0,0,0,0,0,0,0,0,0,0,0,0,0,0,0,0,0,0,0,5147,5148,
0,0,0,0,0,0,0,0,0,0,0,0,0,0,0,0,0,0,0,0,0,0,0,0,0,0,0,0,0,0,0,0,0,0,0,0,0,0,0,0,0,0,0,5247,5248,
0,0,0,0,0,0,0,0,0,0,0,0,0,0,0,0,0,0,0,0,0,0,0,0,0,0,0,0,0,0,0,0,0,0,0,1036,1037,1038,1039,0,0,0,0,4947,4948,
0,0,0,0,0,0,0,0,0,0,0,0,0,0,0,0,0,0,0,0,0,0,0,0,0,0,0,0,0,0,0,0,0,0,0,1136,1137,1138,1139,0,0,0,0,5047,5048,
0,0,0,0,0,0,0,0,0,0,0,0,0,0,0,0,0,0,0,0,0,0,0,740,741,742,0,0,0,0,0,0,0,0,0,0,0,0,0,0,0,0,0,5147,5148,
0,0,0,0,0,0,0,0,0,0,0,0,0,0,0,0,0,0,0,0,0,0,0,840,841,842,0,0,0,0,0,0,0,0,0,0,0,0,0,0,0,0,0,5247,5248,
735,736,737,738,739,0,0,0,0,0,0,0,0,0,0,0,0,0,0,0,0,0,0,0,0,0,0,0,0,0,0,0,0,0,0,0,0,0,0,0,0,0,0,4947,4948,
835,836,837,838,839,0,0,0,0,0,0,0,0,0,0,0,0,0,0,0,0,0,0,0,0,0,0,0,0,0,0,0,0,0,0,0,0,0,0,0,0,0,0,5047,5048,
0,0,0,0,0,0,0,0,0,0,0,0,0,0,0,0,0,0,0,0,0,0,0,0,0,0,0,0,0,0,0,0,0,0,0,0,0,0,0,0,0,0,0,5147,5148,
0,0,0,0,0,0,0,0,0,0,0,0,0,0,0,0,0,0,0,0,0,0,0,0,0,0,0,0,0,0,0,0,0,0,0,0,4387,4388,4391,4392,0,0,0,5247,5248,
0,0,0,0,0,0,0,0,0,0,0,0,0,0,0,0,0,0,0,0,0,0,0,0,0,0,0,0,0,0,0,0,0,0,0,0,4487,4488,4491,4492,0,0,0,5547,5548,
0,0,0,0,0,0,0,0,0,0,0,0,0,0,0,0,0,0,0,0,0,0,0,0,0,0,0,0,0,0,0,0,0,0,0,0,4587,4588,4591,4592,0,0,0,5647,5648,
0,0,0,0,0,0,0,0,0,0,0,0,0,0,0,0,0,0,0,0,0,0,0,0,0,0,0,0,0,0,0,0,0,0,0,0,4687,4688,4691,4692,0,0,0,5747,5748,
0,7959,7960,0,0,0,0,0,0,7959,7960,0,0,0,0,0,0,0,0,0,0,0,0,0,0,0,0,0,0,0,0,0,0,0,0,0,4787,4788,4791,4792,0,0,0,5847,5848,
0,8059,8060,0,0,0,0,0,0,8059,8060,0,0,0,0,0,0,0,0,0,0,0,0,0,0,0,0,0,0,0,0,0,0,0,0,0,4887,4888,4891,4892,0,0,0,0,0,
0,8159,8160,0,0,0,0,0,0,8159,8160,0,0,0,0,0,0,0,0,0,0,0,0,0,0,0,0,0,0,0,0,0,0,0,0,0,4987,4988,4991,4992,0,0,0,4347,4348,
0,8259,8260,0,6750,6751,6752,6753,0,8259,8260,0,0,0,0,0,0,0,0,0,0,0,0,0,0,0,0,0,0,0,0,0,0,0,0,0,5087,5088,5091,5092,0,0,0,4447,4448,
0,0,0,0,6850,6851,6852,6853,0,0,0,0,0,0,0,0,0,0,0,0,0,0,0,0,0,0,0,0,0,0,0,0,0,0,0,0,5187,5188,5191,5192,0,0,0,4547,4548,
0,0,0,0,6950,6951,6952,6953,0,0,0,0,0,0,0,0,0,0,0,0,0,0,0,0,0,0,0,0,0,0,0,0,0,0,0,0,5287,5288,5291,5292,0,0,0,4647,4648,
0,0,0,0,7050,7051,7052,7053,0,0,0,0,0,0,0,0,0,0,0,0,0,0,0,0,0,0,0,0,0,0,0,0,0,0,0,0,5387,5388,5391,5392,0,0,0,4947,4948,
0,0,0,0,0,0,0,0,0,0,0,0,0,0,0,0,0,0,0,0,0,0,0,0,0,0,0,0,0,0,0,0,0,0,0,0,5487,5488,5491,5492,0,0,0,5547,5548,
0,0,0,0,0,0,0,0,0,0,0,0,0,0,0,0,0,0,0,0,0,0,0,0,0,0,0,0,0,0,0,0,0,0,0,0,0,0,0,0,0,0,0,5647,5648,
0,0,0,0,0,0,0,0,0,0,0,0,0,0,0,0,0,0,0,0,0,0,0,0,0,0,0,0,0,0,0,0,0,0,0,0,0,0,0,0,0,0,0,5747,5748,
0,0,0,0,0,0,0,0,0,0,0,0,0,0,0,0,0,0,0,0,0,0,0,0,0,0,0,0,0,0,0,0,0,0,0,0,0,0,0,0,0,0,0,5847,5848
</data>
 </layer>
 <layer id="30" name="Decorations 2 - OverP" width="45" height="30">
  <data encoding="csv">
0,0,0,0,0,0,0,0,0,0,0,0,0,0,0,0,0,0,0,0,0,0,0,0,0,0,0,0,0,0,0,0,0,0,1846,1847,1848,1849,1850,0,0,0,0,0,0,
0,0,0,0,0,0,0,0,0,0,0,0,0,0,0,134,135,136,137,138,139,0,0,0,0,0,0,0,0,0,0,0,0,0,1946,1947,1948,1949,1950,0,0,0,0,0,0,
0,0,0,0,0,0,0,0,0,0,0,0,0,2147484092,2147484091,234,235,236,237,238,239,0,0,0,0,0,0,0,0,0,0,0,0,0,0,0,0,0,0,0,0,0,0,0,0,
0,0,0,1736,0,0,0,0,0,0,0,0,0,2147484192,2147484191,334,335,336,337,338,339,0,0,0,0,0,0,0,0,0,0,0,0,0,0,0,0,0,0,0,0,0,0,0,0,
0,0,0,0,0,0,0,0,0,0,0,0,0,2147484292,2147484291,434,435,436,437,438,439,0,0,0,0,0,0,0,0,0,0,0,0,0,0,0,0,0,0,0,0,0,0,0,0,
0,0,0,0,0,0,0,2147484092,2147484091,0,240,241,242,0,0,534,535,536,537,538,539,0,0,0,0,0,0,0,0,0,0,0,0,0,0,0,0,0,0,122,123,124,125,0,0,
135,136,137,138,139,0,0,2147484192,2147484191,0,340,341,342,0,0,634,635,636,637,638,639,0,0,1636,0,0,0,0,0,0,0,0,0,0,0,0,0,0,0,222,223,224,225,0,0,
235,236,237,238,239,0,0,2147484292,2147484291,0,440,441,442,0,0,0,0,0,0,0,0,0,0,0,0,0,0,0,0,0,0,0,0,0,0,0,0,0,0,322,323,324,325,0,0,
335,336,337,338,339,0,0,0,0,0,540,541,542,0,0,0,0,0,0,0,0,0,0,0,0,0,0,0,0,0,0,0,0,0,0,0,0,0,0,422,423,424,425,0,0,
435,436,437,438,439,0,0,0,0,0,640,641,642,0,0,0,0,0,0,0,0,0,0,0,0,1936,0,0,0,0,0,0,0,0,0,0,0,0,0,522,523,524,525,0,0,
535,536,537,538,539,0,0,0,0,0,0,0,0,0,0,0,0,0,0,0,0,0,0,0,0,0,0,0,0,0,0,0,0,0,0,0,0,0,0,622,623,624,625,0,0,
635,636,637,638,639,0,0,0,0,0,0,0,0,0,0,0,0,0,0,0,0,0,0,0,0,0,0,0,0,0,0,0,0,0,0,0,0,0,0,722,723,724,725,0,0,
0,0,0,0,0,0,0,0,0,0,0,0,0,0,925,926,927,928,929,0,0,0,0,0,0,0,0,0,0,0,1736,0,0,0,0,0,0,0,0,0,0,0,0,0,0,
0,0,0,0,0,0,0,0,0,0,0,0,0,0,1025,1026,1027,1028,1029,0,0,0,0,0,0,0,0,0,0,0,0,0,0,0,0,0,0,0,0,0,0,0,0,0,0,
0,0,0,0,0,0,0,0,0,0,0,0,0,0,0,0,0,0,0,0,0,0,0,0,0,0,0,0,0,0,0,0,0,0,0,0,0,0,0,0,0,0,0,0,0,
0,0,0,0,0,0,0,0,0,0,0,0,0,0,0,0,0,0,0,0,0,0,0,0,0,0,0,0,0,0,0,3795,0,0,0,0,0,0,0,0,0,0,0,0,0,
0,0,0,0,0,0,0,0,0,0,0,0,0,0,0,0,0,0,0,0,0,0,0,0,0,0,0,0,0,0,0,0,0,0,0,0,0,0,0,0,0,0,0,0,0,
0,0,0,0,0,0,0,0,0,0,0,0,0,0,0,0,0,0,0,0,0,0,0,0,0,0,0,0,0,0,0,0,0,0,0,0,0,0,0,0,0,0,0,0,0,
0,0,0,0,0,0,0,0,0,0,0,0,0,0,0,0,0,0,0,0,0,0,0,0,0,0,0,0,0,0,0,0,0,0,0,0,0,0,0,0,0,0,0,0,0,
0,0,0,0,0,0,0,0,0,0,0,0,0,0,0,0,0,0,0,0,0,0,0,0,0,0,0,0,0,0,0,0,0,0,0,0,0,0,0,0,0,0,0,0,0,
0,0,0,0,0,0,0,0,0,0,0,0,0,0,0,0,0,0,0,0,0,0,0,0,0,426,427,428,0,0,0,0,0,0,0,0,0,0,0,0,0,0,0,0,0,
0,0,0,0,0,0,0,0,0,0,0,0,0,0,0,0,0,419,420,421,0,0,0,0,0,526,527,528,0,0,0,0,0,0,0,0,0,0,0,0,0,0,0,0,0,
0,0,0,0,0,0,0,0,0,0,0,0,0,0,0,0,0,519,520,521,0,0,0,0,0,626,627,628,0,0,0,0,0,0,0,0,0,0,0,0,0,0,0,0,0,
0,0,0,0,0,0,0,0,0,0,0,0,0,0,0,0,0,619,620,621,0,0,0,0,0,726,727,728,0,0,0,0,0,0,0,0,0,0,0,0,0,0,0,0,0,
0,0,0,0,0,0,0,0,0,0,0,0,0,0,0,0,0,0,0,0,0,0,0,0,0,0,0,0,0,0,0,0,0,0,0,0,0,0,0,0,0,0,0,0,0,
0,0,0,0,0,0,0,0,0,0,0,0,0,0,0,0,0,0,0,0,0,0,0,0,0,0,532,533,0,0,0,0,0,0,0,0,0,0,0,0,0,0,0,0,0,
0,0,0,0,0,0,0,0,0,0,0,0,0,0,0,0,0,0,0,0,0,0,0,0,0,0,632,633,0,0,0,0,0,0,0,0,0,0,0,0,0,0,0,0,0,
0,0,0,0,0,0,0,0,0,0,0,0,0,0,0,0,0,0,0,0,0,0,0,0,0,0,732,733,0,0,0,0,0,0,0,0,0,0,0,0,0,0,0,0,0,
0,0,0,0,0,0,0,0,0,0,0,0,0,0,0,0,0,0,0,0,0,0,0,0,0,0,0,0,0,0,0,0,0,0,0,0,0,0,0,0,0,0,0,0,0,
0,0,0,0,0,0,0,0,0,0,0,0,0,0,0,0,0,0,0,0,0,0,0,0,0,0,0,0,0,0,0,0,0,0,0,0,0,0,0,0,0,0,0,0,0
</data>
 </layer>
 <layer id="33" name="Decorations 3 - OverP" width="45" height="30">
  <data encoding="csv">
0,0,0,443,444,0,0,2147483890,2147483889,2147483888,0,0,0,0,0,0,0,0,0,0,0,0,0,0,0,0,0,0,0,0,0,0,0,0,0,0,0,0,0,632,633,0,0,0,0,
0,0,0,543,544,0,0,2147483990,2147483989,2147483988,0,0,0,0,0,0,0,0,0,0,1936,0,0,0,0,0,0,0,0,0,0,0,0,0,0,0,0,0,0,732,733,0,0,0,0,
0,0,0,643,644,0,0,2147484090,2147484089,2147484088,0,0,0,0,0,1634,1635,0,0,0,0,0,0,0,0,0,0,0,0,0,0,0,0,0,0,0,0,0,0,0,0,0,0,0,0,
0,0,0,0,0,0,0,2147484190,2147484189,2147484188,0,0,0,0,0,1734,1735,0,0,0,0,0,0,0,0,0,0,0,0,0,0,0,0,0,0,0,0,0,0,0,0,0,0,0,0,
0,0,0,0,0,0,0,2147484290,2147484289,2147484288,0,0,0,0,0,0,0,0,0,0,0,0,0,0,0,0,0,0,0,0,0,0,0,0,0,0,0,0,0,0,0,0,0,0,0,
0,1433,1434,0,0,0,0,0,0,0,0,0,0,0,0,0,0,0,0,0,0,0,0,240,241,242,0,0,0,0,0,0,0,0,0,0,0,0,0,0,0,0,0,0,0,
0,0,0,0,0,0,0,0,0,0,0,0,0,0,0,0,0,1639,1640,0,0,0,0,340,341,342,0,0,0,0,0,0,0,0,0,0,0,0,0,0,0,0,0,0,0,
0,0,0,1639,1640,0,0,0,0,0,0,0,1936,0,0,0,0,1739,1740,0,0,0,0,440,441,442,0,0,0,0,0,0,0,0,0,936,937,938,939,0,0,0,0,0,0,
0,0,0,1739,1740,0,0,0,0,0,1836,0,0,0,0,0,0,0,0,0,0,0,0,540,541,542,0,0,0,0,0,0,0,0,0,0,0,0,0,0,0,0,0,0,0,
0,0,0,0,0,0,0,0,0,0,0,0,0,0,0,0,0,0,0,0,0,0,0,640,641,642,0,0,0,0,0,0,0,0,0,0,0,0,0,0,0,0,0,0,0,
1841,1842,0,0,0,0,0,0,0,0,0,0,0,0,0,0,0,0,0,0,0,0,0,0,0,0,0,0,0,443,444,0,0,0,0,0,0,0,0,0,0,0,0,0,0,
1941,1942,0,0,0,0,0,0,0,0,0,0,0,0,0,0,0,0,0,0,0,0,0,0,0,0,0,0,0,543,544,0,0,0,0,0,0,0,0,0,0,0,0,0,0,
0,0,0,0,0,0,0,0,0,0,0,0,0,0,0,0,0,0,0,0,0,0,0,0,0,0,0,0,0,643,644,0,0,0,0,0,0,0,0,0,0,0,0,0,0,
0,0,0,0,0,0,0,0,0,0,0,0,0,0,0,0,0,0,0,0,0,0,0,0,0,0,0,0,0,0,0,0,0,0,0,0,0,0,0,0,0,0,0,0,0,
0,0,0,0,0,0,0,0,0,0,0,0,0,0,0,0,0,0,0,0,0,0,0,0,0,0,0,0,0,0,0,0,0,0,0,0,0,0,0,0,0,0,0,0,0,
0,0,0,0,0,0,0,0,0,0,0,0,0,0,0,0,0,0,0,0,0,0,0,0,0,0,0,0,0,0,0,0,0,0,0,0,0,0,0,0,0,0,0,0,0,
0,0,0,0,0,0,0,0,0,0,0,0,0,0,0,0,0,0,0,0,0,0,0,0,0,0,0,0,0,0,0,0,0,0,0,0,0,0,0,0,0,0,0,0,0,
0,0,0,0,0,0,0,0,0,0,0,0,0,0,0,0,0,0,0,0,0,0,0,0,0,0,0,0,0,0,0,0,0,0,0,0,0,0,0,0,0,0,0,0,0,
0,0,0,0,0,0,0,0,0,0,0,0,0,0,0,0,0,0,0,0,0,0,0,0,0,0,0,0,0,0,0,0,0,0,0,0,0,0,0,0,0,0,0,0,0,
0,0,0,0,0,0,0,0,0,0,0,0,0,0,0,0,0,0,0,0,0,0,0,0,0,0,0,0,0,0,0,0,0,0,0,0,0,0,0,0,0,0,0,0,0,
0,0,0,0,0,0,0,0,0,0,0,0,0,0,0,0,0,0,0,0,0,0,0,0,0,0,0,0,0,0,0,0,229,230,231,0,0,0,0,0,0,0,0,0,0,
0,0,0,0,0,0,0,0,0,0,0,0,0,0,0,0,0,0,0,0,0,0,0,0,0,0,0,0,0,0,0,0,329,330,331,0,0,0,0,0,0,0,0,0,0,
0,0,0,0,0,0,0,0,0,0,0,0,0,0,0,0,0,0,0,0,0,419,420,421,0,0,0,0,0,0,0,0,429,430,431,0,0,0,0,0,0,0,0,0,0,
0,0,0,0,0,0,0,0,0,0,0,0,0,0,532,533,0,0,0,0,0,519,520,521,0,0,0,0,0,0,0,0,529,530,531,0,0,0,0,0,0,532,533,0,0,
0,0,0,0,0,0,0,0,0,0,0,0,0,0,632,633,0,0,0,0,0,0,0,612,0,0,0,0,0,0,0,0,629,630,631,0,0,0,0,0,0,632,633,0,0,
0,0,0,0,0,0,0,0,0,0,0,0,0,0,0,0,0,0,0,0,0,0,0,0,0,0,0,0,0,0,0,0,0,0,0,0,0,0,0,0,0,0,0,0,0,
0,0,0,0,0,0,0,0,0,0,0,0,0,0,0,0,0,0,0,0,0,0,0,0,0,0,0,0,0,0,0,0,0,0,0,0,0,0,0,0,0,0,0,0,0,
0,0,0,0,0,0,0,0,0,0,0,0,0,0,0,0,0,0,0,0,0,0,0,0,0,0,0,0,0,0,0,0,0,0,0,0,0,0,0,0,0,0,0,0,0,
0,0,0,0,0,0,0,0,0,0,0,0,0,0,0,0,0,0,0,0,0,0,0,0,0,0,0,0,0,0,0,0,0,0,0,0,0,0,0,0,0,0,0,0,0,
0,0,0,0,0,0,0,0,0,0,0,0,0,0,0,0,0,0,0,0,0,0,0,0,0,0,0,0,0,0,0,0,0,0,0,0,0,0,0,0,0,0,0,0,0
</data>
 </layer>
 <objectgroup id="19" name="Object Layer 1"/>
 <objectgroup id="42" name="Walls">
  <object id="7" type="wall" x="2.77778" y="260.185">
   <polygon points="-2.43292,-0.34756 59.2593,0 67.7481,-18.0964 167.785,-17.2628 175.788,-1.25691 216.136,-1.25691 220.804,12.4148 232.308,14.5822 237.81,29.421 247.981,30.2546 255.984,47.2609 411.874,46.594 418.377,29.421 471.896,29.5877 479.732,45.2601 522.748,45.7603 529.751,30.2546 575.434,29.7545 578.102,66.4346 577.435,103.948 532.074,104.243 472.772,104.348 374.369,104.533 278.507,104.839 260.424,101.324 258.902,86.4949 219.348,85.9375 211.666,69.7257 170.868,69.4978 166.723,55.8581 160.303,54.1755 57.1376,54.2545 23.2979,71.255 -1.94082,71.3211 -2.11087,52.2627"/>
  </object>
  <object id="8" type="wall" x="636.567" y="292.441">
   <polygon points="0,0 -0.666911,70.6926 56.8542,71.1928 56.6875,59.3551 58.8549,59.5218 63.8567,52.8527 70.5259,52.8527 76.0279,58.3547 77.6952,66.1909 82.5303,66.1909 83.1972,10.0037 59.3551,10.8373 59.3551,0.166728"/>
  </object>
  <object id="9" type="wall" x="503.326" y="24.3826">
   <polygon points="0,0 49.8102,-0.696646 48.7652,15.6745 44.237,18.4611 44.237,26.4725 41.7987,29.6074 38.3155,28.5625 37.9672,19.8544 12.1913,19.1578 12.1913,28.2141 5.92149,27.5175 6.61813,17.4161 0.696646,17.7645"/>
  </object>
  <object id="10" type="wall" x="554.53" y="58.1699">
   <polygon points="0,0 17.4161,-5.92149 32.0457,17.4161 74.1928,-5.92149 58.5182,-36.5739 9.75304,-25.4276"/>
  </object>
 </objectgroup>
 <group id="20" name="Buildings" locked="1">
  <imagelayer id="40" name="Sign" offsetx="502.449" offsety="8.53581">
   <image source="../../buildings/AL_TreeSign.png" width="52" height="45"/>
  </imagelayer>
  <imagelayer id="22" name="Cabin 1" offsetx="72.4643" offsety="286">
   <image source="../../buildings/Cabin1.png" width="48" height="80"/>
  </imagelayer>
 </group>
</map>
